<?xml version="1.0" encoding="UTF-8"?>
<map version="1.10" tiledversion="1.11.2" orientation="orthogonal" renderorder="right-down" width="25" height="34" tilewidth="16" tileheight="16" infinite="0" nextlayerid="5" nextobjectid="1">
 <editorsettings>
  <chunksize width="16" height="27"/>
  <export target="stereomadness.csv" format="csv"/>
 </editorsettings>
 <tileset firstgid="1" name="famidash" tilewidth="16" tileheight="16" tilecount="256" columns="16">
  <image source="../../../GRAPHICS/famidash.bmp" width="256" height="256"/>
 </tileset>
 <tileset firstgid="257" name="sprites" tilewidth="16" tileheight="16" tilecount="256" columns="16">
  <image source="../../../GRAPHICS/sprites.png" width="256" height="256"/>
 </tileset>
 <imagelayer id="3" name="Image Layer 1" parallaxx="0.9" parallaxy="0.9" repeatx="1" repeaty="1">
  <image source="../../../GRAPHICS/Old/parallax Blue.bmp" width="144" height="72"/>
 </imagelayer>
 <imagelayer id="4" name="Image Layer 2" offsetx="0" offsety="544" repeatx="1">
  <image source="../../../GRAPHICS/ground.bmp" width="64" height="128"/>
 </imagelayer>
 <layer id="1" width="25" height="34">
  <data encoding="csv">
0,0,0,0,0,0,0,0,0,0,0,0,0,0,0,0,0,0,0,0,0,0,0,0,0,
0,0,0,0,0,0,0,0,0,112,112,112,112,112,112,112,0,0,0,0,0,0,0,112,0,
0,0,0,0,0,0,0,112,112,112,112,112,112,112,112,112,112,112,112,112,112,112,112,0,0,
0,0,0,0,0,0,112,112,112,112,112,112,112,112,112,112,112,112,112,112,112,0,0,0,0,
0,0,0,0,0,0,112,112,112,112,112,112,112,112,112,112,112,112,112,112,112,112,112,112,0,
0,0,0,0,0,0,0,112,112,0,0,0,0,0,0,0,0,112,112,112,112,112,0,0,0,
0,0,0,0,0,0,0,112,0,0,0,0,0,0,0,0,0,0,112,112,112,0,0,0,0,
0,0,0,0,0,0,0,112,112,112,112,0,112,112,112,112,0,0,0,112,112,112,112,0,0,
0,0,0,0,0,0,112,0,0,0,0,112,0,0,0,0,112,0,0,112,112,0,0,0,0,
0,0,0,0,0,0,112,0,0,0,0,112,0,0,0,0,112,112,112,112,0,0,0,0,0,
0,0,0,0,0,0,112,0,0,0,0,112,0,0,0,0,112,0,0,112,112,0,0,0,0,
0,0,0,0,0,0,0,112,112,112,112,0,112,112,112,112,0,0,0,0,112,0,0,0,0,
0,0,0,0,0,0,0,253,112,112,0,0,0,0,0,253,253,0,0,0,112,0,0,0,0,
0,0,0,0,0,0,0,0,0,0,0,0,0,0,0,112,253,0,0,0,112,0,112,112,0,
0,0,0,0,0,0,0,0,0,0,0,0,0,0,112,112,0,0,0,112,112,112,112,0,0,
0,0,0,0,0,0,112,112,112,112,112,112,112,112,112,0,0,0,112,112,112,112,0,0,0,
0,0,0,0,0,0,0,0,0,112,0,0,0,0,112,0,0,0,112,112,112,0,0,0,0,
0,0,0,0,0,0,0,112,0,0,112,112,112,112,0,0,0,112,112,0,0,0,0,0,0,
0,0,0,0,0,0,0,0,112,0,112,0,0,112,0,0,0,112,0,0,0,0,0,0,0,
0,0,0,0,0,0,0,112,112,0,112,112,112,112,0,0,112,112,112,0,0,0,0,0,0,
0,0,0,0,0,0,112,112,112,0,0,0,0,0,0,0,112,112,112,0,0,0,0,0,0,
0,0,0,0,0,0,112,112,112,112,112,112,112,112,112,112,112,112,112,112,0,0,0,0,0,
0,0,0,0,0,112,112,112,112,112,0,0,0,0,0,112,112,112,112,112,0,0,0,0,0,
0,0,0,0,112,112,112,112,112,112,112,0,0,0,112,112,112,0,112,112,112,0,0,0,0,
0,0,0,112,112,112,0,112,112,112,112,112,0,112,112,112,112,0,0,112,112,0,0,0,0,
0,0,0,0,112,0,0,0,112,112,112,112,112,112,112,112,112,0,0,0,112,112,0,0,0,
0,0,0,112,0,0,0,0,112,112,112,112,112,112,112,112,0,0,0,0,112,0,0,0,0,
0,0,0,0,0,0,0,0,0,112,112,112,112,112,112,112,0,0,0,0,0,112,0,0,0,
0,0,0,0,0,0,0,0,0,112,112,112,112,112,112,112,0,0,0,0,0,0,0,0,0,
0,0,0,0,0,0,0,0,0,0,112,112,112,112,112,0,0,0,0,0,0,0,0,0,0,
0,0,0,0,0,0,0,0,0,0,112,0,0,0,0,0,0,0,0,0,0,0,0,0,0,
0,0,0,0,0,0,0,0,0,0,0,0,112,0,0,0,0,0,0,0,0,0,0,0,0,
0,0,0,0,0,0,0,0,0,0,0,0,112,0,0,0,0,0,0,0,0,0,0,0,0,
0,0,0,0,0,0,0,0,0,0,0,0,0,0,0,0,0,0,0,0,0,0,0,0,0
</data>
 </layer>
 <layer id="2" name="SP" width="25" height="34">
  <data encoding="csv">
0,0,0,0,0,0,0,0,0,449,449,449,449,449,449,449,0,0,0,0,0,0,0,449,449,
0,0,0,0,0,0,0,449,449,0,0,0,0,0,0,0,449,449,449,449,449,449,449,0,449,
0,0,0,0,0,0,449,0,0,0,0,0,0,0,0,0,0,0,0,0,0,0,0,449,0,
0,0,0,0,0,449,0,0,0,0,0,0,0,0,0,0,0,0,0,0,0,449,449,449,449,
0,0,0,0,0,449,0,0,0,0,0,0,0,0,0,0,0,0,0,0,0,0,0,0,449,
0,0,0,0,0,0,449,0,0,481,481,481,481,481,481,481,481,0,0,0,0,0,449,449,0,
0,0,0,0,0,0,0,0,449,481,481,481,481,481,481,481,481,481,0,0,0,449,449,0,0,
0,0,0,0,0,0,0,0,0,0,0,481,0,0,0,0,481,481,481,0,0,0,0,449,0,
0,0,0,0,0,0,0,486,486,486,486,0,441,441,441,441,0,481,481,0,0,449,449,0,0,
0,0,0,0,0,0,0,486,486,486,486,0,441,441,441,441,0,0,0,0,449,0,0,0,0,
0,0,0,0,0,0,0,486,486,486,486,0,441,441,441,441,0,481,481,0,0,0,0,0,0,
0,0,0,0,0,0,0,0,0,0,0,481,0,0,0,0,481,481,481,481,0,0,0,0,0,
0,0,0,0,0,0,449,0,0,0,481,481,481,481,481,0,0,481,481,481,0,0,449,449,0,
0,0,0,0,449,449,481,481,481,481,481,481,481,481,481,0,0,481,481,481,0,449,0,0,449,
0,449,449,449,481,481,481,481,481,481,481,481,481,481,0,0,481,481,481,0,0,0,0,449,449,
449,449,449,449,449,449,0,0,0,0,0,0,0,0,0,481,481,481,0,0,0,0,449,0,0,
0,0,0,0,0,0,449,481,481,0,481,481,481,481,0,481,481,481,0,0,0,449,0,0,0,
0,0,0,0,0,0,0,0,481,481,0,0,0,0,481,481,481,0,0,449,449,0,0,0,0,
0,0,0,0,0,0,0,449,0,481,0,481,481,0,481,481,481,0,449,0,0,0,0,0,0,
0,0,0,0,0,0,449,0,0,481,0,0,0,0,481,481,0,0,0,449,0,0,0,0,0,
0,0,0,0,0,449,0,0,0,481,481,481,481,481,481,481,0,0,0,449,0,0,0,0,0,
0,0,0,0,0,449,0,0,0,0,0,0,0,0,0,0,0,0,0,0,449,0,0,0,0,
0,0,0,0,449,0,0,0,0,0,449,481,481,481,449,0,0,0,0,0,449,0,0,0,0,
0,0,0,449,0,0,0,0,0,0,0,449,481,449,0,0,0,449,0,0,0,449,0,0,0,
0,0,449,0,0,0,449,0,0,0,0,0,449,0,0,0,0,449,449,0,0,449,0,0,0,
449,449,481,449,0,449,0,449,0,0,0,0,0,0,0,0,0,449,0,449,0,0,449,0,0,
449,481,481,0,449,0,0,449,0,0,0,0,0,0,0,0,449,0,0,449,0,449,481,449,0,
0,449,449,449,0,0,0,0,449,0,0,0,0,0,0,0,449,0,0,0,449,0,481,481,449,
0,0,0,0,0,0,0,0,449,0,0,0,0,0,0,0,449,0,0,0,0,449,449,449,449,
0,0,0,0,0,0,0,0,0,449,0,0,0,0,0,449,0,0,0,0,0,0,0,0,0,
0,0,0,0,0,0,0,0,0,449,0,481,481,481,481,449,0,0,0,0,0,0,0,0,0,
0,0,0,0,0,0,0,0,0,0,449,481,0,481,481,449,0,0,0,0,0,0,0,0,0,
0,0,0,0,0,0,0,0,0,0,449,481,0,481,449,0,0,0,0,0,0,0,0,0,0,
0,0,0,0,0,0,0,0,0,0,0,449,449,449,449,0,0,0,0,0,0,0,0,0,0
</data>
 </layer>
</map>
