<?xml version="1.0" encoding="UTF-8"?>
<map version="1.10" tiledversion="1.11.2" orientation="orthogonal" renderorder="right-down" width="1159" height="27" tilewidth="16" tileheight="16" infinite="0" nextlayerid="5" nextobjectid="1">
 <editorsettings>
  <chunksize width="16" height="27"/>
  <export target="../LEVELS/LEVEL DATA/aprettyeasylevel.csv" format="csv"/>
 </editorsettings>
 <tileset firstgid="1" name="famidash" tilewidth="16" tileheight="16" tilecount="256" columns="16">
  <image source="../../../GRAPHICS/famidash.bmp" width="256" height="256"/>
 </tileset>
 <tileset firstgid="257" name="sprites" tilewidth="16" tileheight="16" tilecount="256" columns="16">
  <image source="../../../GRAPHICS/sprites.png" width="256" height="256"/>
 </tileset>
 <imagelayer id="3" name="Image Layer 1" parallaxx="0.9" parallaxy="0.9" repeatx="1" repeaty="1">
  <image source="../../../GRAPHICS/Old/parallax Blue.bmp" width="144" height="72"/>
 </imagelayer>
 <imagelayer id="4" name="Image Layer 2" offsetx="0" offsety="432" repeatx="1">
  <image source="../../../GRAPHICS/ground.bmp" width="64" height="128"/>
 </imagelayer>
 <layer id="1" width="1159" height="27">
  <data encoding="csv">
48,78,0,78,48,78,0,78,48,78,0,78,48,78,0,0,0,0,0,0,0,0,0,52,47,47,50,0,0,0,0,0,0,0,0,0,0,0,0,0,0,0,0,0,0,0,0,0,0,0,0,0,0,0,0,0,0,0,0,0,0,0,0,0,0,0,0,0,0,0,0,0,0,0,0,0,248,116,111,111,114,249,0,0,0,0,0,0,0,248,116,111,111,114,249,0,0,0,0,0,0,0,0,0,0,0,0,0,0,0,0,0,0,0,0,0,0,0,0,0,0,0,0,0,0,0,0,0,0,0,0,0,0,0,0,0,0,0,0,0,0,0,0,0,0,0,0,0,0,0,0,0,0,0,0,0,0,0,0,0,0,0,0,0,0,0,0,69,17,67,0,0,0,0,0,0,0,0,0,0,69,17,67,0,0,0,0,0,69,80,67,0,0,0,0,78,0,0,0,0,69,80,67,0,0,0,0,0,69,67,0,0,69,67,0,0,69,67,0,0,0,0,69,80,67,0,0,0,0,0,0,0,0,69,80,80,7,80,80,80,80,67,0,0,0,0,0,0,0,0,0,0,0,0,0,0,0,0,0,0,0,0,0,0,0,0,0,0,0,0,0,0,0,0,0,0,0,0,0,0,0,0,0,0,0,0,0,0,0,0,0,0,0,0,0,0,0,0,0,0,0,0,0,0,0,0,0,0,0,0,0,0,0,0,0,0,0,0,0,48,48,0,0,0,0,0,0,0,0,0,0,0,0,0,0,0,0,0,0,0,0,0,0,0,0,0,0,0,0,0,0,0,0,0,0,0,0,0,0,0,0,0,0,0,0,0,0,0,0,0,0,0,0,0,0,0,0,0,0,0,0,0,0,0,0,0,0,0,0,0,0,0,0,0,0,0,0,0,0,0,0,0,0,0,0,0,0,0,0,0,0,0,0,0,0,0,0,0,0,0,0,0,0,0,0,0,0,0,0,0,0,0,0,0,0,0,0,0,0,0,0,0,0,0,0,0,0,0,0,0,0,0,0,0,0,0,0,0,0,0,0,0,0,0,0,0,0,0,0,0,0,0,0,0,0,0,0,0,0,0,0,0,0,0,0,0,0,0,0,0,0,0,0,0,0,0,0,0,0,0,0,0,0,0,0,0,0,0,0,0,0,0,0,0,37,69,67,7,7,7,3,7,7,7,3,7,7,7,3,7,7,7,3,7,7,7,3,7,7,7,3,126,126,126,126,126,126,126,126,126,126,126,126,126,126,126,126,126,126,126,126,126,126,126,126,126,126,126,126,126,126,126,126,126,126,126,126,126,126,126,126,126,126,126,126,126,126,126,126,126,126,126,126,126,126,126,126,126,126,126,126,126,126,126,126,126,126,126,126,126,126,126,126,126,126,126,126,126,126,126,126,126,126,126,126,126,126,126,126,126,126,126,126,126,126,126,126,126,126,126,126,126,126,126,126,126,126,126,126,126,126,126,126,126,126,126,126,126,126,126,126,126,126,126,126,126,126,126,126,126,126,126,126,126,126,126,126,126,126,126,126,126,126,126,126,126,126,126,126,126,126,126,126,126,126,126,126,126,126,126,126,126,126,126,126,126,126,126,126,126,126,126,126,126,126,126,126,126,126,126,126,126,126,126,126,126,126,126,126,126,126,126,126,126,126,126,126,126,126,126,126,126,126,126,126,126,126,126,126,126,126,126,126,126,126,126,126,126,126,126,126,126,126,126,126,126,126,126,126,126,126,126,126,126,126,126,3,7,7,7,3,7,7,7,3,7,7,7,3,7,7,7,3,7,7,7,0,0,0,0,0,0,0,0,0,0,0,0,0,0,0,0,0,0,0,0,0,0,0,0,0,0,0,0,0,0,0,0,0,0,0,0,0,0,0,0,0,0,0,0,0,0,0,0,0,0,0,0,0,0,0,0,0,0,0,0,0,0,0,0,0,0,0,0,0,0,0,0,0,7,7,0,0,0,0,0,0,0,0,69,67,101,99,69,67,101,99,0,0,0,0,0,0,0,101,99,0,0,0,0,101,99,0,0,0,0,0,0,0,69,67,101,99,0,0,0,0,69,67,101,99,69,67,0,0,0,101,99,69,67,0,0,0,0,0,0,0,0,0,0,0,0,69,80,67,0,69,80,67,0,3,7,7,0,69,80,67,0,0,0,0,110,0,0,0,0,3,0,0,0,110,110,0,0,0,3,7,0,69,67,0,0,0,3,0,0,0,0,0,0,0,110,0,0,0,3,7,7,0,0,0,110,0,0,0,0,110,110,110,0,0,0,0,0,3,7,7,0,0,110,0,0,0,0,3,0,0,0,0,110,0,0,0,0,3,0,0,0,0,110,0,0,0,69,67,0,0,0,0,0,0,0,0,0,0,0,0,0,0,0,0,0,0,0,0,0,0,0,0,0,0,0,0,0,0,0,0,0,0,0,0,0,0,0,0,0,0,0,0,0,0,0,0,0,0,0,0,0,0,0,0,0,0,0,0,0,0,0,0,0,0,0,0,0,0,0,0,0,0,0,0,0,0,0,0,0,0,0,0,0,0,0,0,0,0,0,0,0,0,0,0,0,0,0,0,0,0,0,0,110,80,80,80,110,80,80,80,110,80,
48,78,0,78,48,78,0,78,48,78,0,78,48,78,0,0,0,0,0,0,0,0,0,101,121,121,99,0,0,0,0,0,0,0,0,0,0,0,0,0,0,0,0,0,0,0,0,0,0,0,0,0,0,0,0,0,0,0,0,0,0,0,0,0,0,0,0,0,0,0,0,0,0,0,0,0,0,69,121,80,67,0,0,0,0,0,0,0,0,0,69,80,121,67,0,0,0,0,0,0,0,0,0,0,0,0,0,0,0,0,0,0,0,0,0,0,0,0,0,0,0,0,0,0,0,0,0,0,0,0,0,0,0,0,0,0,0,0,0,0,0,0,0,0,0,0,0,0,0,0,0,0,0,0,0,0,0,0,0,0,0,0,0,0,0,0,0,69,80,67,0,0,0,0,0,0,0,0,0,0,69,80,67,0,0,0,0,0,69,17,67,0,0,0,0,78,0,0,0,0,69,17,67,0,0,0,0,0,69,67,0,0,69,67,0,0,69,67,0,0,0,0,69,17,67,0,0,0,0,0,0,0,0,69,80,80,7,80,80,80,80,67,0,0,0,0,0,0,0,0,0,0,0,0,0,0,0,0,0,0,0,0,0,0,0,0,0,0,0,0,0,0,0,0,0,0,0,0,0,0,0,0,0,0,0,0,0,0,0,0,0,0,0,0,0,0,0,0,0,0,0,0,0,0,0,0,0,0,0,0,0,0,0,0,0,0,0,0,207,48,48,0,0,0,0,0,0,0,0,0,0,0,0,0,0,0,0,0,0,0,0,0,0,0,0,0,0,0,0,0,0,0,0,0,0,0,0,0,0,0,0,0,0,0,0,0,0,0,0,0,0,0,0,0,0,0,0,0,0,0,0,0,0,0,0,0,0,0,0,0,0,0,0,0,0,0,0,0,0,0,0,0,0,0,0,0,0,0,0,0,0,0,0,0,0,0,0,0,0,0,0,0,0,0,0,0,0,0,0,0,0,0,0,0,0,0,0,0,0,0,0,0,0,0,0,0,0,0,0,0,0,0,0,0,0,0,0,0,0,0,0,0,0,0,0,0,0,0,0,0,0,0,0,0,0,0,0,0,0,0,0,0,0,0,0,0,0,0,0,0,0,0,0,0,0,0,0,0,0,0,0,0,0,0,0,0,0,0,0,0,0,0,0,0,37,69,67,7,7,7,3,7,7,7,3,7,7,7,3,7,7,7,3,7,7,7,3,7,7,7,3,126,126,126,126,126,126,126,126,126,126,126,126,126,126,126,126,126,126,126,126,126,126,126,126,126,126,126,126,126,126,126,126,126,126,126,126,126,126,126,126,126,126,126,126,126,126,126,126,126,126,126,126,126,126,126,126,126,126,126,126,126,126,126,126,126,126,126,126,126,126,126,126,126,126,126,126,126,126,126,126,126,126,126,126,126,126,126,126,126,126,126,126,126,126,126,126,126,126,126,126,126,126,126,126,126,126,126,126,126,126,126,126,126,126,126,126,126,126,126,126,126,126,126,126,126,126,126,126,126,126,126,126,126,126,126,126,126,126,126,126,126,126,126,126,126,126,126,126,126,126,126,126,126,126,126,126,126,126,126,126,126,126,126,126,126,126,126,126,126,126,126,126,126,126,126,126,126,126,126,126,126,126,126,126,126,126,126,126,126,126,126,126,126,126,126,126,126,126,126,126,126,126,126,126,126,126,126,126,126,126,126,126,126,126,126,126,126,126,126,126,126,126,126,126,126,126,126,126,126,126,126,126,126,126,126,3,7,7,7,3,7,7,7,3,7,7,7,3,7,7,7,3,7,7,7,0,0,0,0,0,0,0,0,0,0,0,0,0,0,0,0,0,0,0,0,0,0,0,0,0,0,0,0,0,0,0,0,0,0,0,0,0,0,0,0,0,0,0,0,0,0,0,0,0,0,0,0,0,0,0,0,0,0,0,0,0,0,0,0,0,0,0,0,0,0,0,0,141,7,7,142,0,0,0,0,0,0,0,69,67,101,99,69,67,101,99,0,0,0,0,0,0,117,101,99,119,0,0,117,101,99,119,0,0,0,0,0,0,69,67,101,99,0,0,0,0,69,67,101,99,69,67,0,0,0,101,99,69,67,0,0,0,0,0,0,0,0,0,0,0,0,69,80,67,0,110,110,110,0,3,7,7,0,110,110,110,0,0,0,0,78,0,0,0,0,3,0,0,0,69,67,0,0,0,3,7,0,110,110,0,0,0,3,0,0,0,0,0,0,0,78,0,0,0,3,7,7,0,0,0,78,0,0,0,0,69,80,67,0,0,0,0,0,3,7,7,0,0,78,0,0,0,0,3,0,0,0,0,78,0,0,0,0,3,0,0,0,0,78,0,0,0,110,110,0,0,0,0,0,0,0,0,0,0,0,0,0,0,0,0,0,0,0,0,0,0,0,0,0,0,0,0,0,0,0,0,0,0,0,0,0,0,0,0,0,0,0,0,0,0,0,0,0,0,0,0,0,0,0,0,0,0,0,0,0,0,0,0,0,0,0,0,0,0,0,0,0,0,0,0,0,0,0,0,0,0,0,0,0,0,0,0,0,0,0,0,0,0,0,0,0,0,0,0,0,0,0,0,110,80,121,80,110,80,121,80,110,80,
48,78,0,78,48,78,0,78,48,78,0,78,48,78,0,0,0,0,0,0,0,0,0,52,47,47,50,0,0,0,0,0,0,0,0,0,0,0,0,0,0,0,0,0,0,0,0,0,0,0,0,0,0,0,0,0,0,0,0,0,0,0,0,0,0,0,0,0,0,0,0,0,0,0,0,0,0,69,80,121,67,0,0,0,0,0,0,0,0,0,69,121,80,67,0,0,0,0,0,0,0,0,0,0,0,0,0,0,0,0,0,0,0,0,0,0,0,0,0,0,0,0,0,0,0,0,0,0,0,0,0,0,0,0,0,0,0,0,0,0,0,0,0,0,0,0,0,0,0,0,0,0,0,0,0,0,0,0,0,0,0,0,0,0,0,0,0,69,17,67,0,0,0,0,0,0,0,0,0,0,69,17,67,0,0,0,0,0,69,80,67,0,0,0,0,78,0,0,0,0,69,80,67,0,0,0,0,0,69,67,0,0,69,67,0,0,69,67,0,0,0,0,69,80,67,0,0,0,0,0,0,0,0,69,80,80,7,80,80,80,80,67,0,0,0,0,0,0,0,0,0,0,0,0,0,0,0,0,0,0,0,0,0,0,0,0,0,0,0,0,0,0,0,0,0,0,0,0,0,0,0,0,0,0,0,0,0,0,0,0,0,0,0,0,0,0,0,0,0,0,0,0,0,0,0,0,0,0,0,0,0,0,0,0,0,0,0,0,48,48,209,0,0,0,0,0,0,0,0,0,0,0,0,0,0,0,0,0,0,0,0,0,0,0,0,0,0,0,0,0,0,0,0,0,0,0,0,0,0,0,0,0,0,0,0,0,0,0,0,0,0,0,0,0,0,0,0,0,0,0,0,0,0,0,0,0,0,0,0,0,0,0,0,0,0,0,0,0,0,0,0,0,0,0,0,0,0,0,0,0,0,0,0,0,0,0,0,0,0,0,0,0,0,0,0,0,0,0,0,0,0,0,0,0,0,0,0,0,0,0,0,0,0,0,0,0,0,0,0,0,0,0,0,0,0,0,0,0,0,0,0,0,0,0,0,0,0,0,0,0,0,0,0,0,0,0,0,0,0,0,0,0,0,0,0,0,0,0,0,0,0,0,0,0,0,0,0,0,0,0,0,0,0,0,0,0,0,0,0,0,0,0,0,0,37,69,67,7,7,7,3,7,7,7,3,7,7,7,3,7,7,7,3,7,7,7,3,7,7,7,3,126,126,126,126,126,126,126,126,126,126,126,126,126,126,126,126,126,126,126,126,126,126,126,126,126,126,126,126,126,126,126,126,126,126,126,126,126,126,126,126,126,126,126,126,126,126,126,126,126,126,126,126,126,126,126,126,126,126,126,126,126,126,126,126,126,126,126,126,126,126,126,126,126,126,126,126,126,126,126,126,126,126,126,126,126,126,126,126,126,126,126,126,126,126,126,126,126,126,126,126,126,126,126,126,126,126,126,126,126,126,126,126,126,126,126,126,126,126,126,126,126,126,126,126,126,126,126,126,126,126,126,126,126,126,126,126,126,126,126,126,126,126,126,126,126,126,126,126,126,126,126,126,126,126,126,126,126,126,126,126,126,126,126,126,126,126,126,126,126,126,126,126,126,126,126,126,126,126,126,126,126,126,126,126,126,126,126,126,126,126,126,126,126,126,126,126,126,126,126,126,126,126,126,126,126,126,126,126,126,126,126,126,126,126,126,126,126,126,126,126,126,126,126,126,126,126,126,126,126,126,126,126,126,126,126,3,7,7,7,3,7,7,7,3,7,7,7,3,7,7,7,3,7,7,7,0,0,0,0,0,0,0,0,0,0,0,0,0,0,0,0,0,0,0,0,0,0,0,0,0,0,0,0,0,0,0,117,118,119,0,0,0,0,0,0,0,0,0,0,0,0,0,0,0,0,0,0,0,0,0,0,0,0,0,117,118,119,0,0,0,0,0,0,0,0,0,0,0,7,7,0,0,0,0,0,0,0,0,69,67,101,99,69,67,101,99,0,0,0,0,0,0,120,101,99,122,0,0,120,101,99,122,0,0,0,0,0,0,69,67,101,99,0,0,0,0,69,67,101,99,69,67,0,0,0,101,99,69,67,0,0,0,0,0,0,0,0,0,0,0,0,69,80,67,0,69,80,67,0,3,7,7,0,69,80,67,0,0,0,0,110,0,0,0,0,3,0,0,0,110,110,0,0,0,3,7,0,69,67,0,0,0,3,0,0,0,0,0,0,0,110,0,0,0,3,7,7,0,0,0,110,0,0,0,0,110,110,110,0,0,0,0,0,3,7,7,0,0,110,0,0,0,0,3,0,0,0,0,110,0,0,0,0,3,0,0,0,0,110,0,0,0,69,67,0,0,0,0,0,0,0,0,0,0,0,0,0,0,0,0,0,0,0,0,0,0,0,0,0,0,0,0,0,0,0,0,0,0,0,0,0,0,0,0,0,0,0,0,0,0,0,0,0,0,0,0,0,0,0,0,0,0,0,0,0,0,0,0,0,0,0,0,0,0,0,0,0,0,0,0,0,0,0,0,0,0,0,0,0,0,0,0,0,0,0,0,0,0,0,0,0,0,0,0,0,0,0,0,110,80,80,80,110,80,80,80,110,80,
48,78,0,78,48,78,0,78,48,78,0,78,48,78,0,0,0,0,0,0,0,0,0,101,121,121,99,0,0,0,0,0,0,0,0,0,0,0,0,0,0,0,0,0,0,0,0,0,0,0,0,0,0,0,0,0,0,0,0,0,0,0,0,0,0,0,0,0,0,0,0,0,0,0,0,0,248,116,111,111,114,249,0,0,0,0,0,0,0,248,116,111,111,114,249,0,0,0,0,0,0,0,0,0,0,0,0,0,0,0,0,0,0,0,0,0,0,0,0,0,0,0,0,0,0,0,0,0,0,0,0,0,0,0,0,0,0,0,0,0,0,0,0,0,0,0,0,0,0,0,0,0,0,0,0,0,0,0,0,0,0,0,0,0,0,0,0,69,80,67,0,0,0,0,0,0,0,0,0,0,69,80,67,0,0,0,0,0,69,17,67,0,0,0,0,78,0,0,0,0,69,17,67,0,0,0,0,0,69,67,0,0,69,67,0,0,69,67,0,0,0,0,69,17,67,0,0,0,0,0,0,0,0,69,80,80,7,80,80,80,80,67,0,0,0,0,0,0,0,0,0,0,0,0,0,0,0,0,0,0,0,0,0,0,0,0,0,0,0,0,0,0,0,0,0,0,0,0,0,0,0,0,0,0,0,0,0,0,0,0,0,0,0,0,0,0,0,0,0,0,0,0,0,0,0,0,0,0,0,0,0,0,0,0,0,0,0,207,48,48,0,0,0,0,0,0,0,0,0,0,0,0,0,0,0,0,0,0,0,0,0,0,0,0,0,0,0,0,0,0,0,0,0,0,0,0,0,0,0,0,0,0,0,0,0,0,0,0,0,0,0,0,0,0,0,0,0,0,0,0,0,0,0,0,0,0,0,0,0,0,0,0,0,0,0,0,0,0,0,0,0,0,0,0,0,0,0,0,0,0,0,0,0,0,0,0,0,0,0,0,0,0,0,0,0,0,0,0,0,0,0,0,0,0,0,0,0,0,0,0,0,0,0,0,0,0,0,0,0,0,0,0,0,0,0,0,0,0,0,0,0,0,0,0,0,0,0,0,0,0,0,0,0,0,0,0,0,0,0,0,0,0,0,0,0,0,0,0,0,0,0,0,0,0,0,0,0,0,0,0,0,0,0,0,0,0,0,0,0,0,0,0,0,0,37,69,67,7,7,7,3,7,7,7,3,7,7,7,3,7,7,7,3,7,7,7,3,7,7,7,3,126,126,126,126,126,126,126,126,126,126,126,126,126,126,126,126,126,126,126,126,126,126,126,126,126,126,126,126,126,126,126,126,126,126,126,126,126,126,126,126,126,126,126,126,126,126,126,126,126,126,126,126,126,126,126,126,126,126,126,126,126,126,126,126,126,126,126,126,126,126,126,126,126,126,126,126,126,126,126,126,126,126,126,126,126,126,126,126,126,126,126,126,126,126,126,126,126,126,126,126,126,126,126,126,126,126,126,126,126,126,126,126,126,126,126,126,126,126,126,126,126,126,126,126,126,126,126,126,126,126,126,126,126,126,126,126,126,126,126,126,126,126,126,126,126,126,126,126,126,126,126,126,126,126,126,126,126,126,126,126,126,126,126,126,126,126,126,126,126,126,126,126,126,126,126,126,126,126,126,126,126,126,126,126,126,126,126,126,126,126,126,126,126,126,126,126,126,126,126,126,126,126,126,126,126,126,126,126,126,126,126,126,126,126,126,126,126,126,126,126,126,126,126,126,126,126,126,126,126,126,126,126,126,126,126,3,7,7,7,3,7,7,7,3,7,7,7,3,7,7,7,3,7,7,7,0,0,0,0,0,0,0,0,0,0,0,0,0,0,0,0,0,0,0,0,0,0,0,0,0,0,0,0,0,0,0,120,121,122,0,0,0,0,0,0,0,0,0,0,0,0,0,0,0,0,0,0,0,0,0,0,0,0,0,120,121,122,0,117,118,119,0,0,0,0,0,0,0,7,7,0,0,0,0,0,0,0,0,69,67,101,99,69,67,101,99,0,0,0,0,0,0,123,101,99,125,0,0,123,101,99,125,0,0,0,0,0,0,69,67,101,99,0,0,0,0,69,67,101,99,69,67,0,0,0,101,99,69,67,0,0,0,0,0,0,0,0,0,0,0,0,69,80,67,0,110,110,110,0,3,7,7,0,110,110,110,0,0,0,0,78,0,0,0,0,3,0,0,0,69,67,0,0,0,3,7,0,110,110,0,0,0,3,0,0,0,0,0,0,0,78,0,0,0,3,7,7,0,0,0,78,0,0,0,0,69,80,67,0,0,0,0,0,3,7,7,0,0,78,0,0,0,0,3,0,0,0,0,78,0,0,0,0,3,0,0,0,0,78,0,0,0,110,110,0,0,0,0,0,0,0,0,0,0,0,0,0,0,0,0,0,0,0,0,0,0,0,0,0,0,0,0,0,0,0,0,0,0,0,0,0,0,0,0,0,0,0,0,0,0,0,0,0,0,0,0,0,0,0,0,0,0,0,0,0,0,0,0,0,0,0,0,0,0,0,0,0,0,0,0,0,0,0,0,0,0,0,0,0,0,0,0,0,0,0,0,0,0,0,0,0,0,0,0,0,0,0,0,110,80,80,80,110,80,80,80,110,80,
48,78,0,78,48,78,0,78,48,78,0,78,48,78,0,0,0,0,0,0,0,0,0,52,47,47,50,0,0,0,0,0,0,0,0,0,0,0,0,0,0,0,0,0,0,0,0,0,0,0,0,0,0,0,0,0,0,0,0,0,0,0,0,0,0,0,0,0,0,0,0,0,0,0,0,0,0,69,121,80,67,0,0,0,0,0,0,0,0,0,69,80,121,67,0,0,0,0,0,0,0,0,0,0,0,0,0,0,0,0,0,0,0,0,0,0,0,0,0,0,0,0,0,0,0,0,0,0,0,0,0,0,0,0,0,0,0,0,0,0,0,0,0,0,0,0,0,0,0,0,0,0,0,0,0,0,0,0,0,0,0,0,0,0,0,0,0,69,17,67,0,0,0,0,0,0,0,0,0,0,69,17,67,0,0,0,0,0,69,80,67,0,0,0,0,78,0,0,0,0,69,80,67,0,0,0,0,0,69,67,0,0,69,67,0,0,69,67,0,0,0,0,69,80,67,0,0,0,0,0,0,0,0,69,80,80,7,80,80,80,80,67,0,0,0,0,0,0,0,0,0,0,0,0,0,0,0,0,0,0,0,0,0,0,0,0,0,0,0,0,0,0,0,0,0,0,0,0,0,0,0,0,0,0,0,0,0,0,0,0,0,0,0,0,0,0,0,0,0,0,0,0,0,0,0,0,0,0,0,0,0,0,0,0,0,0,0,48,48,209,0,0,0,0,0,0,0,0,0,0,0,0,0,0,0,0,0,0,0,0,0,0,0,0,0,0,0,0,0,0,0,0,0,0,0,0,0,0,0,0,0,0,0,0,0,0,0,0,0,0,0,0,0,0,0,0,0,0,0,0,0,0,0,0,0,0,0,0,0,0,0,0,0,0,0,0,0,0,0,0,0,0,0,0,0,0,0,0,0,0,0,0,0,0,182,182,0,0,0,0,0,0,0,0,0,0,0,0,0,0,0,0,0,0,0,0,0,0,0,0,0,0,0,0,0,0,0,0,0,0,0,0,0,0,0,0,0,0,0,0,0,0,0,0,0,0,0,0,0,0,0,0,0,0,0,0,0,0,0,0,0,0,0,0,0,0,0,0,0,0,0,0,0,0,0,0,0,0,0,0,0,0,0,0,0,0,0,0,0,0,0,0,0,0,37,69,67,7,7,7,3,7,7,7,3,7,7,7,3,7,7,7,3,7,7,7,3,7,7,7,3,126,126,126,126,126,126,126,126,126,126,126,126,126,126,126,126,126,126,126,126,126,126,126,126,126,126,126,126,126,126,126,126,126,126,126,126,126,126,126,126,126,126,126,126,126,126,126,126,126,126,126,126,126,126,126,126,126,126,126,126,126,126,126,126,126,126,126,126,126,126,126,126,126,126,126,126,126,126,126,126,126,126,126,126,126,126,126,126,126,126,126,126,126,126,126,126,126,126,126,126,126,126,126,126,126,126,126,126,126,126,126,126,126,126,126,126,126,126,126,126,126,126,126,126,126,126,126,126,126,126,126,126,126,126,126,126,126,126,126,126,126,126,126,126,126,126,126,126,126,126,126,126,126,126,126,126,126,126,126,126,126,126,126,126,126,126,126,126,126,126,126,126,126,126,126,126,126,126,126,126,126,126,126,126,126,126,126,126,126,126,126,126,126,126,126,126,126,126,126,126,126,126,126,126,126,126,126,126,126,126,126,126,126,126,126,126,126,126,126,126,126,126,126,126,126,126,126,126,126,126,126,126,126,126,126,3,7,7,7,3,7,7,7,3,7,7,7,3,7,7,7,3,7,7,7,0,0,0,0,0,0,0,0,0,0,0,0,0,0,0,0,0,0,0,0,0,0,0,0,0,0,0,0,0,0,0,123,124,125,0,0,0,0,0,0,0,0,0,0,0,0,0,0,0,0,0,0,0,0,0,0,0,0,0,123,124,125,0,120,121,122,0,0,0,0,0,0,141,7,7,142,0,0,0,0,0,0,0,69,67,101,99,69,67,101,99,0,0,0,0,0,0,0,101,99,0,0,0,0,101,99,0,0,0,0,0,0,0,69,67,101,99,0,0,0,0,69,67,101,99,69,67,0,0,0,101,99,69,67,0,0,0,0,0,0,0,0,0,0,0,0,69,80,67,0,69,80,67,0,3,7,7,0,69,80,67,0,0,0,0,110,0,0,0,0,3,0,0,0,110,110,0,0,0,3,7,0,69,67,0,0,0,3,0,0,0,0,0,0,0,110,0,0,0,3,7,7,0,0,0,110,0,0,0,0,110,110,110,0,0,0,0,0,3,7,7,0,0,110,0,0,0,0,3,0,0,0,0,110,0,0,0,0,3,0,0,0,0,110,0,0,0,69,67,0,0,0,0,0,0,0,0,0,0,0,0,0,0,0,0,0,0,0,0,0,0,0,0,0,0,0,0,0,0,0,0,0,0,0,0,0,0,0,0,0,0,0,0,0,0,0,0,0,0,0,0,0,0,0,0,0,0,0,0,0,0,0,0,0,0,0,0,0,0,0,0,0,0,0,0,0,0,0,0,0,0,0,0,0,0,0,0,0,0,0,0,0,0,0,0,0,0,0,0,0,0,0,0,110,80,121,80,110,80,121,80,110,80,
48,78,0,78,48,78,0,78,48,78,0,78,48,78,0,0,0,0,0,0,0,0,0,101,121,121,99,0,0,0,0,0,0,0,0,0,0,0,0,0,0,0,0,0,0,0,0,0,0,0,0,0,0,0,0,0,0,0,0,0,0,0,0,0,0,0,0,0,0,0,0,0,0,0,0,0,0,69,80,121,67,0,0,0,0,0,0,0,0,0,69,121,80,67,0,0,0,0,0,0,0,0,0,0,0,0,0,0,0,0,0,0,0,0,0,0,0,0,0,0,0,0,0,0,0,0,0,0,0,0,0,0,0,0,0,0,0,0,0,0,0,0,0,0,0,0,0,0,0,0,0,0,0,0,0,0,0,0,0,0,0,0,0,0,0,0,0,69,80,67,0,0,0,0,0,0,0,0,0,0,69,80,67,0,0,0,0,0,69,17,67,0,0,0,0,78,0,0,0,0,69,17,67,0,0,0,0,0,69,67,0,0,69,67,0,0,69,67,0,0,0,0,69,17,67,0,0,0,0,0,0,0,0,69,80,80,7,80,80,80,80,67,0,0,0,0,0,0,0,0,0,0,0,0,0,0,0,0,0,0,0,0,0,0,0,0,0,0,0,0,0,0,0,0,0,0,125,117,120,120,7,118,120,0,0,0,0,0,0,0,0,0,0,0,0,0,0,0,0,0,0,0,0,0,0,0,0,0,0,0,0,0,0,0,0,0,207,48,48,0,0,0,0,0,0,0,0,0,0,0,0,0,0,0,0,0,0,0,0,0,0,0,0,0,0,0,0,0,0,0,0,0,0,0,0,0,0,0,0,0,0,0,0,0,0,0,0,0,0,0,0,0,0,0,0,0,0,0,0,0,0,0,0,0,0,0,0,0,0,0,0,0,0,0,0,0,0,0,0,0,0,0,0,0,0,0,0,0,0,0,0,0,188,212,212,212,212,182,182,0,0,0,0,0,0,0,0,0,0,0,0,0,0,0,0,0,0,0,0,0,0,0,0,0,0,0,0,0,0,0,0,0,0,0,0,0,0,0,0,0,0,0,0,0,0,0,0,0,0,0,0,0,0,0,0,0,0,0,0,0,0,0,0,0,0,0,0,0,0,0,0,0,0,0,0,0,0,0,0,0,0,0,0,0,0,0,0,0,0,0,0,0,0,0,37,69,67,7,7,7,3,7,7,7,3,7,7,7,3,7,7,7,3,7,7,7,3,7,7,7,3,126,126,126,126,126,126,126,126,126,126,126,126,126,126,126,126,126,126,126,126,126,126,126,126,126,126,126,126,126,126,126,126,126,126,126,126,126,126,126,126,126,126,126,126,126,126,126,126,126,126,126,126,126,126,126,126,126,126,126,126,126,126,126,126,126,126,126,126,126,126,126,126,126,126,126,126,126,126,126,126,126,126,126,126,126,126,126,126,126,126,126,126,126,126,126,126,126,126,126,126,126,126,126,126,126,126,126,126,126,126,126,126,126,126,126,126,126,126,126,126,126,126,126,126,126,126,126,126,126,126,126,126,126,126,126,126,126,126,126,126,126,126,126,126,126,126,126,126,126,126,126,126,126,126,126,126,126,126,126,126,126,126,126,126,126,126,126,126,126,126,126,126,126,126,126,126,126,126,126,126,126,126,126,126,126,126,126,126,126,126,126,126,126,126,126,126,126,126,126,126,126,126,126,126,126,126,126,126,126,126,126,126,126,126,126,126,126,126,126,126,126,126,126,126,126,126,126,126,126,126,126,126,126,126,126,3,7,7,7,3,7,7,7,3,7,7,7,3,7,7,7,3,7,7,7,0,0,0,0,0,0,0,0,0,0,0,0,0,0,0,0,0,0,0,0,0,0,0,0,0,0,0,0,0,0,0,0,128,0,0,0,0,0,0,0,0,0,0,0,0,0,0,0,0,0,0,0,0,0,0,0,0,0,0,0,128,0,0,123,124,125,0,0,0,0,0,0,0,7,7,0,0,0,0,0,0,0,0,69,67,101,99,69,67,101,99,0,0,0,0,0,0,117,101,99,119,0,0,117,101,99,119,0,0,0,0,0,0,69,67,101,99,0,0,0,0,69,67,101,99,69,67,0,0,0,101,99,69,67,0,0,0,0,0,0,0,0,0,0,0,0,69,80,67,0,110,110,110,0,3,7,7,0,110,110,110,0,0,0,0,78,0,0,0,0,3,0,0,0,69,67,0,0,0,3,7,0,110,110,0,0,0,3,0,0,0,0,0,0,0,78,0,0,0,3,7,7,0,0,0,78,0,0,0,0,69,80,67,0,0,0,0,0,3,7,7,0,0,78,0,0,0,0,3,0,0,0,0,78,0,0,0,0,3,0,0,0,0,78,0,0,0,110,110,0,0,0,0,0,0,0,0,0,0,0,0,0,0,0,0,0,0,0,0,0,0,0,0,0,0,0,0,0,0,0,0,0,0,0,0,0,0,0,0,0,0,0,0,0,0,0,0,0,0,0,0,0,0,0,0,0,0,0,0,0,0,0,0,0,0,0,0,0,0,0,0,0,0,0,0,0,0,0,0,0,0,0,0,0,0,0,0,0,0,0,0,0,0,0,0,0,0,0,0,0,0,0,0,110,80,80,80,110,80,80,80,110,80,
48,78,0,78,48,78,0,78,48,78,0,78,48,78,0,0,0,0,0,0,0,0,0,52,47,47,50,0,0,0,0,0,0,0,0,0,0,0,0,0,0,0,0,0,0,0,0,0,0,0,0,0,0,0,0,0,0,0,0,0,0,0,0,0,0,0,0,0,0,0,0,0,0,0,0,0,248,116,111,111,114,249,0,0,0,0,0,0,0,248,116,111,111,114,249,0,0,0,0,0,0,0,0,0,0,0,0,0,0,0,0,0,0,0,0,0,0,0,0,0,0,0,0,0,0,0,0,0,0,0,0,0,0,0,0,0,0,0,0,0,0,0,0,0,0,0,0,0,0,0,0,0,0,0,0,0,0,0,0,0,0,0,0,0,0,0,0,69,17,67,0,0,0,0,0,0,0,0,0,0,69,17,67,0,0,0,0,0,69,80,67,0,0,0,0,78,0,0,0,0,69,80,67,0,0,0,0,0,69,67,0,0,69,67,0,0,69,67,0,0,0,0,69,80,67,0,0,0,0,0,0,119,9,69,80,80,7,80,80,80,80,67,0,0,7,7,7,123,125,0,0,0,0,0,0,0,0,122,124,119,7,7,118,125,3,120,123,2,124,0,0,0,6,125,119,118,117,117,125,120,6,2,123,7,117,118,117,118,122,6,0,0,0,0,0,0,0,0,0,0,0,0,0,0,0,0,0,0,0,0,0,0,0,0,0,0,48,48,209,0,0,0,0,0,0,0,0,0,0,0,0,0,0,0,0,0,0,0,0,0,0,0,0,0,0,0,0,0,0,0,0,0,0,0,0,0,0,0,0,0,0,0,0,0,0,0,0,0,0,0,0,0,0,0,0,0,0,0,0,0,0,0,0,0,0,0,0,0,0,0,0,0,0,0,0,0,0,0,0,0,0,0,0,0,0,0,0,0,0,0,0,0,181,181,212,212,212,212,181,0,0,0,0,0,0,0,0,0,0,0,0,0,0,0,0,0,0,0,0,0,0,0,0,0,0,0,0,0,0,0,0,0,0,0,0,0,0,0,0,0,0,0,0,0,0,0,0,0,0,0,0,0,0,0,0,0,0,0,0,0,0,0,0,0,0,0,0,0,0,0,0,0,0,0,0,0,0,0,0,0,0,0,0,0,0,0,0,0,0,0,0,0,0,0,37,69,67,7,7,7,3,7,7,7,3,7,7,7,3,7,7,7,3,7,7,7,3,7,7,7,3,126,126,126,126,126,126,126,126,126,126,126,126,126,126,126,126,126,126,126,126,126,126,126,126,126,126,126,126,126,126,126,126,126,126,126,126,126,126,126,126,126,126,126,126,126,126,126,126,126,126,126,126,126,126,126,126,126,126,126,126,126,126,126,126,126,126,126,126,126,126,126,126,126,126,126,126,126,126,126,126,126,126,126,126,126,126,126,126,126,126,126,126,126,126,126,126,126,126,126,126,126,126,126,126,126,126,126,126,126,126,126,126,126,126,126,126,126,126,126,126,126,126,126,126,126,126,126,126,126,126,126,126,126,126,126,126,126,126,126,126,126,126,126,126,126,126,126,126,126,126,126,126,126,126,126,126,126,126,126,126,126,126,126,126,126,126,126,126,126,126,126,126,126,126,126,126,126,126,126,126,126,126,126,126,126,126,126,126,126,126,126,126,126,126,126,126,126,126,126,126,126,126,126,126,126,126,126,126,126,126,126,126,126,126,126,126,126,126,126,126,126,126,126,126,126,126,126,126,126,126,126,126,126,126,126,3,7,7,7,3,7,7,7,3,7,7,7,3,7,7,7,3,7,7,7,0,0,0,0,0,0,0,0,0,0,0,0,0,0,0,0,0,0,0,0,0,0,0,0,0,0,0,0,0,0,0,0,5,0,0,0,0,0,0,0,0,0,0,0,0,0,0,0,0,0,0,0,0,0,0,0,0,0,0,0,5,0,0,0,128,0,0,0,0,0,0,0,0,7,7,0,0,0,0,0,0,0,0,69,67,101,99,69,67,101,99,0,0,0,0,0,0,120,101,99,122,0,0,120,101,99,122,0,0,0,0,0,0,69,67,101,99,0,0,0,0,69,67,101,99,69,67,0,0,0,101,99,69,67,0,0,0,0,0,0,0,0,0,0,0,0,69,80,67,0,69,80,67,0,3,7,7,0,69,80,67,0,0,0,0,110,0,0,0,0,3,0,0,0,110,110,0,0,0,3,7,0,69,67,0,0,0,3,0,0,0,0,0,0,0,110,0,0,0,3,8,7,0,0,0,110,0,0,0,0,110,110,110,0,0,0,0,0,3,7,7,0,0,110,0,0,0,0,3,0,0,0,0,110,0,0,0,0,3,0,0,0,0,110,0,0,0,69,67,0,0,0,0,0,0,0,0,0,0,0,0,0,0,0,0,0,0,0,0,0,0,0,0,0,0,0,0,0,0,0,0,0,0,0,0,0,0,0,0,0,0,0,0,0,0,0,0,0,0,0,0,0,0,0,0,0,0,0,0,0,0,0,0,0,0,0,0,0,0,0,0,0,0,0,0,0,0,0,0,0,0,0,0,0,0,0,0,0,0,0,0,0,0,0,0,0,0,0,0,0,0,0,0,110,80,80,80,110,80,80,80,110,80,
48,78,0,78,48,78,0,78,48,78,0,78,48,78,0,0,0,0,0,0,0,0,0,101,121,121,99,0,0,0,0,0,0,0,0,0,0,0,0,0,0,0,0,0,0,0,0,0,0,0,0,0,0,0,0,0,0,0,0,0,0,0,0,0,0,0,0,0,0,0,0,0,0,0,0,0,0,69,121,80,67,0,0,0,0,0,0,0,0,0,69,80,121,67,0,0,0,0,0,0,0,0,0,0,0,0,0,0,0,0,0,0,0,0,0,0,0,0,0,0,0,0,0,0,0,0,0,0,0,0,0,0,0,0,0,0,0,0,0,0,0,0,0,0,0,0,0,0,0,0,0,0,0,0,0,0,0,0,0,0,0,0,0,0,0,0,0,69,80,67,0,0,0,0,0,0,0,0,0,0,69,80,67,0,0,0,0,0,69,17,67,0,0,0,0,78,0,0,0,0,69,17,67,0,0,0,0,0,69,67,0,11,69,67,118,0,69,67,0,120,0,122,69,17,67,119,120,125,0,120,9,118,123,69,80,80,7,80,80,80,80,67,0,119,124,7,117,122,122,117,124,122,118,124,119,125,122,123,3,123,124,6,120,122,119,3,123,120,6,3,7,122,122,3,120,7,117,7,123,7,3,122,123,123,120,3,125,6,2,124,124,117,123,2,120,125,2,3,119,123,0,0,0,0,0,118,120,2,117,0,0,0,0,0,0,207,48,48,0,0,0,0,0,0,0,0,0,0,0,0,0,0,0,0,0,0,0,0,0,0,0,0,0,0,0,0,0,0,0,0,0,0,0,0,0,0,0,0,0,0,0,0,0,0,0,0,0,0,0,0,0,0,0,0,0,0,0,0,0,0,0,0,0,0,0,0,0,0,0,0,0,0,0,0,0,0,0,0,0,0,0,180,179,0,0,0,0,0,0,0,0,0,0,0,0,112,181,0,0,0,0,0,0,0,0,0,0,0,0,0,0,0,0,0,0,0,0,0,0,0,0,0,0,0,0,0,0,0,0,0,0,0,0,0,0,0,0,0,0,0,0,0,0,0,0,0,0,0,0,0,0,0,0,0,0,0,0,0,0,0,0,0,0,0,0,0,0,0,0,0,0,0,0,0,0,0,0,0,0,0,0,0,0,0,0,0,0,0,0,0,0,0,0,0,37,69,67,7,7,7,3,7,7,7,3,7,7,7,3,7,7,7,3,7,7,7,3,7,7,7,3,126,126,126,126,126,126,126,126,126,126,126,126,126,126,126,126,126,126,126,126,126,126,126,126,126,126,126,126,126,126,126,126,126,126,126,126,126,126,126,126,126,126,126,126,126,126,126,126,126,126,126,126,126,126,126,126,126,126,126,126,126,126,126,126,126,126,126,126,126,126,126,126,126,126,126,126,126,126,126,126,126,126,126,126,126,126,126,126,126,126,126,126,126,126,126,126,126,126,126,126,126,126,126,126,126,126,126,126,126,126,126,126,126,126,126,126,126,126,126,126,126,126,126,126,126,126,126,126,126,126,126,126,126,126,126,126,126,126,126,126,126,126,126,126,126,126,126,126,126,126,126,126,126,126,126,126,126,126,126,126,126,126,126,126,126,126,126,126,126,126,126,126,126,126,126,126,126,126,126,126,126,126,126,126,126,126,126,126,126,126,126,126,126,126,126,126,126,126,126,126,126,126,126,126,126,126,126,126,126,126,126,126,126,126,126,126,126,126,126,126,126,126,126,126,126,126,126,126,126,126,126,126,126,126,126,3,7,7,7,3,7,7,7,3,7,7,7,3,7,7,7,3,7,7,7,0,0,0,0,0,0,0,0,0,0,0,0,0,0,0,0,0,0,0,0,0,0,0,0,0,0,0,0,0,0,0,117,118,119,0,0,0,0,0,0,0,0,0,0,0,0,0,0,0,0,0,0,0,0,0,0,0,0,0,117,118,119,0,0,5,0,0,0,0,0,0,0,141,7,7,142,0,0,0,0,0,0,0,69,67,101,99,69,67,101,99,0,0,0,0,0,0,123,101,99,125,0,0,123,101,99,125,0,0,0,0,0,0,69,67,101,99,0,0,0,0,69,67,101,99,69,67,0,0,0,101,99,69,67,0,0,0,0,0,0,0,0,0,0,0,0,69,80,67,0,110,110,110,0,3,7,7,0,110,110,110,0,9,10,0,78,0,9,10,0,3,0,128,0,69,67,0,0,0,3,7,0,110,110,0,0,0,3,0,0,0,0,0,0,0,78,0,0,0,3,7,7,0,0,0,78,0,0,0,0,69,80,67,0,0,0,0,0,3,7,7,0,0,78,0,0,0,0,3,0,0,0,0,78,0,0,0,0,3,0,0,0,0,78,0,0,0,110,110,0,0,0,0,0,0,0,0,0,0,0,0,0,0,0,0,0,0,0,126,0,0,0,0,0,0,0,0,0,0,0,0,0,0,0,0,0,0,0,0,0,0,0,0,0,0,0,0,0,0,0,0,0,0,0,0,0,0,0,0,0,0,9,10,0,0,0,0,0,0,0,0,0,0,126,0,9,10,0,0,0,0,0,0,0,0,0,0,0,0,0,0,0,0,0,0,0,0,0,0,0,0,0,0,110,80,121,80,110,80,121,80,110,80,
48,78,0,78,48,78,0,78,48,78,0,78,48,78,0,0,0,0,0,0,0,0,0,52,47,47,50,0,0,0,0,0,0,0,0,0,0,0,0,0,0,0,0,0,0,0,0,0,0,0,0,0,0,0,0,0,0,0,0,0,0,0,0,0,0,0,0,0,0,0,0,0,0,0,0,0,0,69,80,121,67,0,0,0,0,0,0,0,0,0,69,121,80,67,0,0,0,0,0,0,0,0,0,0,0,0,0,0,0,0,0,0,0,0,0,0,0,0,0,0,0,0,0,0,0,0,0,0,0,0,0,0,0,0,0,0,0,0,0,0,0,0,0,0,0,0,0,0,0,0,0,0,0,0,0,0,0,0,0,0,0,0,0,0,0,0,0,69,17,67,0,0,0,0,0,0,0,0,0,0,69,17,67,0,0,0,0,0,69,80,67,0,0,117,0,78,125,0,10,0,69,80,67,0,12,0,122,0,69,67,118,9,69,67,9,12,69,67,119,119,11,12,69,80,67,117,122,124,12,120,11,123,125,69,80,80,7,80,80,80,80,67,3,120,124,3,123,117,123,117,3,123,124,3,124,124,123,119,6,122,120,118,2,125,122,3,124,2,120,2,122,122,119,119,2,119,6,123,125,2,119,125,2,122,2,6,123,6,120,3,120,125,118,2,118,118,117,119,7,122,3,125,118,7,125,3,3,120,117,0,0,0,0,0,0,48,48,209,0,0,0,0,0,0,0,0,0,0,0,0,0,0,0,0,0,0,0,0,0,0,0,0,0,0,0,0,0,0,0,0,0,0,0,0,0,0,0,0,0,0,0,0,0,0,0,0,0,0,0,0,0,0,0,0,0,0,0,0,0,0,0,0,0,0,0,0,0,0,0,0,0,0,0,0,0,0,0,0,0,0,0,186,212,179,0,0,0,0,0,0,0,0,0,0,207,112,0,0,0,0,0,0,0,0,0,0,0,0,0,0,0,0,0,0,0,0,0,0,0,0,0,0,0,0,0,0,0,0,0,0,0,0,0,0,0,0,0,0,0,0,0,0,0,0,0,0,0,0,0,0,0,0,0,0,0,0,0,0,0,0,0,0,0,0,0,0,0,0,0,0,0,0,0,0,0,0,0,0,0,0,0,0,0,0,0,0,0,0,0,0,0,0,0,0,37,69,67,7,7,7,3,7,7,7,3,7,7,7,3,7,7,7,3,7,7,7,3,7,7,7,3,126,126,126,126,126,126,126,126,126,126,126,126,126,126,126,126,126,126,126,126,126,126,126,126,126,126,126,126,126,126,126,126,126,126,126,126,126,126,126,126,126,126,126,126,126,126,126,126,126,126,126,126,126,126,126,126,126,126,126,126,126,126,126,126,126,126,126,126,126,126,126,126,126,126,126,126,126,126,126,126,126,126,126,126,126,126,126,126,126,126,126,126,126,126,126,126,126,126,126,126,126,126,126,126,126,126,126,126,126,126,126,126,126,126,126,126,126,126,126,126,126,126,126,126,126,126,126,126,126,126,126,126,126,126,126,126,126,126,126,126,126,126,126,126,126,126,126,126,126,126,126,126,126,126,126,126,126,126,126,126,126,126,126,126,126,126,126,126,126,126,126,126,126,126,126,126,126,126,126,126,126,126,126,126,126,126,126,126,126,126,126,126,126,126,126,126,126,126,126,126,126,126,126,126,126,126,126,126,126,126,126,126,126,126,126,126,126,126,126,126,126,126,126,126,126,126,126,126,126,126,126,126,126,126,126,3,7,7,7,3,7,7,7,3,7,7,7,3,7,7,7,3,7,7,7,0,0,0,0,0,0,0,0,0,0,0,0,0,0,0,0,0,0,0,0,0,0,0,0,0,0,0,0,0,0,0,120,121,122,0,0,0,0,0,0,0,0,0,0,0,0,0,0,0,0,0,0,0,0,0,0,0,0,0,120,121,122,0,117,118,119,0,0,0,0,0,0,0,7,7,0,0,0,0,0,0,0,0,69,67,101,99,69,67,101,99,0,0,0,0,0,0,0,101,99,0,0,0,0,101,99,0,0,0,0,0,0,0,69,67,101,99,0,0,0,0,69,67,101,99,69,67,0,0,0,101,99,69,67,0,0,0,0,0,0,0,0,0,0,0,0,69,127,67,0,69,80,67,0,3,7,7,0,69,80,67,0,11,12,0,110,0,11,12,0,3,0,5,0,110,110,0,0,0,3,7,0,69,67,0,0,0,3,0,9,10,0,0,0,0,110,0,0,0,3,7,7,0,0,0,110,0,0,0,0,110,110,110,0,0,0,0,0,3,7,7,0,0,110,0,0,0,0,3,0,0,0,0,110,0,0,0,0,3,0,0,0,0,110,0,0,0,69,67,0,0,0,0,0,0,0,0,0,0,0,0,0,0,0,0,0,126,0,0,0,9,10,0,0,0,0,0,0,0,0,0,0,0,0,0,0,0,0,0,0,0,0,0,0,0,126,0,0,0,0,0,0,0,0,0,0,0,0,0,0,0,11,12,128,0,0,0,0,0,0,0,0,0,0,0,11,12,0,0,0,0,0,0,0,0,0,0,0,0,0,0,0,0,0,0,0,0,0,0,0,0,0,0,110,80,80,80,110,80,80,80,110,80,
48,78,0,78,48,78,0,78,48,78,0,78,48,78,0,0,0,0,0,0,0,0,0,101,121,121,99,0,0,0,0,0,0,0,0,0,0,0,0,0,0,0,0,0,0,0,0,0,0,0,0,0,0,0,0,0,0,0,0,0,0,0,0,0,0,0,0,0,0,0,0,0,0,0,0,0,248,116,111,111,114,249,0,0,0,0,0,0,0,248,116,111,111,114,249,0,0,0,0,0,0,0,0,0,0,0,0,0,0,0,0,0,0,0,0,0,0,0,0,0,0,0,0,0,0,0,0,0,0,0,0,0,0,0,0,0,0,0,0,0,0,0,0,0,0,0,0,0,0,0,0,0,0,0,0,0,0,0,0,0,0,0,0,0,0,0,207,69,80,67,0,0,0,10,0,0,117,117,122,123,69,80,67,118,0,0,0,0,69,17,67,0,119,118,117,78,125,12,119,124,69,17,67,9,117,10,120,120,69,67,124,119,69,67,122,125,69,67,125,10,9,122,69,17,67,125,124,48,120,125,123,118,10,69,80,80,7,80,80,80,80,67,117,7,7,123,125,125,2,117,7,124,124,122,6,120,120,124,122,117,124,124,125,122,2,122,3,118,120,120,124,119,3,2,123,2,7,2,117,3,7,119,7,125,120,122,6,119,3,123,6,117,124,120,123,2,2,118,3,2,124,124,124,118,117,120,118,6,122,0,0,0,0,0,207,48,48,0,0,0,0,0,0,0,0,0,0,0,0,0,0,0,0,0,0,0,0,0,180,212,212,0,0,0,0,0,0,0,0,0,0,0,0,0,0,0,180,182,182,0,0,9,10,0,0,126,0,0,0,0,0,0,0,209,0,0,0,0,0,0,0,9,10,0,0,0,0,0,184,80,48,80,0,0,0,0,209,0,128,0,0,0,0,0,0,184,80,48,80,0,0,0,0,0,112,112,0,0,0,0,0,0,0,0,0,0,0,0,0,0,0,0,0,0,0,0,0,0,0,0,0,0,0,0,0,0,0,0,0,0,0,0,0,0,0,0,0,0,0,0,0,0,0,0,0,0,0,0,0,0,0,0,0,0,0,0,0,0,0,0,0,0,0,0,0,0,0,0,0,0,0,0,0,0,0,0,0,0,0,0,0,209,0,0,0,0,0,0,0,0,209,0,0,0,37,69,67,6,6,6,2,6,6,6,2,6,6,6,2,6,6,6,2,6,6,6,2,6,6,6,2,6,6,6,2,6,6,6,2,6,6,6,2,6,6,6,2,6,6,6,2,6,6,6,2,6,6,6,2,6,6,6,2,6,6,6,2,6,6,6,2,6,6,6,2,6,6,6,2,6,6,6,2,6,6,6,2,6,6,6,2,6,6,6,2,6,6,6,2,6,6,6,2,6,6,6,2,6,6,6,2,6,6,6,2,6,6,6,2,6,6,6,2,6,6,6,2,6,6,6,2,6,6,6,3,7,7,7,2,6,6,6,3,7,7,7,2,6,6,6,3,7,7,7,2,6,6,6,3,7,7,7,2,6,6,6,3,7,7,7,2,6,6,6,3,7,7,7,2,6,6,6,3,7,7,7,2,6,6,6,3,7,7,7,2,6,6,6,3,7,7,7,2,6,6,6,3,7,7,7,2,6,6,6,3,7,7,7,2,6,6,6,3,7,7,7,2,6,6,6,3,7,7,7,2,6,6,6,3,7,7,7,2,6,6,6,3,7,7,7,2,6,6,6,3,7,7,7,2,6,6,6,3,7,7,7,2,6,6,6,3,7,7,7,2,6,6,6,3,7,7,7,2,6,6,6,0,0,0,0,0,0,0,0,0,0,0,0,0,0,0,0,0,0,0,0,0,0,0,0,0,0,0,0,0,0,0,123,124,125,0,0,0,0,0,0,0,0,0,0,0,0,0,0,0,0,0,0,0,0,0,0,0,0,0,123,124,125,0,120,121,122,0,0,0,0,0,0,0,7,7,0,0,0,0,0,0,0,0,69,67,101,99,69,67,101,99,0,0,0,0,0,0,117,101,99,119,0,0,117,101,99,119,0,0,0,0,0,0,69,67,101,99,0,0,0,0,69,67,101,99,69,67,0,0,0,101,99,69,67,0,0,0,0,0,0,0,0,0,0,0,0,69,80,67,0,110,110,110,0,3,8,7,0,110,110,110,0,0,0,0,83,0,0,0,0,3,0,0,0,69,67,0,0,0,3,7,0,110,110,0,0,0,3,0,11,12,0,0,0,0,83,0,0,0,3,8,7,0,0,0,83,0,0,0,0,69,80,67,0,0,0,0,0,3,8,7,0,0,78,0,0,0,0,3,0,0,0,0,78,0,0,0,0,3,0,0,0,0,78,0,0,0,110,110,0,0,0,0,0,0,0,0,0,0,0,0,0,0,0,0,0,0,0,0,0,11,12,0,0,0,0,0,0,0,0,0,0,0,0,0,0,0,0,0,0,0,0,9,10,0,0,0,0,0,0,0,0,0,0,0,0,0,0,0,0,0,0,0,5,0,0,0,0,0,0,0,0,0,0,0,0,0,0,0,0,0,0,0,0,0,0,0,0,0,0,0,0,0,0,0,0,0,0,0,0,0,0,0,110,80,80,80,110,80,80,80,110,80,
48,78,0,78,48,78,0,78,48,78,0,78,48,78,0,0,0,0,0,0,0,0,0,52,47,47,50,0,0,0,0,0,0,0,0,0,0,0,0,0,0,0,0,0,0,0,0,0,0,0,0,0,0,0,0,0,0,0,0,0,0,0,0,0,0,0,0,0,0,0,0,0,0,0,0,0,0,69,121,80,67,0,0,0,0,0,0,0,0,0,69,80,121,67,0,0,0,0,0,0,0,0,0,0,0,0,0,0,0,0,0,0,0,0,0,0,0,0,0,0,0,0,0,0,0,0,0,0,0,0,0,0,0,0,0,0,0,0,0,0,0,0,0,0,0,0,0,0,0,0,0,0,0,0,0,0,0,0,0,0,0,0,0,0,0,0,48,69,17,67,0,0,12,48,10,124,10,118,123,10,69,17,67,120,119,118,117,119,69,80,67,120,125,10,9,78,117,12,125,125,69,80,67,123,12,124,122,124,69,67,12,10,69,67,120,119,69,67,119,120,11,124,69,80,67,122,10,9,122,48,9,7,120,69,80,80,7,80,80,80,80,67,120,118,123,2,118,2,7,125,124,117,2,3,7,124,118,125,125,3,123,124,117,3,123,124,120,3,7,125,120,6,7,125,7,118,7,6,123,3,2,118,6,125,120,3,2,122,118,119,124,3,3,117,7,3,125,122,124,118,118,120,122,6,123,119,2,6,125,0,0,0,0,0,48,48,209,0,0,0,0,0,0,0,0,0,0,0,180,187,212,179,0,0,209,0,0,0,0,0,0,0,0,0,0,0,0,0,0,0,0,0,0,0,0,0,0,181,212,177,0,11,12,0,0,0,0,0,0,182,0,0,0,0,0,182,0,0,0,0,0,11,12,0,0,0,0,0,184,0,0,0,180,212,185,0,0,0,5,0,9,10,0,0,0,184,0,0,0,0,0,0,0,207,112,209,0,0,0,0,0,0,0,0,0,0,0,0,0,0,0,0,0,0,0,0,0,0,0,209,0,0,0,0,0,0,0,0,0,0,0,0,0,0,0,0,0,0,0,0,0,0,0,0,0,0,0,0,0,0,0,0,0,0,0,0,209,0,0,0,0,0,0,0,0,0,0,0,0,209,0,0,0,0,0,0,0,0,0,0,0,0,0,0,0,0,0,0,180,179,0,0,0,0,37,69,67,35,14,97,121,97,28,48,97,121,97,97,14,97,28,14,48,14,97,121,97,14,28,97,121,97,14,14,14,196,65,197,14,28,48,97,121,97,46,121,97,97,48,28,97,14,46,14,28,48,97,121,97,46,97,121,97,121,97,14,14,46,14,0,211,48,127,211,28,211,127,206,211,28,121,48,210,0,209,0,211,207,65,48,28,18,28,211,65,206,48,28,18,208,127,208,18,28,48,209,210,127,209,0,28,210,48,121,28,18,208,127,208,18,28,121,28,18,208,18,28,209,14,46,68,72,14,5,2,6,6,6,14,48,5,14,2,6,6,6,5,48,69,80,2,6,6,6,5,14,69,80,2,6,6,6,14,11,12,14,2,6,6,6,14,14,48,14,2,6,6,6,67,14,11,12,2,6,6,6,69,80,80,80,2,6,6,6,80,80,80,67,2,6,6,6,48,14,5,14,2,6,6,6,69,127,67,14,2,6,6,6,67,14,48,14,2,6,6,6,72,69,127,67,2,6,6,6,48,14,69,80,2,6,6,6,14,69,127,67,2,6,6,6,68,72,14,69,2,6,6,6,67,48,5,14,2,6,6,6,5,14,69,127,2,6,6,6,80,67,14,5,2,6,6,6,144,14,5,14,0,0,0,0,0,0,0,0,0,0,0,0,0,0,0,0,0,0,0,0,0,0,0,0,0,0,0,0,0,0,0,149,200,152,0,0,0,0,0,0,0,0,0,0,0,0,0,0,0,0,0,0,0,0,0,0,0,0,0,149,200,152,0,123,124,125,0,0,0,0,0,0,141,7,7,142,0,0,0,0,0,0,0,69,67,101,99,69,67,101,99,0,0,9,10,0,0,120,101,99,122,0,0,120,101,99,122,0,0,128,0,0,0,69,67,101,99,0,0,0,0,69,67,101,99,69,67,0,0,0,101,99,69,67,0,0,0,0,0,0,0,0,0,0,0,0,69,127,67,0,69,80,67,0,3,7,7,0,69,80,67,0,0,0,0,28,0,0,0,0,2,0,0,0,110,110,0,0,0,8,7,0,73,72,0,126,0,3,0,0,0,0,0,0,0,28,0,126,0,2,6,6,0,126,0,28,0,9,10,0,110,110,110,0,0,0,0,0,3,7,7,0,0,110,0,126,0,0,2,0,0,126,0,110,0,126,0,0,2,0,0,126,0,110,0,126,0,69,67,0,0,9,10,0,126,0,0,0,0,0,0,0,0,0,0,0,0,0,0,0,0,0,0,0,0,0,0,0,0,0,0,0,0,0,0,0,0,0,0,0,0,0,11,12,0,0,0,0,0,0,0,0,0,0,0,0,0,0,0,0,0,0,0,0,0,0,0,0,206,0,198,0,0,0,0,0,0,0,0,0,0,0,0,0,0,0,0,0,0,0,0,0,0,0,0,0,0,0,0,0,0,0,0,110,80,121,80,110,80,121,80,110,80,
48,78,0,78,48,78,0,78,48,78,0,78,48,78,0,0,0,0,0,0,0,0,0,101,121,121,99,0,0,0,0,0,0,0,0,0,0,0,0,0,0,0,0,0,0,0,0,0,0,0,0,0,0,0,0,0,0,0,0,0,0,0,0,0,0,0,0,0,0,0,0,0,0,0,0,0,0,69,80,121,67,0,0,0,0,0,0,0,0,0,69,121,80,67,0,0,0,0,0,0,0,0,0,0,0,0,0,0,0,0,0,0,0,0,0,0,0,0,0,0,0,0,0,0,0,0,0,0,0,0,0,0,0,0,0,0,0,0,0,0,0,0,0,0,0,0,0,0,0,0,0,0,0,0,0,0,0,0,0,0,0,0,0,0,0,207,48,69,80,67,10,48,6,118,118,119,123,122,48,9,69,80,67,123,7,120,10,12,69,17,67,124,125,118,11,78,11,117,9,9,69,17,67,124,118,9,117,122,69,67,48,9,69,67,124,120,69,67,124,119,48,11,69,17,67,120,7,7,120,125,7,122,48,69,80,80,7,80,80,80,80,67,122,120,123,120,117,117,3,2,122,118,119,117,2,120,122,124,118,123,125,123,2,120,7,120,123,123,2,120,117,122,119,120,2,125,122,118,6,3,124,125,7,7,3,6,2,3,120,119,3,3,122,119,3,7,3,2,120,6,3,122,123,7,6,120,123,3,119,0,0,0,0,207,48,48,0,0,0,0,0,0,0,0,0,0,0,0,212,185,212,185,0,0,0,0,0,126,0,0,0,0,209,0,184,80,48,80,180,182,212,179,0,128,0,0,0,0,0,0,0,253,253,253,253,253,253,178,212,212,253,253,253,253,184,212,187,179,253,253,253,253,253,253,126,0,0,179,184,180,0,0,0,181,0,0,0,209,0,0,11,12,0,0,179,184,180,0,0,0,209,0,0,112,112,0,0,0,0,0,0,0,0,0,0,0,0,0,0,0,0,0,0,0,0,0,0,0,0,0,0,0,0,0,209,0,0,0,0,0,0,0,0,0,0,0,0,0,0,0,0,0,0,0,0,0,0,0,209,0,0,0,0,0,0,0,0,0,0,0,0,0,0,0,0,0,0,0,0,0,0,0,0,0,0,0,209,0,0,180,212,185,0,0,0,0,0,0,186,212,179,0,0,0,37,127,67,148,0,28,97,0,0,48,28,97,121,97,0,28,0,0,48,0,28,97,0,0,0,97,97,28,0,0,0,0,28,0,0,0,48,0,97,28,46,97,97,28,48,0,0,241,46,242,0,48,0,97,28,46,121,97,28,97,28,0,0,46,0,0,0,121,28,18,208,18,28,209,0,0,48,121,0,0,0,0,0,210,28,18,48,127,208,18,28,209,121,48,127,211,28,211,127,48,121,0,0,28,0,0,0,0,121,48,207,127,211,28,211,127,206,48,121,65,211,65,206,0,0,46,203,203,0,0,14,48,14,14,0,48,206,0,14,73,72,14,0,48,69,80,67,14,14,48,0,0,69,80,67,14,14,48,0,0,0,0,14,5,14,14,0,0,48,0,69,67,48,69,67,0,0,0,48,14,14,48,69,80,80,80,80,37,35,80,80,80,80,67,48,11,12,14,48,0,0,0,78,14,5,14,73,68,72,0,14,203,69,127,67,0,48,0,14,14,203,203,203,73,68,72,203,203,203,14,48,0,69,127,67,14,14,48,0,73,68,72,14,48,14,203,203,203,0,69,80,67,69,80,67,48,0,0,69,80,67,14,0,0,73,68,72,14,14,69,80,67,0,0,14,69,80,67,144,0,0,0,0,0,0,0,0,0,0,0,0,0,0,0,0,0,0,0,0,0,0,204,0,0,204,0,0,204,0,0,0,0,48,116,111,114,48,0,0,0,204,0,0,0,0,0,0,0,0,0,204,0,0,0,204,0,0,0,0,0,48,116,111,114,48,149,200,152,0,0,0,0,0,0,0,7,7,0,9,10,0,126,0,0,0,69,67,101,99,69,67,101,99,0,0,11,12,0,0,123,101,99,125,9,10,123,101,99,125,0,0,5,9,10,0,69,67,101,99,0,128,0,0,69,67,101,99,69,67,0,126,0,101,99,69,67,0,0,0,0,0,0,0,0,0,0,0,0,116,111,114,0,110,110,110,0,3,7,7,0,110,110,110,0,0,0,0,0,0,0,0,0,28,0,0,0,69,67,0,126,0,3,7,0,28,28,0,0,0,2,0,0,0,0,0,0,0,0,0,0,0,28,193,28,0,0,0,0,0,11,12,0,69,80,67,0,0,0,0,0,3,7,7,0,0,83,0,0,0,0,28,0,0,0,0,83,0,0,0,0,28,0,0,0,0,83,0,0,0,110,110,0,0,11,12,0,0,0,0,0,0,0,0,0,0,0,0,207,0,198,0,0,0,0,0,0,0,0,0,0,0,0,0,0,0,0,0,0,0,0,0,0,0,0,0,0,0,0,0,0,206,198,206,207,0,0,0,0,0,0,0,0,0,0,0,0,0,206,0,198,48,48,48,48,198,207,0,198,207,0,0,0,0,0,0,0,0,0,0,0,0,0,0,0,0,0,0,0,0,0,0,0,0,0,0,110,80,80,80,110,80,80,80,110,80,
48,78,0,78,48,78,0,78,48,78,0,78,48,78,0,0,0,0,0,0,0,0,0,52,47,47,50,0,0,0,0,0,0,0,0,0,0,0,0,0,0,0,0,0,0,0,0,0,0,0,0,0,0,0,0,0,0,0,0,0,0,0,0,0,0,0,0,0,0,0,0,0,0,0,0,0,248,116,111,111,114,249,0,0,0,0,0,0,0,248,116,111,111,114,249,0,0,0,0,0,0,0,0,0,0,0,0,0,0,0,0,0,0,0,0,0,0,0,0,0,0,0,0,0,0,0,0,0,0,0,0,0,0,0,0,0,0,0,0,0,0,0,0,0,0,0,0,0,0,0,0,0,0,0,0,0,0,0,0,0,0,0,0,0,0,48,48,69,17,67,6,9,122,11,12,48,117,11,119,48,69,17,67,7,122,12,125,12,69,80,67,120,125,125,12,78,12,10,124,10,69,80,67,125,124,123,118,118,17,67,10,125,69,17,48,117,17,67,118,48,122,6,69,80,67,48,124,12,7,125,123,118,119,69,80,7,7,7,80,80,80,67,118,119,125,119,2,6,119,125,125,7,118,124,125,125,6,122,123,7,117,124,125,119,118,2,117,6,122,118,125,120,119,124,119,7,117,122,117,120,124,7,7,119,125,123,6,123,3,119,117,7,6,117,125,6,7,123,125,122,6,124,117,7,3,123,2,124,6,0,0,0,0,48,48,209,0,0,0,0,0,0,0,0,0,0,0,0,0,0,0,0,0,0,0,209,0,0,0,9,10,0,0,0,184,0,0,0,0,181,181,0,0,5,0,9,10,0,0,209,0,0,0,0,0,0,0,0,0,0,0,209,0,0,0,181,181,0,0,0,0,0,0,0,0,0,243,84,79,82,244,0,0,209,0,0,0,0,0,0,0,0,0,243,84,79,82,244,0,0,0,0,207,112,209,0,0,0,209,0,0,0,182,0,0,0,0,209,0,0,0,0,0,209,0,0,0,0,0,180,212,212,0,0,0,0,0,0,0,209,0,0,0,0,0,0,0,212,187,179,0,0,0,0,0,0,0,0,0,0,0,209,0,0,0,0,0,0,0,0,0,0,0,0,0,182,0,0,0,0,0,182,0,0,0,0,0,0,0,0,181,0,0,0,0,0,0,0,0,0,0,0,0,0,147,69,67,0,0,0,28,0,0,48,0,97,97,28,0,0,0,0,48,0,0,28,0,0,0,48,97,0,0,0,0,0,0,0,0,0,48,0,28,0,46,0,97,0,48,0,0,196,65,197,0,48,0,28,0,46,97,97,0,48,0,0,241,46,179,0,0,48,121,65,211,65,206,0,0,0,121,48,0,0,0,0,0,0,207,127,121,28,211,127,206,0,48,121,28,18,208,18,28,121,48,0,0,0,0,0,0,0,48,121,210,28,198,208,198,28,209,121,48,28,18,28,209,0,0,46,31,31,0,0,207,48,0,0,0,210,48,0,0,203,203,0,0,48,127,80,67,0,0,48,206,0,69,80,127,0,207,48,0,0,0,0,0,0,112,0,0,207,48,0,69,67,48,127,67,0,0,0,48,0,0,48,69,127,80,80,80,37,35,80,80,80,127,67,48,0,0,0,48,206,0,0,78,0,0,0,203,203,203,0,0,31,73,68,72,0,48,206,0,0,31,31,31,203,203,203,31,31,31,207,48,0,73,68,72,0,0,48,0,203,203,203,0,48,206,31,31,31,0,69,127,67,69,80,67,203,0,0,69,127,67,0,0,0,203,203,203,0,0,69,127,67,0,0,0,69,80,67,144,0,0,0,0,0,0,0,0,0,0,0,0,0,0,0,0,0,0,0,0,0,204,48,121,48,48,48,121,48,204,0,0,0,48,31,205,31,48,0,0,204,112,204,0,0,0,0,0,0,204,48,121,48,204,48,121,48,204,0,0,0,48,28,28,28,48,116,111,114,48,0,0,0,0,0,0,7,7,0,11,12,0,0,0,0,0,73,72,101,99,69,67,101,99,0,126,0,0,0,0,0,105,104,146,11,12,145,105,104,0,0,0,0,11,12,0,69,67,105,104,0,5,0,0,73,72,101,99,73,72,0,0,0,101,99,73,72,0,9,10,0,0,126,0,128,9,10,0,0,120,121,122,0,69,80,67,0,3,8,7,26,73,68,72,0,0,0,0,0,0,0,0,0,0,0,0,0,110,110,0,0,0,3,7,0,0,0,0,0,0,28,0,0,0,0,0,0,0,0,0,0,0,0,0,0,0,0,0,0,0,0,0,0,110,110,110,0,0,0,0,0,3,8,7,0,0,28,0,0,0,0,0,0,0,0,0,28,0,0,0,207,0,206,198,0,0,28,0,0,0,69,67,0,0,0,0,0,0,0,0,0,0,0,0,198,0,207,48,48,48,48,48,0,206,0,198,206,0,0,0,53,0,0,0,0,0,0,0,0,0,0,0,0,0,0,0,0,206,207,0,198,48,48,48,48,48,0,207,0,198,0,0,0,0,0,206,0,198,48,48,48,48,48,48,48,48,48,48,48,48,206,198,0,206,0,0,0,0,0,0,206,198,0,207,0,0,0,0,0,0,0,0,0,0,198,206,110,80,80,80,110,80,80,80,110,80,
48,78,0,78,48,78,0,78,48,78,0,78,48,78,0,0,0,0,0,0,0,0,0,101,121,121,99,0,0,0,0,0,0,0,0,0,0,0,0,0,0,0,0,0,0,0,0,0,0,0,0,0,0,0,0,0,0,0,0,0,0,112,112,0,0,0,0,0,0,0,0,0,0,0,0,0,0,69,121,80,67,0,0,0,0,0,0,0,0,0,69,80,121,67,0,0,0,0,0,0,0,0,0,0,0,0,0,0,0,0,0,0,0,0,0,0,0,0,0,0,0,0,0,0,0,0,0,0,0,0,0,0,0,0,0,0,0,0,0,0,0,0,0,0,0,0,0,0,0,0,0,0,0,0,0,0,0,0,0,0,0,0,0,0,9,7,48,69,80,67,125,7,124,119,6,10,48,120,7,12,69,80,67,12,118,7,11,9,69,17,67,12,125,118,117,78,12,12,48,124,69,17,67,9,120,48,10,123,69,67,118,48,69,67,123,6,69,67,11,124,6,119,69,17,67,125,12,7,120,9,117,48,7,69,80,7,80,6,80,80,80,67,117,2,125,120,3,123,124,11,6,3,122,122,6,7,124,119,122,125,6,125,120,118,3,7,48,3,123,11,2,119,3,119,2,118,7,7,119,2,2,6,119,119,3,124,123,3,124,117,117,117,120,123,2,119,123,7,6,119,125,118,118,117,3,118,2,48,5,0,0,0,207,48,48,0,0,0,212,187,179,0,0,0,19,0,0,0,0,209,0,0,0,0,0,0,0,0,0,11,12,0,0,179,184,180,0,0,128,0,0,0,0,0,0,11,12,0,0,0,0,0,209,0,0,0,0,0,0,0,0,0,0,0,0,0,0,209,0,0,0,0,0,0,209,0,0,28,48,28,0,0,0,0,0,209,0,0,0,0,0,0,0,0,28,48,28,0,0,0,0,0,112,112,0,0,0,0,0,0,0,186,212,212,179,0,0,0,0,180,187,212,179,0,0,0,0,0,0,0,0,0,0,0,0,0,0,0,0,0,0,0,0,209,0,0,0,0,181,0,0,0,0,0,209,0,0,0,0,0,0,0,0,0,0,0,0,0,0,0,0,0,0,178,212,212,0,0,0,0,184,212,187,179,0,0,0,0,0,0,0,0,0,0,0,0,0,0,0,0,0,0,0,0,0,69,127,0,0,0,0,0,0,48,0,97,0,0,0,0,0,0,48,0,0,0,0,0,0,48,28,0,0,0,0,0,0,0,0,0,48,0,0,0,46,0,28,0,48,0,0,0,28,0,0,48,0,0,0,46,0,97,0,48,0,0,196,65,4,0,0,121,48,28,18,28,209,0,0,0,48,121,0,0,0,0,0,0,210,28,18,208,18,28,209,0,121,48,207,65,211,65,206,48,121,0,0,0,0,0,0,0,121,48,0,207,80,211,80,206,0,48,121,207,127,206,0,0,241,46,179,0,0,0,48,209,0,0,0,0,0,0,0,31,31,0,0,203,69,80,127,0,0,210,48,0,127,80,67,0,48,209,0,0,0,0,0,112,112,112,0,48,209,0,69,127,203,69,67,0,0,207,48,0,0,203,69,80,80,127,80,37,35,80,127,80,80,67,48,0,0,0,210,48,0,0,83,0,0,0,31,31,31,0,0,0,203,203,203,0,210,48,0,0,0,0,0,31,31,31,0,0,0,48,209,0,203,203,203,0,207,48,0,31,31,31,0,210,48,0,0,0,0,73,68,72,69,127,67,31,0,0,73,68,72,0,0,0,31,31,31,0,0,73,68,72,0,0,0,69,127,67,144,0,0,0,0,0,0,0,0,0,0,0,0,0,0,80,0,0,0,80,0,0,48,48,48,48,121,48,48,48,48,0,0,0,48,0,0,0,48,0,0,213,213,213,0,0,0,207,48,48,205,0,48,0,205,0,48,0,205,48,48,206,48,0,0,0,48,28,28,28,48,0,0,0,0,0,141,7,7,142,0,0,0,0,0,0,0,147,148,105,104,69,67,105,104,0,0,0,0,0,0,0,147,168,166,146,145,165,167,148,0,0,0,0,0,0,0,73,72,147,148,0,0,0,0,147,148,105,104,147,148,0,0,0,105,104,147,148,0,11,12,128,0,0,0,5,11,12,0,0,123,124,125,0,110,110,110,26,2,6,6,0,0,0,54,0,0,0,0,0,0,0,0,0,0,0,0,0,73,72,0,0,0,3,8,0,0,0,0,0,0,0,0,0,0,0,0,0,0,0,0,0,0,0,0,0,0,0,0,0,0,0,0,0,73,68,72,0,0,0,0,0,2,6,6,0,0,0,206,0,198,0,207,0,0,0,0,0,206,198,206,48,48,48,48,48,206,0,198,0,0,110,110,0,0,0,0,0,0,0,0,206,198,0,48,48,48,48,48,48,48,48,48,48,48,48,48,48,0,206,206,0,206,0,0,53,0,0,0,0,0,0,0,0,0,206,198,0,48,48,48,48,48,48,48,48,48,48,48,48,48,206,207,198,0,207,48,48,48,48,48,48,48,48,48,48,48,48,48,48,48,48,48,48,48,48,206,0,206,198,0,48,48,48,48,48,206,0,0,0,18,0,0,0,0,48,48,110,80,121,80,110,80,121,80,110,80,
48,78,0,78,48,78,0,78,48,78,0,78,48,78,0,0,0,0,0,0,0,0,0,52,47,47,50,0,0,0,0,0,0,112,112,0,0,0,0,0,0,0,0,0,0,0,0,0,0,0,112,112,0,0,0,0,0,0,0,0,0,0,0,0,0,0,0,0,0,0,0,0,0,0,0,0,0,69,80,121,67,0,0,0,0,0,0,0,0,0,69,121,80,67,0,0,112,112,0,0,0,0,0,0,0,0,0,0,0,0,0,0,0,0,0,0,112,112,0,0,0,0,0,0,0,0,0,0,0,0,0,0,0,0,0,0,0,0,0,0,0,0,0,0,0,0,0,0,0,0,0,0,0,0,0,0,0,0,0,0,112,112,0,0,48,48,9,69,17,67,122,123,48,7,118,124,7,7,117,6,69,17,67,119,6,7,11,10,69,80,67,119,7,120,12,78,9,7,125,125,69,80,67,125,118,117,7,122,69,17,6,123,17,67,2,118,69,17,3,125,119,122,69,80,67,125,48,125,10,9,7,125,12,69,7,2,80,7,7,80,80,67,122,11,6,5,119,6,122,117,125,125,6,122,124,119,119,6,124,119,124,7,7,118,14,48,210,48,0,0,14,125,124,6,119,6,120,14,0,14,207,48,0,125,48,48,2,2,117,3,2,7,7,125,6,3,119,122,125,7,2,6,118,123,124,2,14,48,0,0,0,0,48,48,209,0,0,0,0,181,0,0,0,200,17,200,0,0,209,0,0,0,128,0,0,0,0,209,0,0,0,0,243,84,79,82,244,0,5,0,0,209,0,0,0,0,0,0,0,0,0,0,0,0,0,0,209,0,0,0,0,0,0,0,0,0,0,0,0,0,0,209,0,0,0,0,0,0,48,0,0,209,0,0,0,0,0,0,0,0,0,0,209,0,0,48,0,0,0,0,0,207,112,209,0,0,0,0,0,0,0,0,0,181,0,0,0,0,0,212,185,212,185,0,0,0,0,0,0,0,0,0,0,0,0,209,0,0,0,0,0,0,0,0,0,0,0,0,0,0,0,0,0,0,0,0,0,0,0,0,0,0,0,180,187,212,179,0,0,0,209,0,0,0,0,0,0,0,0,0,0,181,181,0,0,0,0,0,0,0,0,0,0,0,209,0,0,0,0,0,0,0,0,0,0,73,72,0,0,0,0,0,0,48,0,28,0,0,0,0,0,0,48,0,0,0,0,0,0,48,0,0,0,0,0,0,0,0,0,0,48,0,0,241,46,242,0,0,48,0,0,0,0,0,0,48,0,0,0,46,0,28,0,48,0,0,0,28,0,0,0,48,121,207,127,206,0,0,0,0,121,48,18,206,0,0,0,0,0,48,65,211,65,206,0,0,48,121,210,28,18,28,209,121,48,0,0,0,0,0,0,0,48,121,0,210,199,18,199,209,0,121,48,210,28,209,0,0,196,65,4,0,0,0,0,0,0,0,0,0,0,0,0,0,0,0,0,31,73,68,72,0,0,0,0,0,73,68,72,0,0,0,0,0,0,0,0,0,48,0,207,48,0,0,69,67,0,73,127,0,0,48,209,0,0,31,69,127,80,80,80,37,35,80,80,80,127,67,203,0,0,0,0,0,0,0,203,0,0,0,0,0,0,0,0,0,31,31,31,0,0,0,0,0,0,0,0,0,0,0,0,0,0,0,0,0,31,31,31,0,48,209,0,0,0,0,0,0,48,206,0,0,0,203,203,203,73,68,72,0,0,0,203,203,203,0,0,0,0,0,0,0,0,203,203,203,0,0,0,73,68,72,144,0,0,0,0,0,0,0,0,0,0,0,0,0,0,0,80,0,80,0,0,0,0,48,0,0,0,0,0,48,0,0,0,0,48,0,0,0,48,0,0,48,121,48,0,0,0,210,48,0,0,0,48,0,0,0,48,0,0,0,48,209,48,0,0,0,48,0,0,0,48,0,0,0,0,0,0,6,6,0,0,0,0,0,0,0,0,0,0,147,148,73,72,147,148,0,0,0,0,0,0,0,0,147,168,166,165,167,148,0,0,0,0,0,0,0,0,147,148,0,0,0,0,0,0,0,0,147,148,0,0,0,0,0,147,148,0,0,0,0,0,5,0,0,0,0,0,0,0,0,0,0,0,0,73,68,72,0,0,0,0,0,0,0,0,0,0,0,0,0,0,0,0,0,0,0,0,0,0,54,0,0,0,2,6,0,0,0,0,0,0,0,0,0,0,0,0,0,0,0,0,0,0,0,0,0,198,0,0,206,0,0,0,0,0,0,54,0,0,0,0,0,0,207,54,207,0,48,48,48,48,48,48,198,0,206,0,48,48,48,48,48,48,48,48,48,48,48,48,207,0,73,72,0,0,0,0,207,0,198,0,48,48,48,48,48,48,48,48,48,48,48,48,48,48,48,48,48,48,48,48,48,48,206,198,0,206,207,0,53,0,0,207,0,198,48,48,48,53,48,48,48,48,48,48,48,48,48,48,48,48,48,48,48,48,48,48,48,48,48,48,48,48,48,48,48,48,48,48,48,48,48,48,48,48,48,48,48,48,48,48,48,54,48,54,48,48,198,0,196,17,197,0,206,48,48,48,110,80,80,80,110,80,80,80,110,80,
48,78,0,78,48,78,0,78,48,78,0,78,48,78,0,0,0,0,0,0,0,0,0,101,121,121,99,0,0,0,0,0,0,0,0,0,0,0,112,112,0,0,204,204,0,0,0,0,0,0,0,0,0,0,0,0,0,0,0,0,0,0,0,0,0,0,0,0,0,0,0,0,0,0,0,0,248,116,111,111,114,249,0,0,0,0,0,0,0,248,116,111,111,114,249,0,0,0,0,0,0,0,0,0,0,0,0,0,0,0,80,0,0,0,0,0,0,0,0,0,0,0,0,0,0,0,0,0,0,0,0,0,0,0,0,0,0,0,0,0,0,0,0,0,0,0,0,0,0,0,0,0,0,112,112,0,0,0,0,0,0,0,0,207,48,48,7,69,80,67,48,11,7,120,48,7,6,12,118,117,69,80,67,6,117,11,6,10,69,17,67,7,123,119,119,78,48,10,118,48,69,17,67,118,6,122,11,122,69,67,48,120,69,67,122,48,69,67,125,3,119,7,69,17,67,6,10,48,7,123,122,6,119,6,7,80,80,80,7,80,7,67,118,0,14,0,0,14,48,7,124,2,119,6,2,6,125,48,48,118,123,6,117,12,0,48,0,48,206,0,0,0,0,14,48,14,0,0,0,0,48,209,0,0,48,48,14,14,0,123,119,120,125,7,6,7,125,118,6,7,6,125,48,125,0,14,0,48,0,0,0,207,48,48,0,0,0,0,0,0,0,0,243,84,79,82,244,0,0,9,10,0,5,0,0,0,209,0,0,0,0,0,0,28,48,28,0,0,0,0,0,0,0,0,0,0,0,209,0,0,0,0,0,0,0,0,0,0,0,0,209,0,0,0,0,0,0,0,0,0,0,0,0,0,0,0,0,0,48,0,121,48,121,0,235,239,236,200,0,209,0,0,0,0,0,48,0,0,209,0,0,112,112,112,112,112,112,112,112,0,0,0,0,0,0,0,0,0,0,0,0,0,0,0,0,0,209,0,0,0,126,0,9,10,0,0,0,182,212,212,0,0,0,0,0,0,0,18,0,0,0,209,0,0,18,0,0,0,0,0,0,128,0,212,185,212,185,0,0,0,0,0,9,10,0,0,0,209,0,0,0,0,0,0,128,0,0,0,0,0,0,0,0,0,0,0,0,0,0,0,0,0,209,0,0,48,121,0,0,0,0,0,0,48,0,0,0,0,0,0,0,0,48,0,0,0,0,0,0,48,0,0,0,0,0,0,18,0,0,0,48,0,0,196,65,197,0,0,48,0,0,0,0,0,0,48,0,0,241,46,242,0,0,48,0,0,0,0,0,0,0,121,48,210,28,209,0,0,0,0,48,121,127,209,0,0,0,0,0,121,28,18,28,209,0,0,121,48,0,207,127,206,0,48,121,0,0,0,0,0,0,0,121,48,0,0,207,127,206,0,0,48,121,0,0,0,0,0,0,0,0,0,0,0,0,0,0,0,0,0,0,0,0,0,0,0,0,0,203,203,203,0,0,0,0,0,203,203,203,0,0,0,0,0,0,0,0,0,0,48,48,209,0,0,127,72,0,203,203,0,0,0,0,0,0,0,73,68,68,68,68,37,35,68,68,68,68,72,31,0,0,0,0,0,0,0,0,0,0,0,0,0,0,0,0,0,0,0,0,0,0,0,0,0,0,0,0,0,0,0,0,112,112,112,0,0,0,0,0,0,0,0,0,0,0,0,0,0,210,48,0,0,0,31,31,31,203,203,203,0,0,0,31,31,31,0,0,0,0,0,112,0,0,31,31,31,0,0,0,203,203,203,144,0,0,0,0,0,0,204,0,204,0,0,0,0,0,0,0,80,0,0,0,0,0,48,0,0,0,0,0,48,0,0,176,207,48,206,0,207,48,206,0,48,48,48,0,0,0,0,48,0,0,0,48,0,0,0,48,0,0,0,48,0,48,0,0,0,48,0,0,0,48,0,0,0,0,0,0,0,0,0,0,0,206,0,198,207,0,0,0,0,0,147,148,0,0,0,0,0,0,145,146,0,0,0,147,168,167,148,0,0,0,145,146,0,0,0,0,0,0,0,0,0,0,0,0,0,0,0,0,0,0,0,0,0,0,0,0,0,0,0,0,0,0,0,0,0,0,0,0,0,0,0,0,0,0,0,0,0,206,198,0,0,0,0,0,0,0,53,0,0,0,0,55,0,18,0,0,0,0,0,0,0,207,0,54,0,0,0,0,55,0,18,0,0,0,0,0,0,0,0,0,0,55,0,18,48,48,48,48,48,48,207,0,198,0,0,0,0,0,207,0,206,198,48,48,48,48,48,48,48,48,48,48,48,48,48,48,48,48,48,48,48,48,48,48,48,48,48,48,48,48,48,48,206,198,207,0,48,48,48,48,48,48,48,53,48,48,48,48,48,48,18,176,18,48,48,54,48,48,48,48,48,48,48,48,48,48,48,207,0,198,207,48,48,48,48,48,48,48,48,48,48,48,48,48,48,48,48,48,48,48,48,48,48,48,48,48,48,48,48,48,48,48,48,48,48,48,48,48,48,48,48,48,48,48,48,48,48,48,48,53,55,48,55,48,55,53,48,196,17,212,17,197,48,48,48,48,110,80,80,80,110,80,80,80,110,80,
35,66,34,66,34,66,34,66,37,78,0,78,48,78,0,0,0,0,112,112,0,0,0,52,47,47,50,0,0,0,0,0,0,0,0,0,0,0,0,0,0,0,112,80,80,112,0,0,0,0,0,0,174,0,18,174,0,175,0,174,0,0,175,0,0,0,175,18,0,0,0,0,112,112,0,0,0,69,121,80,67,0,0,0,0,0,0,0,0,0,69,80,121,67,0,0,0,0,0,0,0,0,0,0,0,0,0,0,0,80,80,0,112,112,0,0,0,0,0,0,0,0,0,19,0,0,0,0,112,112,0,0,0,0,0,0,0,0,0,0,0,0,0,0,0,0,112,112,0,0,0,0,0,0,0,0,0,0,0,0,0,0,0,48,48,6,11,69,17,67,12,7,117,11,9,123,7,48,6,9,69,17,67,12,125,6,120,7,69,80,67,120,11,6,9,78,10,124,6,122,69,80,67,7,119,48,12,6,17,67,117,7,69,17,123,11,17,67,48,117,122,48,69,80,67,119,6,122,119,6,124,122,10,7,2,80,80,80,6,7,6,67,5,0,0,0,0,0,48,14,0,0,0,14,14,125,48,48,209,0,6,14,48,0,0,48,0,210,48,0,0,0,0,0,48,206,0,0,0,207,48,0,0,0,210,48,48,0,0,0,5,0,0,0,14,14,48,0,28,6,28,0,48,0,0,0,0,48,206,0,0,48,48,209,0,0,0,0,0,210,0,0,0,55,55,48,0,0,0,11,12,0,0,0,0,0,0,0,0,0,0,0,0,0,48,0,0,0,209,0,0,0,0,209,0,0,0,0,0,0,0,0,0,0,209,0,0,54,0,0,0,0,235,236,0,0,0,0,54,0,0,0,0,0,0,0,0,0,48,0,48,121,48,0,237,240,238,127,0,0,0,0,0,0,0,48,0,0,0,0,0,112,112,112,112,112,112,112,112,0,0,0,0,0,209,0,0,0,0,0,0,0,0,0,0,0,0,0,209,0,0,0,11,12,0,0,0,181,181,0,0,0,0,0,0,0,29,17,27,0,0,0,0,29,17,27,0,0,9,10,0,5,0,0,0,0,0,0,0,128,0,0,11,12,0,0,0,0,0,0,0,0,0,0,5,0,9,10,0,0,209,0,0,0,0,53,0,0,0,0,0,0,0,0,0,121,48,0,0,0,0,0,0,48,0,0,0,0,0,0,0,0,48,0,0,0,0,0,0,48,0,0,0,0,0,194,65,195,0,0,48,0,0,0,28,0,0,0,48,0,0,0,0,0,0,48,0,0,196,65,197,0,0,48,0,0,0,0,0,0,0,48,121,0,0,0,0,0,0,0,121,18,28,18,206,0,0,0,0,48,121,127,206,0,0,0,48,121,0,210,28,209,0,121,48,0,0,0,0,0,0,0,48,121,0,0,210,28,209,0,0,121,48,0,0,0,0,0,0,0,0,0,0,0,0,0,0,0,0,0,0,0,0,0,0,0,0,0,0,0,0,0,0,0,0,0,0,0,55,0,0,0,0,53,0,0,0,53,0,0,0,0,0,0,203,203,0,0,0,0,0,0,0,0,0,0,203,203,203,203,203,41,40,203,203,203,203,203,0,0,0,0,0,0,0,0,0,0,0,0,0,0,0,0,0,0,0,0,0,0,0,0,0,0,0,0,0,0,0,0,112,112,112,112,112,0,0,0,0,0,0,0,0,0,0,0,0,0,0,0,0,0,0,0,0,0,31,31,31,0,0,0,0,0,0,0,0,0,0,112,112,112,0,0,0,0,0,0,0,31,31,31,203,0,0,0,204,0,204,48,48,48,204,0,204,0,0,0,80,48,80,0,0,0,0,48,0,0,0,0,0,48,0,0,138,116,111,114,138,116,111,114,0,48,121,48,0,0,208,0,48,207,18,206,48,207,18,206,48,207,18,206,48,0,48,0,0,0,48,0,0,0,48,0,0,0,0,0,0,0,0,0,207,48,48,48,48,48,0,207,0,198,0,0,0,0,198,207,0,0,145,165,166,146,0,0,0,147,148,0,0,0,145,165,166,146,0,0,0,0,0,0,0,0,0,0,0,0,206,207,198,0,0,0,0,0,0,0,0,0,0,0,0,0,0,0,0,0,0,0,0,0,0,198,207,0,207,0,48,48,48,48,48,0,207,0,0,0,0,0,0,0,127,79,79,79,127,0,0,0,0,0,198,0,48,48,48,48,207,0,127,79,79,127,0,0,0,0,206,207,198,0,127,79,79,79,127,48,48,48,53,48,48,48,48,48,48,206,0,198,0,48,48,48,48,48,48,48,48,53,48,48,48,48,53,48,48,48,48,53,48,48,48,48,53,48,48,48,48,48,48,48,48,48,48,48,48,48,48,48,48,48,48,48,53,48,48,48,48,48,70,66,71,137,138,138,70,66,71,48,48,48,48,48,48,48,48,48,48,48,48,48,48,48,48,48,48,48,48,48,48,48,48,48,48,48,48,48,53,48,48,48,48,48,48,48,48,48,48,70,66,71,48,48,48,48,48,48,48,48,48,48,48,70,66,66,66,66,66,66,66,66,66,66,66,66,66,66,66,66,66,66,66,66,71,48,48,48,48,110,80,121,80,110,80,121,80,110,80,
35,80,52,80,38,80,33,80,37,78,0,78,48,78,0,0,0,0,0,0,0,0,0,101,121,121,99,0,0,112,112,0,0,0,0,0,0,0,0,0,0,0,80,121,121,80,0,0,0,0,0,0,113,48,113,102,114,113,48,102,114,102,103,102,98,103,102,114,0,0,0,0,0,0,0,0,0,69,80,121,67,0,0,0,0,0,0,112,112,0,69,121,80,67,0,48,48,48,0,0,0,0,0,0,19,0,0,0,0,80,112,0,0,0,0,0,0,0,0,0,0,149,150,34,151,152,0,0,0,0,0,0,0,0,0,0,0,0,0,0,0,0,0,0,0,0,0,0,0,0,0,0,0,0,0,0,0,19,0,0,0,0,207,48,48,0,6,69,80,67,120,48,7,11,6,48,120,6,12,119,69,80,67,125,6,122,9,7,69,17,67,120,6,124,6,78,6,7,120,10,69,17,67,12,12,117,7,125,69,67,7,122,69,67,11,2,69,67,120,118,2,119,69,17,67,14,124,14,0,0,14,48,10,6,80,80,80,80,127,7,127,67,0,0,0,0,0,0,210,48,0,0,0,0,207,48,48,209,0,0,14,48,209,0,206,48,0,0,48,206,0,0,0,0,210,48,0,0,0,48,209,0,0,0,0,48,48,206,0,0,0,0,0,0,0,207,48,0,0,28,0,0,48,206,0,0,0,210,48,0,207,48,48,0,0,209,0,0,0,0,0,0,0,0,48,48,0,0,0,0,0,0,0,0,209,0,0,0,0,0,0,0,0,0,48,0,0,0,0,0,0,0,0,0,0,0,0,48,48,0,54,0,0,0,0,0,0,53,0,0,0,0,233,234,0,209,0,0,53,0,0,0,0,0,48,48,0,19,200,0,48,48,48,0,19,200,19,127,19,0,48,48,0,0,19,200,19,54,54,0,0,0,0,0,0,0,207,112,209,0,0,0,0,0,0,0,128,0,0,0,209,0,0,0,0,0,0,0,0,0,0,0,0,0,0,0,0,0,0,0,0,209,0,0,126,0,0,48,0,128,0,0,128,0,48,0,0,0,11,12,0,0,0,0,0,0,0,0,0,5,0,0,0,0,0,0,0,0,0,0,209,0,0,0,0,0,11,12,0,0,0,0,0,0,0,0,0,0,0,0,0,0,0,0,0,48,121,0,0,0,0,0,0,48,0,0,0,0,0,0,0,0,48,0,0,0,0,0,0,48,0,0,0,0,0,243,46,244,0,0,48,0,0,0,0,0,0,0,48,0,0,0,18,0,0,48,0,0,0,28,0,0,0,48,0,0,0,0,0,0,0,121,48,0,0,0,0,0,0,0,48,65,208,65,209,0,0,0,0,121,48,28,209,0,0,0,121,48,0,0,0,0,0,48,121,0,0,0,0,0,207,18,121,48,0,0,0,0,0,0,0,48,121,0,0,0,0,0,0,0,0,0,0,0,0,0,0,0,53,0,0,0,0,0,112,112,112,0,0,0,0,0,0,0,0,0,0,0,0,0,0,0,0,0,0,0,0,0,0,0,0,0,0,0,0,0,0,0,0,0,0,0,0,53,0,0,0,0,0,28,0,0,0,0,0,0,0,28,0,0,0,0,0,0,0,0,0,0,0,0,0,0,0,0,0,0,0,112,0,0,0,0,0,0,0,0,0,19,19,19,0,0,48,0,0,0,0,0,0,0,0,0,0,19,19,19,0,0,0,0,0,0,0,0,0,0,0,0,0,0,0,0,0,0,0,0,0,0,0,0,48,0,0,0,0,0,0,0,0,0,0,0,31,0,0,0,48,204,48,48,121,48,48,204,48,0,0,80,0,48,0,80,0,0,0,48,0,0,176,0,207,48,206,207,7,37,121,35,7,37,121,35,0,48,48,48,0,0,138,116,111,114,138,116,111,114,138,116,111,114,138,116,111,114,138,0,0,0,48,0,0,0,48,0,0,0,0,0,0,0,198,48,48,48,48,48,48,48,48,48,48,48,0,206,0,48,48,48,48,145,165,167,168,166,146,0,0,0,0,0,0,145,165,167,168,166,146,0,0,207,0,198,145,146,0,0,207,0,48,48,48,48,0,206,0,0,0,0,0,0,0,0,0,0,0,0,0,0,0,0,0,206,48,48,48,48,48,48,48,48,48,48,48,48,48,48,207,0,0,53,0,0,207,0,54,0,28,0,198,0,207,48,48,48,48,48,55,48,48,48,48,54,48,28,207,0,198,48,48,48,48,48,48,48,54,48,28,48,48,48,48,48,48,48,48,48,48,48,48,48,48,48,48,48,48,48,48,48,48,48,48,48,48,48,48,48,48,48,48,48,48,48,48,48,48,48,48,48,48,48,48,48,48,48,48,48,48,48,48,48,48,48,53,48,48,48,48,48,48,215,110,110,110,3,8,7,110,110,110,48,48,48,18,18,48,48,48,48,48,48,48,48,48,48,48,48,137,138,138,48,48,48,48,48,48,48,48,48,48,48,48,48,138,138,138,138,48,48,215,110,110,110,48,48,48,48,48,48,48,48,48,48,215,110,110,110,110,113,110,102,99,101,108,104,110,101,99,115,101,112,112,112,112,112,99,48,48,48,48,110,80,80,80,110,80,80,80,110,80,
35,80,40,80,51,80,37,80,37,78,0,78,53,78,0,0,0,0,0,0,4,81,4,52,47,47,50,0,0,0,0,0,0,0,0,0,0,0,0,0,0,0,80,121,121,80,0,112,112,0,0,0,110,113,110,101,114,110,48,110,48,110,110,110,115,110,101,114,0,0,0,0,0,0,0,0,248,116,111,111,114,249,0,0,0,0,0,0,0,248,116,111,111,114,249,121,121,48,0,0,0,19,149,150,34,151,152,19,0,80,80,0,0,0,0,0,0,80,0,0,0,116,79,111,79,114,0,0,0,0,0,0,0,0,0,0,0,0,0,0,0,112,112,0,0,0,0,0,0,0,0,0,0,0,19,149,150,34,151,152,19,0,48,48,209,0,241,73,17,72,7,119,123,3,12,120,14,11,12,123,73,17,72,242,14,10,6,118,69,80,67,10,12,6,117,78,12,6,48,122,69,80,67,2,48,119,14,11,69,17,14,10,17,67,123,14,69,17,7,125,120,6,69,80,67,125,0,0,0,0,0,207,7,69,80,80,7,7,80,6,80,67,206,0,0,0,0,0,0,48,206,0,0,207,48,48,209,0,0,0,207,48,0,0,48,209,0,0,210,48,0,0,0,0,0,48,206,0,207,48,0,0,0,0,0,210,48,48,0,0,0,0,0,0,0,48,209,0,0,0,0,0,210,48,0,0,0,0,0,0,48,48,209,0,0,0,0,0,0,0,210,0,0,0,48,48,0,0,0,0,209,0,0,0,0,0,54,0,0,0,84,79,79,82,48,0,0,0,0,209,0,0,54,0,0,0,84,79,79,79,82,0,0,0,0,0,0,55,0,209,0,0,237,238,0,0,0,0,55,0,209,0,0,84,79,79,79,79,79,79,79,79,79,79,79,79,79,79,79,79,79,79,79,79,79,79,79,79,82,0,0,0,0,0,0,0,112,112,0,0,0,209,0,0,0,0,5,0,0,0,0,0,0,0,0,0,0,0,0,0,0,0,209,0,0,0,0,0,0,0,0,0,0,0,0,0,0,48,0,5,9,10,5,0,48,0,0,0,0,0,0,0,0,0,0,0,209,0,0,0,0,126,0,0,0,0,0,0,0,0,0,0,0,0,209,0,0,0,0,0,0,0,0,0,0,0,0,0,209,0,0,0,0,0,0,70,71,0,0,0,0,0,0,48,0,0,0,0,0,0,0,0,48,19,0,0,0,0,19,48,0,0,19,0,0,0,46,0,0,0,48,0,0,0,0,0,0,0,48,0,0,194,65,195,0,48,0,0,0,0,0,0,0,48,0,0,0,18,0,0,0,48,121,0,0,0,0,0,0,207,18,28,211,28,18,206,0,0,0,48,121,0,0,0,0,0,48,121,0,0,0,0,0,121,18,206,0,0,0,0,210,127,48,121,0,0,0,0,0,0,0,121,48,0,0,0,0,0,194,65,26,0,0,0,54,0,0,0,0,0,0,0,0,112,112,112,112,112,0,0,0,0,0,0,0,0,0,0,112,0,0,0,0,0,0,0,0,0,0,0,0,0,0,0,0,0,0,0,0,0,0,0,0,0,0,0,0,0,0,0,0,0,0,18,0,0,0,0,0,0,0,0,0,0,0,0,202,0,0,0,0,0,0,0,0,0,112,112,112,0,0,0,0,19,19,19,0,202,202,202,0,0,48,0,0,19,19,19,0,0,0,0,0,202,202,202,0,0,0,0,0,0,0,0,0,0,0,0,0,0,0,0,0,0,0,0,0,0,0,48,48,0,0,0,0,0,0,0,0,0,0,0,0,0,0,0,0,48,48,121,48,121,48,48,0,0,0,0,0,48,0,0,0,0,0,48,0,0,138,116,114,138,116,114,7,37,48,35,7,37,48,35,0,48,48,48,0,0,7,69,80,67,7,37,121,35,7,69,80,67,7,37,121,35,7,208,0,0,48,0,0,0,48,0,207,18,18,206,48,48,48,48,48,48,48,48,48,48,145,146,48,48,48,48,48,48,48,48,145,165,167,148,147,168,166,146,206,198,0,0,145,165,167,148,147,168,166,146,198,48,48,48,70,71,145,146,48,48,48,48,48,48,48,48,48,0,145,146,207,0,198,0,0,0,0,0,0,198,0,48,48,48,48,48,48,48,70,66,71,48,48,48,48,48,48,48,48,48,206,0,206,48,48,48,0,207,0,207,48,48,48,55,48,48,48,70,71,48,48,48,48,48,48,48,48,48,48,48,48,48,48,48,48,48,48,48,48,48,48,48,48,48,48,48,48,48,48,48,55,48,48,48,48,48,48,48,55,48,48,48,48,48,48,48,48,48,48,48,48,48,48,48,48,48,48,48,48,48,48,48,48,48,48,137,138,48,48,48,48,48,48,48,48,48,48,48,48,18,48,48,69,80,67,3,7,7,69,80,67,48,48,48,137,138,48,48,48,48,48,18,18,48,48,48,48,48,3,8,7,48,48,48,48,48,48,48,48,48,48,48,48,48,7,8,7,7,48,48,48,69,80,67,48,48,18,48,48,48,48,48,48,48,215,110,115,115,110,115,110,101,99,105,99,97,110,105,108,104,101,112,112,112,112,112,99,48,48,48,48,110,80,80,80,110,80,80,80,110,80,
35,68,36,68,36,68,36,68,37,78,54,78,48,78,0,0,0,0,0,0,31,78,31,101,121,121,99,0,0,0,0,48,48,48,48,0,0,0,0,0,0,0,112,80,80,112,0,0,0,0,0,0,105,100,104,105,114,105,114,105,114,105,104,115,48,115,105,114,0,0,0,0,0,0,0,0,0,69,121,80,67,0,0,0,0,0,0,0,0,0,69,80,121,67,0,48,48,48,0,0,0,116,79,111,79,111,79,114,0,112,80,0,0,0,0,0,0,80,80,0,0,48,121,0,121,48,0,0,80,0,0,0,0,0,19,149,150,151,152,19,0,0,0,0,0,0,0,0,80,0,0,0,0,0,116,79,111,79,111,79,114,0,48,48,206,0,0,28,14,28,0,0,10,6,6,125,48,0,0,0,28,14,28,0,0,48,12,6,69,17,67,6,0,14,241,83,242,14,125,6,69,17,67,14,6,0,0,14,73,72,206,241,73,72,242,241,73,72,14,0,12,124,69,17,67,0,0,0,0,0,0,48,14,69,80,80,80,7,127,7,127,67,48,48,206,0,0,0,0,210,48,0,207,48,48,209,0,206,206,0,48,209,0,0,0,0,0,0,0,48,206,0,0,0,0,210,48,138,138,71,0,0,0,0,0,0,48,48,206,0,0,0,0,0,207,48,0,0,0,0,0,0,0,48,0,0,0,0,0,207,48,48,0,0,0,0,0,209,0,0,0,0,0,0,48,48,0,0,0,0,0,0,0,0,0,0,53,0,0,0,37,121,121,35,48,0,0,54,0,0,0,0,53,0,0,0,37,121,48,121,35,0,0,209,0,0,0,0,0,0,0,0,0,0,0,0,0,19,0,0,0,19,0,37,48,48,121,48,48,48,121,48,48,48,121,48,48,48,121,48,48,48,121,48,48,48,121,48,35,0,209,0,0,0,0,207,112,209,0,0,0,0,0,0,9,10,0,0,0,0,0,0,0,0,209,0,0,0,0,0,0,0,0,0,0,0,0,0,209,0,0,0,0,0,0,0,0,48,0,0,11,12,0,0,48,0,0,0,0,0,209,0,0,0,0,0,0,0,0,0,0,0,0,0,0,0,0,0,0,0,0,0,0,0,0,0,0,0,0,0,0,0,0,0,0,0,0,0,0,0,0,209,0,0,0,69,127,0,0,0,0,0,0,48,0,0,0,0,0,0,0,19,48,65,0,0,0,84,79,79,79,79,79,82,0,0,46,0,0,0,48,0,0,0,0,0,0,0,48,0,0,243,46,244,0,48,0,0,0,0,0,0,0,48,0,0,194,65,26,0,0,121,48,0,0,0,0,0,0,210,127,121,18,208,127,209,0,0,0,121,48,0,0,0,0,207,18,48,0,0,0,0,0,48,127,209,0,0,0,207,18,28,18,48,0,0,0,0,0,0,0,48,121,207,18,206,0,0,243,46,177,202,202,202,202,0,0,0,0,0,0,0,0,0,0,48,0,0,0,0,0,0,0,0,0,0,0,112,112,112,0,0,0,0,0,53,0,0,0,0,0,0,0,0,0,0,0,0,0,0,53,0,0,112,0,0,0,202,202,202,202,202,202,202,0,0,0,0,0,0,0,0,54,0,0,0,81,0,202,202,202,0,0,0,0,0,0,48,0,0,0,0,0,202,202,202,0,70,66,71,0,0,48,0,0,202,202,202,0,0,0,0,19,70,66,71,0,0,0,0,0,19,19,19,0,0,0,0,0,0,0,0,19,19,19,0,0,0,0,48,0,19,19,19,0,0,0,0,0,0,0,0,0,0,0,0,0,0,48,48,48,48,48,0,0,0,0,0,0,48,0,0,176,0,207,48,206,207,7,69,67,7,69,67,7,37,121,35,7,37,121,35,13,128,13,9,10,13,7,69,212,67,7,37,48,35,7,69,212,67,7,37,48,35,7,116,114,138,138,116,114,138,138,116,114,138,138,116,114,138,138,48,48,48,48,48,145,146,102,103,145,146,48,48,48,127,48,48,102,103,148,9,10,147,102,103,48,48,207,0,102,103,148,9,10,147,102,103,48,48,127,48,69,67,102,103,145,146,48,48,48,48,48,48,145,146,102,103,48,48,48,48,0,198,0,206,48,48,48,48,48,48,117,118,119,215,110,110,110,203,137,138,138,48,48,48,55,48,48,48,48,48,48,48,48,48,48,48,48,48,137,138,48,48,215,110,110,48,48,48,48,48,48,48,48,48,48,48,48,48,48,48,48,48,48,48,48,48,48,48,48,48,48,48,48,48,137,138,138,48,48,48,48,48,70,66,71,48,48,48,48,48,48,48,48,48,48,48,48,48,48,48,48,48,48,48,48,48,48,48,48,48,48,8,7,48,70,66,71,48,48,48,48,48,48,18,48,137,48,215,110,110,110,3,7,7,110,110,110,48,48,48,8,7,48,48,48,48,48,70,71,48,48,48,48,48,3,7,7,48,48,48,48,48,18,18,48,48,48,48,48,48,7,7,7,7,48,48,215,110,110,110,48,48,137,48,48,48,18,48,48,48,48,69,80,80,80,80,80,80,80,80,80,80,80,80,80,80,80,80,80,80,80,80,67,48,48,48,48,110,80,121,80,110,80,121,80,110,80,
48,78,54,78,48,78,55,78,48,78,54,78,48,78,238,0,112,112,0,0,0,78,0,52,47,47,50,0,0,0,0,48,121,121,48,0,0,0,0,0,0,0,80,121,121,80,0,0,0,0,0,0,211,48,48,211,199,211,0,48,48,0,199,211,0,48,48,211,0,0,0,80,112,80,0,0,0,69,80,121,67,54,0,200,54,0,200,200,0,54,69,121,80,67,0,48,121,121,0,0,0,48,121,48,0,121,48,121,0,80,80,0,0,0,112,112,0,112,80,0,0,121,48,0,48,121,0,80,80,0,0,0,0,0,116,79,111,79,111,71,19,200,19,0,0,0,0,80,80,0,0,0,0,0,0,48,121,0,121,48,0,0,210,48,48,0,0,0,0,0,0,0,6,3,14,0,48,206,54,0,0,48,0,0,207,48,0,0,69,80,67,14,0,0,0,28,0,0,7,14,69,80,67,0,14,0,0,0,28,28,48,0,28,28,0,207,28,28,0,0,0,12,69,80,67,0,0,0,0,0,207,48,241,73,68,3,6,6,7,3,6,72,242,210,48,48,206,0,206,206,48,206,48,48,209,0,0,137,138,71,48,0,0,0,0,0,0,0,0,210,48,206,0,0,0,0,48,69,127,7,0,202,0,0,0,0,210,48,48,0,0,0,0,0,48,209,0,0,0,18,0,0,0,48,206,0,0,0,0,48,48,209,0,0,0,0,0,0,210,0,0,0,0,0,84,79,79,79,71,206,48,48,0,0,0,0,55,19,204,0,37,48,48,35,48,0,0,53,0,0,0,19,55,0,0,0,37,48,121,48,35,0,0,0,0,123,126,0,0,174,0,0,209,0,19,200,19,127,19,200,19,127,19,147,168,48,48,48,121,48,48,48,121,48,48,48,121,48,48,48,121,48,48,48,121,48,48,48,35,0,0,0,209,0,0,112,112,0,0,0,0,0,0,0,11,12,0,0,0,0,0,0,0,0,0,0,0,0,0,54,0,0,0,0,0,0,0,0,0,0,0,54,0,0,0,0,179,203,180,0,0,0,0,179,203,180,0,0,0,0,0,0,0,0,0,0,0,0,0,0,0,0,0,0,0,0,0,0,209,0,0,54,0,0,0,0,0,0,0,0,0,0,209,0,0,0,0,0,0,0,0,0,0,0,145,69,67,253,253,84,79,79,79,79,79,82,0,0,0,19,0,65,48,46,0,0,0,153,46,121,46,48,46,156,0,0,46,0,0,0,48,0,0,0,18,0,0,0,48,0,0,0,46,0,0,48,0,0,0,0,0,0,0,48,0,0,243,46,177,0,0,48,121,0,0,0,0,0,207,18,28,48,127,211,28,18,206,0,0,48,121,0,0,0,0,210,127,121,0,0,0,0,207,18,28,18,206,0,0,210,65,208,65,121,0,0,0,0,0,0,0,121,48,210,127,209,0,0,0,46,0,70,66,66,71,0,0,0,0,19,19,0,0,0,0,48,0,0,0,0,0,0,202,202,202,0,0,0,48,0,0,0,0,0,0,0,0,0,0,202,202,202,202,202,0,0,112,0,0,0,0,0,112,112,112,0,0,70,66,66,66,66,66,71,0,0,202,202,202,202,202,202,202,0,0,0,78,19,70,66,71,202,202,202,0,0,0,48,48,0,0,0,0,70,66,71,19,69,127,67,0,0,48,48,0,70,66,71,0,0,0,0,202,69,127,67,0,0,19,19,19,202,202,202,0,0,19,19,19,0,0,0,202,202,202,19,19,19,0,48,0,202,202,202,0,0,0,0,0,0,0,0,0,0,0,0,0,0,48,48,112,48,48,0,0,0,0,0,0,48,0,0,138,116,114,138,116,114,7,69,212,7,69,212,7,37,48,35,7,37,48,35,112,112,112,112,112,112,7,69,80,67,7,37,121,35,7,69,80,67,7,37,121,35,7,69,67,7,7,37,35,7,7,69,67,7,7,37,35,7,7,48,48,48,145,146,70,71,101,99,70,71,48,48,48,215,48,117,101,99,119,11,12,117,101,99,119,48,48,117,101,99,119,11,12,117,101,99,119,48,215,48,69,67,101,99,70,71,48,48,48,48,145,146,70,71,101,99,48,127,48,48,48,48,127,48,48,48,48,48,127,48,120,121,122,48,69,80,67,48,3,8,7,203,70,66,71,48,48,48,48,48,48,48,48,48,48,48,48,48,8,7,48,48,48,69,67,48,48,48,48,48,48,18,48,48,48,48,48,48,48,48,48,48,48,48,48,48,48,48,48,48,48,48,48,48,3,8,7,48,48,48,48,215,110,110,110,48,48,18,48,48,48,48,48,48,48,48,48,18,48,48,48,48,48,48,48,48,48,18,48,48,48,3,7,215,110,110,110,48,48,48,48,18,48,81,48,3,48,48,69,80,67,3,8,7,69,80,67,48,48,48,3,7,48,48,48,48,215,110,110,48,48,48,48,48,3,7,7,54,54,54,48,48,137,138,48,48,48,48,48,48,7,7,7,7,48,48,48,69,80,67,48,48,3,48,48,48,81,48,48,48,215,101,99,97,101,99,110,112,110,116,99,113,110,105,99,110,110,102,99,116,99,116,99,48,48,48,48,110,80,80,80,110,80,80,80,110,80,
48,78,54,78,53,78,55,78,48,78,54,78,53,78,238,0,0,0,0,0,0,83,0,56,48,80,48,0,0,0,0,48,48,48,48,0,80,80,0,0,0,0,80,121,121,80,0,0,0,0,0,0,0,48,48,0,0,0,0,48,48,0,0,0,0,48,48,0,0,0,0,205,80,205,0,0,248,116,111,111,114,249,55,83,0,55,73,72,55,248,116,111,111,114,249,48,48,48,0,0,0,121,48,121,0,48,121,48,0,80,112,0,0,0,0,0,0,80,80,0,0,48,121,0,121,48,0,80,112,0,0,80,0,0,0,0,121,48,121,105,79,111,82,0,0,0,0,80,112,0,0,0,0,0,0,121,48,0,48,121,0,0,0,48,48,206,0,0,0,0,0,0,14,6,7,0,210,48,53,0,0,48,0,0,48,209,0,241,73,17,72,242,0,54,0,0,0,0,0,0,73,17,72,0,0,0,54,0,0,0,48,206,0,0,0,48,0,0,0,0,0,241,73,17,72,242,0,0,0,0,48,209,0,28,209,0,207,48,0,0,0,55,48,0,0,210,48,48,70,66,138,138,71,209,0,0,0,69,127,67,0,0,0,0,0,0,0,0,0,0,48,70,138,71,0,0,0,69,7,67,0,48,0,202,0,207,0,48,48,206,18,0,0,207,48,0,0,0,18,138,18,0,206,210,48,0,0,0,207,48,48,0,0,0,0,0,0,0,0,0,0,0,0,207,37,48,48,48,73,79,79,79,82,0,0,19,0,102,103,0,37,113,113,35,48,0,19,55,0,0,0,127,179,200,204,145,165,48,48,167,148,0,0,13,123,118,122,13,13,127,174,0,0,0,84,79,79,79,79,79,79,79,79,79,82,48,203,48,203,48,203,48,48,48,48,48,48,48,48,48,48,48,203,48,48,48,48,167,148,0,0,0,0,0,207,112,209,0,0,209,0,0,0,0,0,0,0,0,0,0,0,0,0,54,0,0,0,0,0,53,0,0,0,0,0,0,19,0,0,0,0,53,0,0,0,243,84,79,82,244,0,0,243,84,79,82,244,0,0,0,0,0,0,54,0,0,0,209,0,0,0,0,0,0,0,0,54,0,0,0,0,53,0,0,0,0,0,0,54,0,0,0,0,0,0,0,0,0,0,0,123,126,0,0,37,127,67,146,0,153,46,48,46,121,46,156,0,0,0,65,19,46,202,46,0,0,0,0,46,48,46,121,46,0,0,0,46,0,0,180,48,0,0,194,65,195,0,0,48,0,0,0,46,0,0,48,0,0,0,18,0,0,0,48,0,0,0,46,0,84,79,79,79,79,79,82,0,0,210,65,48,18,28,18,208,65,209,0,0,121,48,0,0,0,207,18,28,18,206,0,0,0,210,65,121,65,209,0,207,18,28,211,28,18,206,0,0,0,0,0,0,48,121,18,28,18,206,0,0,46,202,69,80,127,67,0,0,0,0,202,202,0,0,0,48,48,0,0,0,0,0,0,70,66,71,0,0,0,48,48,0,0,117,118,119,0,0,0,19,70,127,66,127,71,0,112,112,112,0,0,0,0,0,48,0,0,0,69,127,80,80,80,127,67,19,19,70,66,66,127,66,66,71,19,0,0,78,202,69,127,67,70,66,71,19,0,0,0,48,0,0,0,0,69,127,67,202,69,80,67,19,0,0,48,0,69,127,67,0,0,0,0,48,69,80,67,0,0,202,202,202,70,66,71,0,0,202,202,202,0,0,19,70,66,71,202,202,202,0,48,0,70,66,71,19,0,0,0,0,0,0,0,116,114,138,116,114,206,48,48,245,246,48,0,176,0,0,245,246,48,0,207,7,69,67,7,69,67,7,69,67,7,69,67,7,37,121,35,7,37,121,35,112,125,123,112,121,112,7,69,212,67,7,37,48,35,7,69,212,67,7,37,48,35,7,69,212,7,7,37,35,7,7,69,212,7,7,37,35,7,7,48,48,48,102,103,69,67,101,99,69,67,48,127,48,215,48,120,101,99,122,48,48,120,101,99,122,48,48,120,101,99,122,48,48,120,101,99,122,48,215,48,69,67,101,99,69,67,48,127,48,48,102,103,69,67,101,99,48,215,48,48,127,48,215,48,48,127,48,48,215,48,116,111,114,215,110,110,110,48,3,7,7,215,110,110,110,48,48,48,48,48,48,48,48,48,18,48,48,48,3,7,48,126,215,110,110,48,18,18,48,48,48,81,48,48,48,48,48,48,48,48,48,48,48,18,176,18,48,48,48,48,48,9,10,48,3,7,7,48,48,48,48,48,69,80,67,48,48,137,48,126,48,48,18,48,48,126,48,137,48,126,48,48,18,48,48,126,48,137,48,126,48,3,7,48,69,80,67,48,48,48,48,137,215,110,48,3,48,215,110,110,110,3,7,7,110,110,110,48,48,48,3,7,48,48,48,48,48,69,67,48,48,48,48,48,3,8,7,70,66,71,48,48,8,7,48,48,48,48,48,48,7,7,8,7,48,48,215,110,110,110,48,48,3,48,48,215,110,48,48,48,215,101,99,110,110,97,101,115,99,116,99,110,110,105,99,115,110,101,99,116,108,104,99,48,48,48,48,110,80,80,80,110,80,80,80,110,80,
53,78,0,83,203,83,0,78,53,78,0,83,203,83,238,0,0,0,0,0,0,28,0,0,80,48,80,0,0,0,0,48,121,121,48,0,0,80,0,0,0,0,112,80,80,112,80,80,112,0,0,0,0,48,48,0,0,0,0,48,48,0,0,0,0,48,48,0,0,0,0,0,80,0,0,0,0,212,48,48,48,0,0,0,0,0,0,55,0,0,31,31,48,48,0,121,121,48,0,0,0,48,121,48,0,121,48,121,0,80,80,0,0,0,0,0,0,80,112,0,0,121,48,0,48,121,0,80,80,0,0,80,80,0,0,0,48,121,48,0,0,0,55,0,0,0,0,80,80,0,0,0,0,0,0,48,121,0,121,48,0,0,0,210,48,48,0,0,0,0,0,0,207,48,0,0,0,48,55,0,0,48,0,207,48,0,0,0,28,14,28,0,0,53,0,0,0,0,0,0,31,31,31,0,0,0,53,0,0,0,210,48,0,0,207,48,0,0,0,0,0,0,31,31,31,48,48,206,0,0,48,0,0,0,0,0,48,209,0,0,0,0,48,206,0,0,0,210,69,127,7,80,67,0,13,128,0,69,138,7,0,0,53,0,0,0,0,53,0,0,0,69,127,7,0,0,117,69,127,7,13,48,0,48,0,70,138,66,66,66,138,66,66,138,138,66,66,66,66,7,66,66,71,0,48,0,0,0,48,48,209,0,0,53,0,0,0,0,0,209,0,0,0,199,37,48,48,48,48,48,48,48,166,146,19,127,179,105,104,204,37,110,110,35,127,179,127,200,19,149,150,84,79,79,82,165,48,48,167,148,13,128,13,138,138,138,138,138,138,138,138,13,13,13,147,168,121,48,48,121,48,48,121,48,48,48,48,48,48,48,48,48,48,48,84,79,79,82,48,48,48,202,17,202,48,48,167,148,0,0,0,0,0,0,112,112,0,0,0,0,0,0,0,0,0,0,0,0,0,209,0,0,0,53,0,0,0,0,0,55,0,209,0,0,84,79,82,0,0,0,0,55,0,0,0,0,0,48,0,0,209,0,0,0,48,0,0,0,0,209,0,0,0,53,0,0,0,0,0,0,48,0,19,0,0,0,53,0,0,0,0,55,0,0,0,0,84,79,82,0,0,0,0,123,126,0,0,13,13,123,118,122,13,13,37,69,67,35,0,0,46,121,46,48,46,0,17,179,0,46,202,46,48,46,0,180,17,0,46,121,46,48,46,0,179,0,46,0,0,17,48,0,0,243,46,244,0,17,48,0,0,179,46,0,180,17,0,0,194,65,195,0,180,48,0,17,179,46,0,153,46,121,46,48,46,156,0,207,18,28,121,65,0,65,211,28,18,206,0,48,121,0,0,0,210,65,48,65,209,0,0,207,18,28,48,28,18,206,210,127,208,18,48,127,209,0,0,0,0,18,0,121,48,65,208,65,209,0,0,46,48,69,127,80,67,0,0,0,13,70,71,13,0,48,48,0,13,9,10,13,0,0,127,80,67,13,128,13,0,48,0,0,120,121,122,13,0,0,202,69,80,80,80,67,0,0,48,0,13,9,10,13,0,48,48,0,13,69,80,80,127,80,80,67,202,202,69,127,80,80,80,127,67,202,13,13,78,48,69,80,67,69,127,67,202,0,0,0,48,9,10,13,0,69,80,67,48,69,80,67,202,0,0,48,13,69,80,67,0,0,0,0,48,69,80,67,0,0,70,66,71,69,127,67,0,0,70,66,71,13,13,202,69,127,67,70,66,71,13,48,0,69,127,67,202,13,9,10,0,0,0,0,69,67,7,69,67,116,111,114,138,138,116,114,138,116,114,138,138,116,111,114,7,69,212,7,69,212,7,69,212,7,69,212,7,37,48,35,7,37,48,35,112,119,117,112,112,112,7,69,80,67,7,37,121,35,7,69,80,67,7,37,121,35,7,69,67,7,7,37,127,7,7,69,67,7,7,127,35,7,7,48,48,48,101,99,69,67,101,99,69,67,48,215,48,215,48,123,101,99,125,48,48,123,101,99,125,48,48,123,101,99,125,48,48,123,101,99,125,48,215,48,69,67,101,99,69,67,48,215,48,48,101,99,69,67,101,99,48,215,48,48,215,48,215,48,48,215,48,48,215,48,69,127,67,48,69,80,67,48,3,7,7,48,69,80,67,48,48,48,48,18,48,48,48,48,81,48,48,48,3,7,48,48,48,69,67,48,137,138,48,126,215,110,48,48,48,48,48,48,48,18,48,126,48,70,66,71,48,126,48,18,48,11,12,48,3,7,7,48,48,48,48,215,110,110,110,48,48,3,48,48,48,48,81,48,48,48,48,3,48,48,48,48,81,48,48,48,48,3,48,48,48,3,8,215,110,110,110,48,48,48,48,3,48,78,48,3,48,48,69,80,67,3,7,7,69,80,67,48,48,48,3,8,48,48,48,48,215,110,110,48,48,48,48,48,3,7,7,110,110,110,48,48,3,7,48,48,48,48,48,48,7,7,7,7,48,48,48,69,80,67,48,48,3,48,48,48,78,48,48,48,48,69,80,80,80,80,80,80,80,80,80,80,80,80,80,80,80,80,80,80,80,80,67,48,48,48,48,110,80,121,80,110,80,121,80,110,80,
203,83,0,28,28,28,0,83,203,83,0,28,28,28,0,0,0,0,0,0,0,0,0,0,48,80,48,0,0,0,0,48,48,48,48,0,0,80,0,0,0,0,80,121,121,80,121,121,80,0,0,0,0,48,48,0,0,0,0,48,48,0,0,0,0,48,48,0,0,0,0,0,80,0,0,0,0,31,48,48,48,0,0,0,0,0,0,0,0,0,48,48,48,48,0,48,48,48,0,0,0,121,48,121,0,116,79,114,0,112,80,0,0,0,0,53,0,80,80,0,0,48,121,19,121,48,0,112,80,0,0,80,112,0,0,0,121,48,121,0,0,0,0,0,0,0,0,112,80,0,0,0,0,0,0,121,48,0,48,121,0,0,207,18,48,48,0,207,18,0,0,0,48,209,0,0,0,210,48,0,18,13,18,48,209,0,0,54,0,48,0,0,0,55,0,0,0,0,0,54,0,0,0,0,0,0,55,0,0,0,0,48,0,0,48,209,0,0,0,0,0,54,0,0,0,0,210,48,48,18,209,0,0,0,0,207,48,0,0,0,0,0,210,48,0,0,0,13,69,80,138,80,67,13,138,138,13,69,80,7,13,0,0,0,176,0,0,0,0,13,0,69,80,7,13,117,7,69,80,7,122,48,128,48,0,7,127,80,127,80,7,7,7,80,7,7,80,80,7,7,80,127,67,0,70,71,0,207,48,48,0,0,0,0,0,210,0,0,0,0,0,0,0,198,147,168,121,48,121,48,121,48,48,166,84,79,79,79,79,79,79,79,79,79,79,79,79,79,82,165,48,121,48,121,48,121,48,138,138,138,138,138,138,7,7,7,7,7,7,7,7,138,138,138,138,138,138,48,48,48,48,48,48,48,138,138,138,138,138,138,138,138,48,48,48,48,48,48,48,48,203,48,17,48,203,167,148,0,0,0,0,209,0,207,112,209,0,0,0,0,0,48,48,48,0,0,0,54,0,0,0,0,0,55,0,0,0,209,0,0,0,0,0,0,184,127,183,0,0,0,0,0,0,0,209,0,0,48,0,0,0,0,0,0,48,0,0,0,0,0,0,0,0,55,0,0,0,0,84,79,79,79,82,0,0,0,55,0,0,0,0,0,0,0,0,0,184,127,183,0,0,13,123,118,122,13,13,138,138,138,138,138,138,138,37,69,67,35,180,17,46,48,46,121,46,180,17,17,179,46,48,46,48,46,180,17,17,179,46,48,46,121,46,180,17,179,46,0,180,17,17,179,180,0,46,0,180,17,17,179,180,17,46,180,17,17,179,180,243,46,244,180,17,48,180,17,17,46,207,206,46,48,46,121,46,0,208,210,127,208,18,28,208,28,18,208,127,209,208,18,48,207,206,207,18,28,121,28,18,206,207,210,127,48,18,208,127,209,18,28,211,127,121,28,18,206,245,246,207,127,206,48,18,28,211,28,18,206,13,46,48,69,80,127,67,13,128,13,137,138,138,138,13,48,128,13,137,138,138,138,13,13,69,80,137,138,138,138,13,48,13,13,137,138,138,138,13,128,48,69,137,138,138,138,13,13,48,13,137,138,138,138,13,13,48,13,137,138,138,138,80,80,80,67,137,138,138,138,80,80,80,80,137,138,138,138,78,48,69,80,137,138,138,138,48,13,128,13,137,138,138,138,13,69,80,67,137,138,138,138,48,13,128,48,137,138,138,138,13,9,10,13,137,138,138,138,13,13,69,127,137,138,138,138,13,128,69,127,137,138,138,138,69,80,67,69,137,138,138,138,13,69,80,67,137,138,138,138,13,128,13,13,69,212,7,69,212,37,121,35,7,7,69,67,7,69,67,7,7,37,121,35,7,69,67,7,69,67,7,69,67,7,69,67,7,37,121,35,7,37,121,35,112,112,112,112,112,112,7,69,212,67,7,37,48,35,7,69,212,67,7,37,48,35,7,69,212,7,7,37,35,7,7,69,212,7,7,37,35,7,7,48,48,48,101,99,69,67,101,99,69,67,48,215,48,215,48,48,101,99,48,48,48,48,101,99,48,48,48,48,101,99,48,48,48,48,101,99,48,48,215,48,69,67,101,99,69,67,48,215,127,48,101,99,69,67,101,99,48,215,48,48,215,48,215,48,48,215,48,48,215,48,69,80,67,215,110,110,110,48,3,8,7,215,110,110,110,48,48,48,48,137,48,48,48,215,110,48,48,48,3,8,48,48,215,110,110,48,8,7,48,48,48,78,48,9,10,48,48,48,48,137,48,48,215,110,110,110,48,48,48,137,48,48,48,48,3,8,7,48,48,48,48,48,69,80,67,48,48,3,48,48,48,215,110,48,48,48,48,3,48,48,48,215,110,48,48,48,48,3,48,48,48,3,7,48,69,80,67,48,48,48,48,3,215,110,48,3,48,215,110,110,110,3,7,7,110,110,110,48,48,48,3,7,48,48,48,48,48,69,67,48,48,48,48,48,3,7,7,69,80,67,48,48,3,7,48,48,48,48,48,48,7,7,7,7,48,48,215,110,110,110,48,48,3,48,48,215,110,48,48,48,48,69,80,80,80,80,80,80,80,80,80,80,80,80,80,80,80,80,80,80,80,80,67,48,48,48,48,110,80,80,80,110,80,80,80,110,80,
28,28,0,0,0,0,0,28,28,28,0,0,0,0,0,0,0,18,0,0,0,0,0,0,80,48,80,0,0,0,0,48,121,121,48,0,0,80,0,0,0,0,80,121,121,80,121,53,80,0,0,70,127,66,71,0,0,0,0,48,48,0,0,0,0,48,48,0,0,0,0,176,80,127,0,0,0,48,48,48,48,0,0,19,19,0,0,0,0,0,48,48,48,149,150,116,79,111,79,114,0,48,121,48,0,37,48,35,0,80,80,53,0,0,19,204,19,112,80,0,116,79,111,71,54,54,0,80,80,0,0,80,80,0,0,0,48,121,48,0,0,0,0,0,0,239,0,80,80,53,0,0,0,178,38,34,34,34,34,34,34,34,34,34,34,34,34,34,39,119,0,207,48,0,0,0,207,0,48,117,70,17,71,119,0,0,0,53,0,48,206,0,0,0,0,18,0,0,0,53,0,0,0,0,0,0,0,0,18,18,0,210,18,18,48,0,18,18,0,0,0,53,0,0,0,0,0,0,243,81,244,0,0,0,0,48,209,0,0,126,0,0,0,48,206,128,13,138,69,127,7,7,67,138,7,138,138,69,7,138,7,13,0,243,81,13,0,0,9,137,13,69,7,138,138,7,9,69,7,67,123,138,120,48,13,7,80,7,80,7,80,80,80,80,80,7,80,7,80,80,7,80,67,13,69,67,0,70,71,209,128,0,210,0,0,0,0,0,0,0,0,209,0,199,0,147,168,48,48,48,48,48,48,48,48,121,48,121,48,121,48,121,48,138,138,138,138,138,138,138,138,138,138,138,138,138,138,7,7,7,7,7,7,7,7,7,7,7,7,7,7,7,7,7,7,7,7,138,138,138,138,138,138,138,7,7,7,7,7,7,7,7,138,138,138,138,138,138,138,48,48,202,17,202,167,148,13,0,0,0,0,0,0,112,112,0,0,0,0,0,84,79,79,79,79,79,79,82,0,0,13,9,10,13,13,13,13,0,0,123,126,0,13,13,84,79,82,13,0,0,0,0,0,0,0,0,0,48,0,0,0,0,0,0,48,0,0,0,123,126,0,0,0,0,0,13,13,13,147,121,48,121,148,13,13,13,0,0,0,0,0,123,126,13,13,13,84,79,82,13,13,138,138,138,138,138,138,7,7,7,7,7,7,7,37,69,67,138,138,138,137,138,138,138,137,138,138,138,137,138,138,138,137,138,138,138,137,138,138,138,137,138,138,138,137,138,138,138,137,138,138,138,137,138,138,138,137,138,138,138,137,138,138,138,137,138,138,138,137,138,138,138,137,138,138,138,137,138,138,138,137,138,138,138,137,138,138,138,137,138,138,138,137,138,138,138,137,138,138,138,137,138,138,138,137,138,138,138,137,138,138,138,137,138,138,138,137,138,138,138,137,138,138,138,137,138,138,138,137,138,138,138,137,138,138,138,137,138,138,138,137,138,138,138,137,138,138,138,3,7,7,7,137,138,138,138,3,7,7,7,137,138,138,138,3,7,7,7,137,138,138,138,3,7,7,7,137,138,138,138,3,7,7,7,137,138,138,138,3,7,7,7,137,138,138,138,3,7,7,7,137,138,138,138,3,7,7,7,137,138,138,138,3,7,7,7,137,138,138,138,3,7,7,7,137,138,138,138,3,7,7,7,137,138,138,138,3,7,7,7,137,138,138,138,3,7,7,7,137,138,138,138,3,7,7,7,137,138,138,138,3,7,7,7,137,138,138,138,3,7,7,7,137,138,138,138,3,7,7,7,137,138,138,138,3,7,7,7,137,138,138,138,69,67,7,69,67,37,48,35,7,7,69,212,7,69,212,7,7,37,48,35,7,69,212,7,69,212,7,69,212,7,69,212,7,37,48,35,7,37,48,35,112,121,112,125,123,112,7,69,80,67,7,37,121,35,7,69,80,67,7,37,121,35,7,69,67,7,7,37,35,7,7,69,67,7,7,37,35,7,7,48,48,48,101,99,69,67,101,99,69,67,48,215,48,215,48,117,101,99,119,48,48,117,101,99,119,48,48,117,101,99,119,48,48,117,101,99,119,48,215,48,69,67,101,99,69,67,48,215,215,48,101,99,69,67,101,99,48,215,48,48,215,48,215,48,48,215,48,48,215,48,69,127,67,48,69,80,67,48,3,7,7,48,69,80,67,48,9,10,48,3,48,9,10,48,78,48,128,48,3,7,48,48,48,69,67,48,3,7,48,48,215,110,48,11,12,48,48,48,48,3,48,48,48,69,80,67,48,48,48,3,48,48,48,48,3,7,7,48,48,48,48,215,110,110,110,48,48,3,48,48,48,48,78,48,48,48,48,3,48,48,48,48,78,48,48,48,48,3,48,48,48,3,7,215,110,110,110,48,48,48,48,3,48,78,48,3,48,48,69,80,67,3,7,7,69,80,67,48,48,48,3,7,48,48,48,48,215,110,110,48,48,48,48,48,3,7,7,110,110,110,48,48,3,8,48,48,48,48,48,48,7,8,7,7,48,48,48,69,80,67,48,48,3,48,48,48,78,48,48,48,48,69,80,80,80,80,80,80,80,80,80,80,80,80,80,80,80,80,80,80,80,80,67,48,48,48,48,110,80,80,80,110,80,80,80,110,80,
0,0,0,0,0,0,0,0,0,0,0,54,0,54,0,0,0,81,18,0,0,0,0,0,48,80,48,0,80,80,0,48,48,48,48,0,0,80,19,81,202,202,202,81,121,80,121,121,80,0,0,69,80,127,67,54,212,17,179,48,48,0,0,19,0,48,48,19,0,54,170,212,80,127,54,127,179,48,54,48,48,19,200,202,202,200,19,0,0,0,48,149,150,165,48,37,212,48,212,35,152,116,79,114,149,37,212,35,152,80,19,204,19,0,116,79,114,80,149,150,37,212,48,105,79,114,152,80,19,204,19,112,149,152,0,0,116,79,111,79,114,152,0,0,0,240,0,80,112,0,0,0,0,70,66,71,48,121,48,48,48,127,48,48,121,48,48,121,35,123,119,138,7,138,3,7,138,13,117,125,69,80,67,138,119,0,0,55,0,210,48,0,0,117,243,81,244,128,0,55,19,19,19,0,0,117,138,13,70,71,13,117,70,71,209,117,70,71,119,0,0,55,19,19,19,0,0,13,138,78,119,0,0,0,207,48,0,0,117,138,119,128,0,117,118,138,138,7,7,80,80,138,7,138,124,119,7,7,7,67,119,137,122,125,78,7,122,120,119,118,137,138,7,67,7,123,124,7,80,67,7,48,123,138,124,69,127,7,7,80,7,80,7,80,80,80,7,80,80,127,80,127,67,7,138,67,13,69,67,13,7,119,0,0,0,0,123,126,0,0,0,13,13,198,13,13,147,48,48,48,48,48,48,48,138,138,138,138,138,138,138,138,138,7,7,7,7,7,7,7,7,7,7,7,7,7,7,7,7,7,7,7,7,7,7,7,7,7,7,7,7,7,7,7,7,7,7,7,7,7,7,7,7,7,7,7,7,7,7,7,7,7,7,7,7,7,7,7,7,138,138,138,138,138,138,138,138,13,13,13,13,128,13,112,13,13,0,0,0,0,37,48,121,48,121,48,121,35,13,128,138,138,138,138,138,138,138,13,123,118,122,13,138,138,138,138,138,138,13,128,13,13,13,13,0,0,0,126,125,0,0,209,0,0,48,0,0,123,118,122,13,13,13,13,13,138,138,138,138,138,138,138,138,138,138,138,13,13,13,13,123,118,122,138,138,138,138,138,138,138,138,7,7,7,7,7,7,7,7,7,7,7,7,7,37,69,67,7,7,7,3,7,7,7,3,7,7,7,3,7,7,7,3,7,7,7,3,7,7,7,3,126,126,126,126,126,126,126,126,126,126,126,126,126,126,126,126,126,126,126,126,126,126,126,126,126,126,126,126,126,126,126,126,126,126,126,126,126,126,126,126,126,126,126,126,126,126,126,126,126,126,126,126,126,126,126,126,126,126,126,126,126,126,126,126,126,126,126,126,126,126,126,126,126,126,126,126,126,126,126,126,126,126,126,126,126,126,126,126,126,126,126,126,126,126,126,126,126,126,126,126,126,126,126,126,126,126,126,126,126,126,126,126,126,126,126,126,126,126,126,126,126,126,126,126,126,126,126,126,126,126,126,126,126,126,126,126,126,126,126,126,126,126,126,126,126,126,126,126,126,126,126,126,126,126,126,126,126,126,126,126,126,126,126,126,126,126,126,126,126,126,126,126,126,126,126,126,126,126,126,126,126,126,126,126,126,126,126,126,126,126,126,126,126,126,126,126,126,126,126,126,126,126,126,126,126,126,126,126,126,126,126,126,126,126,126,126,126,126,126,126,126,126,126,126,126,126,126,126,126,126,126,126,126,126,126,3,7,7,7,3,7,7,7,3,7,7,7,3,7,7,7,69,212,7,69,212,37,121,35,7,7,69,67,7,69,67,7,7,37,121,35,7,69,67,7,69,67,7,69,67,7,69,67,7,37,121,35,7,37,121,35,112,112,112,119,117,112,7,69,212,67,7,37,48,35,7,69,212,67,7,37,48,35,7,69,212,7,7,37,35,7,7,69,212,7,7,37,35,7,7,48,48,48,101,99,69,67,101,99,69,67,48,215,48,215,48,120,101,99,122,48,48,120,101,99,122,48,48,120,101,99,122,48,48,120,101,99,122,48,215,48,69,67,101,99,69,67,48,215,215,48,101,99,69,67,101,99,48,215,48,48,215,48,215,48,48,215,48,48,215,48,69,80,67,215,110,110,110,48,3,7,7,215,110,110,110,48,11,12,48,3,48,11,12,215,110,48,5,48,3,7,48,48,215,110,110,48,3,7,48,48,48,78,48,48,48,48,48,48,48,3,48,48,215,110,110,110,48,48,48,3,48,48,48,48,3,7,7,48,48,48,48,48,69,80,67,48,48,3,48,48,48,215,110,48,48,48,48,3,48,48,48,215,110,48,48,48,48,3,48,48,48,3,7,48,69,80,67,48,48,48,48,3,215,110,48,3,48,215,110,110,110,3,7,7,110,110,110,48,48,48,3,7,48,48,48,48,48,69,67,48,48,48,48,48,3,7,7,69,80,67,48,48,3,7,48,48,48,48,48,48,7,7,7,7,48,48,215,110,110,110,48,48,3,48,48,215,110,48,48,48,48,69,80,80,80,80,80,80,80,80,80,80,80,80,80,80,80,80,80,80,80,80,67,48,48,48,48,110,80,121,80,110,80,121,80,110,80,
0,0,0,0,0,0,0,0,0,0,53,0,55,0,53,0,18,78,202,202,202,202,202,202,81,48,80,208,80,80,18,18,121,121,48,54,19,200,202,78,48,121,48,78,200,19,117,118,119,19,200,69,127,80,67,34,34,34,34,34,202,202,202,202,34,34,34,202,202,202,34,34,202,202,202,202,202,102,98,98,103,202,48,203,203,48,202,34,34,34,202,202,202,202,202,37,48,48,48,35,166,37,212,35,165,37,48,35,166,151,116,79,114,150,37,48,35,150,165,48,37,48,48,48,212,35,166,151,116,79,114,150,165,166,151,150,37,212,48,212,35,166,151,200,19,19,19,200,13,13,9,10,13,69,80,102,103,48,127,48,121,48,48,102,103,121,48,70,66,71,7,3,48,121,48,3,48,3,125,13,69,17,67,123,138,13,138,13,9,10,13,13,117,12,138,78,13,9,119,13,70,17,71,10,117,138,13,138,17,67,7,13,69,17,13,7,17,67,11,119,13,13,70,17,71,128,13,7,12,78,138,119,13,13,128,13,9,10,7,121,122,138,10,120,138,122,7,124,138,80,80,80,7,120,10,13,124,69,138,67,13,122,13,120,78,119,137,13,123,13,120,69,7,67,118,7,125,69,7,67,125,138,138,48,117,69,80,7,80,80,80,7,7,7,80,80,7,80,80,7,80,80,7,11,69,138,138,69,67,138,12,138,119,13,13,123,118,122,13,128,13,138,138,138,138,138,138,138,138,138,138,138,138,138,7,7,7,7,7,7,7,7,7,7,7,7,7,7,7,7,7,7,7,7,7,7,7,7,7,7,7,7,7,7,7,7,7,7,7,7,7,7,7,7,7,7,7,7,7,7,7,7,7,7,7,7,7,7,7,7,7,7,7,7,7,7,7,7,7,7,7,7,7,7,7,7,7,138,138,138,138,138,138,138,138,138,13,13,128,13,147,168,48,138,138,138,138,138,138,138,7,7,7,7,7,7,7,138,138,138,138,138,7,7,7,7,7,7,138,138,138,138,138,138,13,13,13,120,118,125,13,13,13,13,13,13,13,13,138,138,138,138,138,138,138,7,7,7,7,7,7,7,7,7,7,7,138,138,138,138,138,138,138,7,7,7,7,7,7,7,7,7,7,7,7,7,7,7,7,7,7,7,7,7,37,69,67,7,7,7,3,7,7,7,3,7,7,7,3,7,7,7,3,7,7,7,3,7,7,7,3,126,126,126,126,126,126,126,126,126,126,126,126,126,126,126,126,126,126,126,126,126,126,126,126,126,126,126,126,126,126,126,126,126,126,126,126,126,126,126,126,126,126,126,126,126,126,126,126,126,126,126,126,126,126,126,126,126,126,126,126,126,126,126,126,126,126,126,126,126,126,126,126,126,126,126,126,126,126,126,126,126,126,126,126,126,126,126,126,126,126,126,126,126,126,126,126,126,126,126,126,126,126,126,126,126,126,126,126,126,126,126,126,126,126,126,126,126,126,126,126,126,126,126,126,126,126,126,126,126,126,126,126,126,126,126,126,126,126,126,126,126,126,126,126,126,126,126,126,126,126,126,126,126,126,126,126,126,126,126,126,126,126,126,126,126,126,126,126,126,126,126,126,126,126,126,126,126,126,126,126,126,126,126,126,126,126,126,126,126,126,126,126,126,126,126,126,126,126,126,126,126,126,126,126,126,126,126,126,126,126,126,126,126,126,126,126,126,126,126,126,126,126,126,126,126,126,126,126,126,126,126,126,126,126,126,3,7,7,7,3,7,7,7,3,7,7,7,3,7,7,7,69,67,7,69,67,37,48,35,7,7,69,212,7,69,212,7,7,37,48,35,7,69,212,7,69,212,7,69,212,7,69,212,7,37,48,35,7,37,48,35,112,112,112,112,112,112,7,69,80,67,7,37,121,35,7,69,80,67,7,37,121,35,7,69,67,7,7,127,35,7,7,69,67,7,7,37,127,7,7,48,48,48,101,99,69,67,101,99,69,67,48,215,48,215,48,123,101,99,125,48,48,123,101,99,125,48,48,123,101,99,125,48,48,123,101,99,125,48,215,48,69,67,101,99,69,67,48,215,215,48,101,99,69,67,101,99,48,215,48,48,215,48,215,48,48,215,48,48,215,48,69,80,67,48,69,80,67,48,3,7,7,48,69,80,67,48,48,48,48,3,48,48,48,48,78,48,48,48,3,7,48,48,48,69,67,48,3,8,48,48,215,110,48,48,48,48,48,48,48,3,48,48,48,69,80,67,48,48,48,3,48,48,48,48,3,7,7,48,48,48,48,215,110,110,110,48,48,3,48,48,48,48,78,48,48,48,48,3,48,48,48,48,78,48,48,48,48,3,48,48,48,3,7,215,110,110,110,60,60,60,60,3,60,78,60,3,60,60,69,80,67,3,7,7,69,80,67,60,60,60,3,7,60,60,60,60,215,110,110,60,60,60,60,60,3,7,7,110,110,110,60,60,3,7,60,60,60,60,60,60,7,7,7,7,60,60,60,69,80,67,60,60,3,60,60,60,78,60,60,60,60,69,80,80,80,80,80,80,80,80,80,80,80,80,80,80,80,80,80,80,80,80,67,60,60,60,60,110,80,80,80,110,80,80,80,110,80
</data>
 </layer>
 <layer id="2" name="SP" width="1159" height="27">
  <data encoding="csv">
0,0,0,0,0,0,0,0,0,0,0,0,0,0,0,0,0,0,0,0,0,0,0,0,0,0,0,0,0,0,0,0,0,0,0,0,0,0,0,0,0,0,0,0,0,0,0,0,0,0,0,0,0,0,0,0,0,0,0,0,0,0,0,0,0,0,0,0,0,0,0,0,0,0,0,0,0,0,0,0,0,0,0,0,0,0,0,0,0,0,0,0,0,0,0,0,0,0,0,0,0,0,0,0,0,0,0,0,0,0,0,0,0,0,0,0,0,0,0,0,0,0,0,0,0,0,0,0,0,0,0,0,0,0,0,0,0,0,0,0,0,0,0,0,0,0,0,0,0,0,0,0,0,0,0,0,0,0,0,0,0,0,0,0,0,0,0,0,0,0,0,0,0,0,0,0,0,0,0,0,0,0,0,0,0,0,0,0,0,0,0,0,0,0,0,0,0,0,0,0,0,0,0,0,0,0,0,0,0,0,0,0,0,0,0,0,0,0,0,0,0,0,0,0,0,0,0,0,0,0,0,0,0,0,0,0,0,0,0,0,0,0,0,0,0,0,0,0,0,0,0,0,0,0,0,0,0,0,0,0,0,0,0,0,0,0,0,0,0,0,0,0,0,0,0,0,0,0,0,0,0,0,0,0,0,0,0,0,0,0,0,0,0,0,0,0,0,0,0,0,0,0,0,0,0,0,0,0,0,0,0,0,0,0,0,0,0,0,0,0,0,0,0,0,0,0,0,0,0,0,0,0,0,0,0,0,0,0,0,0,0,0,0,0,0,0,0,0,0,0,0,0,0,0,0,0,0,0,0,0,0,0,0,0,0,0,0,0,0,0,0,0,0,0,0,0,0,0,0,0,0,0,0,0,0,0,0,0,0,0,0,0,0,0,0,0,0,0,0,0,0,0,0,0,0,0,0,0,0,0,0,0,0,0,0,0,0,0,0,0,0,0,0,0,0,0,0,0,0,0,0,0,0,0,0,0,0,0,0,0,0,0,0,0,0,0,0,0,0,0,0,0,0,0,0,0,0,0,0,0,0,0,0,0,0,0,0,0,0,0,0,0,0,0,0,0,0,0,0,0,0,0,0,0,0,0,0,0,0,0,0,0,0,0,0,0,0,0,0,0,0,0,0,0,0,0,0,0,0,0,0,0,0,0,0,0,0,0,0,0,0,0,0,0,0,0,0,0,0,0,0,0,0,0,0,0,0,0,0,0,0,0,0,0,0,0,0,0,0,0,0,0,0,0,0,0,0,0,0,0,0,0,0,0,0,0,0,0,0,0,0,0,0,0,0,0,0,0,0,0,0,0,0,0,0,0,0,0,0,0,0,0,0,0,0,0,0,0,0,0,0,0,0,0,0,0,0,0,0,0,0,0,0,0,0,0,0,0,0,0,0,0,0,0,0,0,0,0,0,0,0,0,0,0,0,0,0,0,0,0,0,0,0,0,0,0,0,0,0,0,0,0,0,0,0,0,0,0,0,0,0,0,0,0,0,0,0,0,0,0,0,0,0,0,0,0,0,0,0,0,0,0,0,0,0,0,0,0,0,0,0,0,0,0,0,0,0,0,0,0,0,0,0,0,0,0,0,0,0,0,0,0,0,0,0,0,0,0,0,0,0,0,0,0,0,0,0,0,0,0,0,0,0,0,0,0,0,0,0,0,0,0,0,0,0,0,0,0,0,0,0,0,0,0,0,0,0,0,0,0,0,0,0,0,0,0,0,0,0,0,0,0,0,0,0,0,0,0,0,0,0,0,0,0,0,0,0,0,0,0,0,0,0,0,0,0,0,0,0,0,0,0,0,0,0,0,0,0,0,0,0,0,0,0,0,0,0,0,0,0,0,0,0,0,0,0,0,0,0,0,0,0,0,0,0,0,0,0,0,0,0,0,0,0,0,0,0,0,0,0,0,0,0,0,0,0,0,0,0,0,0,0,0,0,0,0,0,0,0,0,0,0,0,0,0,0,0,0,0,0,0,0,0,0,0,0,0,0,0,0,0,0,0,0,0,0,0,0,0,0,0,0,0,0,0,0,0,0,0,0,0,0,0,0,0,0,0,0,0,0,0,0,0,0,0,0,0,0,0,0,0,0,0,0,0,0,0,0,0,0,0,0,0,0,0,0,0,0,0,0,0,0,0,0,0,0,0,0,0,0,0,0,0,0,0,0,0,0,0,0,0,0,0,0,0,0,0,0,0,0,0,0,0,0,0,0,0,0,0,0,0,0,0,0,0,0,0,0,0,0,0,0,0,0,0,0,0,0,0,0,0,0,0,0,0,0,0,0,0,0,0,0,0,0,0,0,0,0,0,0,0,0,0,0,0,0,0,0,0,0,0,0,0,0,0,0,0,0,0,0,0,0,0,0,0,0,0,0,0,0,0,0,0,0,0,0,0,0,0,0,0,0,0,0,0,0,0,0,0,0,0,0,0,0,0,0,0,0,0,0,0,0,0,0,0,0,0,0,0,0,0,0,0,0,0,0,0,0,0,0,0,0,0,0,0,0,0,0,0,0,0,0,0,0,0,0,0,0,0,0,0,0,0,0,0,0,0,0,0,0,0,0,0,0,0,0,0,0,0,0,0,0,0,0,0,0,0,0,0,
0,0,0,0,0,0,0,0,0,0,0,0,0,0,0,0,0,0,0,0,0,0,0,0,0,0,0,0,0,0,0,0,0,0,0,0,0,0,0,0,0,0,0,0,0,0,0,0,0,0,0,0,0,0,0,0,0,0,0,0,0,0,0,0,0,0,0,0,0,0,0,0,0,0,0,0,0,0,0,0,0,0,0,0,0,0,0,0,0,0,0,0,0,0,0,0,0,0,0,0,0,0,0,0,0,0,0,0,0,0,0,0,0,0,0,0,0,0,0,0,0,0,0,0,0,0,0,0,0,0,0,0,0,0,0,0,0,0,0,0,0,0,0,0,0,0,0,0,0,0,0,0,0,0,0,0,0,0,0,0,0,0,0,0,0,0,0,0,0,0,0,0,0,0,0,0,0,0,0,0,0,0,0,0,0,0,0,0,0,0,0,0,0,0,0,0,0,0,0,0,0,0,0,0,0,0,0,0,0,0,0,0,0,0,0,0,0,0,0,0,0,0,0,0,0,0,0,0,0,0,0,0,0,0,0,0,0,0,0,0,0,0,0,0,0,0,0,0,0,0,0,0,0,0,0,0,0,0,0,0,0,0,0,0,0,0,0,0,0,0,0,0,0,0,0,0,0,0,0,0,0,0,0,0,0,0,0,0,0,0,0,0,0,0,0,0,0,0,0,0,0,0,0,0,0,0,0,0,0,0,0,0,0,0,0,0,0,0,0,0,0,0,0,0,0,0,0,0,0,0,0,0,0,0,0,0,0,0,0,0,0,0,0,0,0,0,0,0,0,0,0,0,0,0,0,0,0,0,0,0,0,0,0,0,0,0,0,0,0,0,0,0,0,0,0,0,0,0,0,0,0,0,0,0,0,0,0,0,0,0,0,0,0,0,0,0,0,0,0,0,0,0,0,0,0,0,0,0,0,0,0,0,0,0,0,0,0,0,0,0,0,0,0,0,0,0,0,0,0,0,0,0,0,0,0,0,0,0,0,0,0,0,0,0,0,0,0,0,0,0,0,0,0,0,0,0,0,0,0,0,0,0,0,0,0,0,0,0,0,0,0,0,0,0,0,0,0,0,0,0,0,0,0,0,0,0,0,0,0,0,0,0,0,0,0,0,0,0,0,0,0,0,0,0,0,0,0,0,0,0,0,0,0,0,0,0,0,0,0,0,0,0,0,0,0,0,0,0,0,0,0,0,0,0,0,0,0,0,0,0,0,0,0,0,0,0,0,0,0,0,0,0,0,0,0,0,0,0,0,0,0,0,0,0,0,0,0,0,0,0,0,0,0,0,0,0,0,0,0,0,0,0,0,0,0,0,0,0,0,0,0,0,0,0,0,0,0,0,0,0,0,0,0,0,0,0,0,0,0,0,0,0,0,0,0,0,0,0,0,0,0,0,0,0,0,0,0,0,0,0,0,0,0,0,0,0,0,0,0,0,0,0,0,0,0,0,0,0,0,0,0,0,0,0,0,0,0,0,0,0,0,0,0,0,0,0,0,0,0,0,0,0,0,0,0,0,0,0,0,0,0,0,0,0,0,0,0,0,0,0,0,0,0,0,0,0,0,0,0,0,0,0,0,0,0,0,0,0,0,0,0,0,0,0,0,0,0,0,0,0,0,0,0,0,0,0,0,0,0,0,0,0,0,0,0,0,0,0,0,0,0,0,0,0,0,0,0,0,0,0,0,0,0,0,0,0,0,0,0,0,0,0,0,0,0,0,0,0,0,0,0,0,0,0,0,0,0,0,0,0,0,0,0,0,0,0,0,0,0,0,0,0,0,0,0,0,0,0,0,0,0,0,0,0,0,0,0,0,0,0,0,0,0,0,0,0,0,0,0,0,0,0,0,0,0,0,0,0,0,0,0,0,0,0,0,0,0,0,0,0,0,0,0,0,0,0,0,0,0,0,0,0,0,0,0,0,0,0,0,0,0,0,0,0,0,0,0,0,0,0,0,0,0,0,0,0,0,0,0,0,0,0,0,0,0,0,0,0,0,0,0,0,0,0,0,0,0,0,0,0,0,0,0,0,0,0,0,0,0,0,0,0,0,0,0,0,0,0,0,0,0,0,0,0,0,0,0,0,0,0,0,0,0,0,0,0,0,0,0,0,0,0,0,0,0,0,0,0,0,0,0,0,0,0,0,0,0,0,0,0,0,0,0,0,0,0,0,0,0,0,0,0,0,0,0,0,0,0,0,0,0,0,0,0,0,0,0,0,0,0,0,0,0,0,0,0,0,0,0,0,0,0,0,0,0,0,0,0,0,0,0,0,0,0,0,0,0,0,0,0,0,0,0,0,0,0,0,0,0,0,0,0,0,0,0,0,0,0,0,0,0,0,0,0,0,0,0,0,0,0,0,0,0,0,0,0,0,0,0,0,0,0,0,0,0,0,0,0,0,0,0,0,0,0,0,0,0,0,0,0,0,0,0,0,0,0,0,0,0,0,0,0,0,0,0,0,0,0,0,0,0,0,0,0,0,0,0,0,0,0,0,0,0,0,0,0,0,0,0,0,0,0,0,0,0,0,0,0,0,0,0,0,0,0,0,0,0,0,0,0,0,0,0,0,0,0,0,0,0,0,0,0,0,0,0,0,0,0,0,
0,0,0,0,0,0,0,0,0,0,0,0,0,0,0,0,0,0,0,0,0,0,0,0,0,0,0,0,0,0,0,0,0,0,0,0,0,0,0,0,0,0,0,0,0,0,0,0,0,0,0,0,0,0,0,0,0,0,0,0,0,0,0,0,0,0,0,0,0,0,0,0,0,0,0,0,0,0,0,0,0,0,0,0,0,0,0,0,0,0,0,0,0,0,0,0,0,0,0,0,0,0,0,0,0,0,0,0,0,0,0,0,0,0,0,0,0,0,0,0,0,0,0,0,0,0,0,0,0,0,0,0,0,0,0,0,0,0,0,0,0,0,0,0,0,0,0,0,0,0,0,0,0,0,0,0,0,0,0,0,0,0,0,0,0,0,0,0,0,0,0,0,0,0,0,0,0,0,0,0,0,0,0,0,0,0,0,0,0,0,0,0,0,0,0,0,0,0,0,0,0,0,0,0,0,0,0,0,0,0,0,0,0,0,0,0,0,0,0,0,0,0,0,0,0,0,0,0,0,0,0,0,0,0,0,0,0,0,0,0,0,0,0,0,0,0,0,0,0,0,0,0,0,0,0,0,0,0,0,0,0,0,0,0,0,0,0,0,0,0,0,0,0,0,0,0,0,0,0,0,0,0,0,0,0,0,0,0,0,0,0,0,0,0,0,0,0,0,0,0,0,0,0,0,0,0,0,0,0,0,0,0,0,0,0,0,0,0,0,0,0,0,0,0,0,0,0,0,0,0,0,0,0,0,0,0,0,0,0,0,0,0,0,0,0,0,0,0,0,0,0,0,0,0,0,0,0,0,0,0,0,0,0,0,0,0,0,0,0,0,0,0,0,0,0,0,0,0,0,0,0,0,0,0,0,0,0,0,0,0,0,0,0,0,0,0,0,0,0,0,0,0,0,0,0,0,0,0,0,0,0,0,0,0,0,0,0,0,0,0,0,0,0,0,0,0,0,0,0,0,0,0,0,0,0,0,0,0,0,0,0,0,0,0,0,0,0,0,0,0,0,0,0,0,0,0,0,0,0,0,0,0,0,0,0,0,0,0,0,0,0,0,0,0,0,0,0,0,0,0,0,0,0,0,0,0,0,0,0,0,0,0,0,0,0,0,0,0,0,0,0,0,0,0,0,0,0,0,0,0,0,0,0,0,0,0,0,0,0,0,0,0,0,0,0,0,0,0,0,0,0,0,0,0,0,0,0,0,0,0,0,0,0,0,0,0,0,0,0,0,0,0,0,0,0,0,0,0,0,0,0,0,0,0,0,0,0,0,0,0,0,0,0,0,0,0,0,0,0,0,0,0,0,0,0,0,0,0,0,0,0,0,0,0,0,0,0,0,0,0,0,0,0,0,0,0,0,0,0,0,0,0,0,0,0,0,0,0,0,0,0,0,0,0,0,0,0,0,0,0,0,0,0,0,0,0,0,0,0,0,0,0,0,0,0,0,0,0,0,0,0,0,0,0,0,0,0,0,0,0,0,0,0,0,0,0,0,0,0,0,0,0,0,0,0,0,0,0,0,0,0,0,0,0,0,0,0,0,0,0,0,0,0,0,0,0,0,0,0,0,0,0,0,0,0,0,0,0,0,0,0,0,0,0,0,0,0,0,0,0,0,0,0,0,0,0,0,0,0,0,0,0,0,0,0,0,0,0,0,0,0,0,0,0,0,0,0,0,0,0,0,0,0,0,0,0,0,0,0,0,0,0,0,0,0,0,0,0,0,0,0,0,0,0,0,0,0,0,0,0,0,0,0,0,0,0,0,0,0,0,0,0,0,0,0,0,0,0,0,0,0,0,0,0,0,0,0,0,0,0,0,0,0,0,0,0,0,0,0,0,0,0,0,0,0,0,0,0,0,0,0,0,0,0,0,0,0,0,0,0,0,0,0,0,0,0,0,0,0,0,0,0,0,0,0,0,0,0,0,0,0,0,0,0,0,0,0,0,0,0,0,0,0,0,0,0,0,0,0,0,0,0,0,0,0,0,0,0,0,0,0,0,0,0,0,0,0,0,0,0,0,0,0,0,0,0,0,0,0,0,0,0,0,0,0,0,0,0,0,0,0,0,0,0,0,0,0,0,0,0,0,0,0,0,0,0,0,0,0,0,0,0,0,0,0,0,0,0,0,0,0,0,0,0,0,0,0,0,0,0,0,0,0,0,0,0,0,0,0,0,0,0,0,0,0,0,0,0,0,0,0,0,0,0,0,0,0,0,0,0,0,0,0,0,0,0,0,0,0,0,0,0,0,0,0,0,0,0,0,0,0,0,0,0,0,0,0,0,0,0,0,0,0,0,0,0,0,0,0,0,0,0,0,0,0,0,0,0,0,0,0,0,0,0,0,0,0,0,0,0,0,0,0,0,0,0,0,0,0,0,0,0,0,0,0,0,0,0,0,0,0,0,0,0,0,0,0,0,0,0,0,0,0,0,0,0,0,0,0,0,0,0,0,0,0,0,0,0,0,0,0,0,0,0,0,0,0,0,0,0,0,0,0,0,0,0,0,0,0,0,0,0,0,0,0,0,0,0,0,0,0,0,0,0,0,0,0,0,0,0,0,0,0,0,0,0,0,0,0,0,0,0,0,0,0,0,0,0,0,
0,0,0,0,0,0,0,0,0,0,0,0,0,0,0,0,0,0,0,0,0,0,0,0,0,0,0,0,0,0,0,0,0,0,0,0,0,0,0,0,0,0,0,0,0,0,0,0,0,0,0,0,0,0,0,0,0,0,0,0,0,0,0,0,0,0,0,0,0,0,0,0,0,0,0,0,0,0,0,0,0,0,0,0,0,0,0,0,0,0,0,0,0,0,0,0,0,0,0,0,0,0,0,0,0,0,0,0,0,0,0,0,0,0,0,0,0,0,0,0,0,0,0,0,0,0,0,0,0,0,0,0,0,0,0,0,0,0,0,0,0,0,0,0,0,0,0,0,0,0,0,0,0,0,0,0,0,0,0,0,0,0,0,0,0,0,0,0,0,0,0,0,0,0,0,0,0,0,0,0,0,0,0,0,0,0,0,0,0,0,0,0,0,0,0,0,0,0,0,0,0,0,0,0,0,0,0,0,0,0,0,0,0,0,0,0,0,0,0,0,0,0,0,0,0,0,0,0,0,0,0,0,0,0,0,0,0,0,0,0,0,0,0,0,0,0,0,0,0,0,0,0,0,0,0,0,0,0,0,0,0,0,0,0,0,0,0,0,0,0,0,0,0,0,0,0,0,0,0,0,0,0,0,0,0,0,0,0,0,0,0,0,0,0,0,0,0,0,0,0,0,0,0,0,0,0,0,0,0,0,0,0,0,0,0,0,0,0,0,0,0,0,0,0,0,0,0,0,0,0,0,0,0,0,0,0,0,0,0,0,0,0,0,0,0,0,0,0,0,0,0,0,0,0,0,0,0,0,0,0,0,0,0,0,0,0,0,0,0,0,0,0,0,0,0,0,0,0,0,0,0,0,0,0,0,0,0,0,0,0,0,0,0,0,0,0,0,0,0,0,0,0,0,0,0,0,0,0,0,0,0,0,0,0,0,0,0,0,0,0,0,0,0,0,0,0,0,0,0,0,0,0,0,0,0,0,0,0,0,0,0,0,0,0,0,0,0,0,0,0,0,0,0,0,0,0,0,0,0,0,0,0,0,0,0,0,0,0,0,0,0,0,0,0,0,0,0,0,0,0,0,0,0,0,0,0,0,0,0,0,0,0,0,0,0,0,0,0,0,0,0,0,0,0,0,0,0,0,0,0,0,0,0,0,0,0,0,0,0,0,0,0,0,0,0,0,0,0,0,0,0,0,0,0,0,0,0,0,0,0,0,0,0,0,0,0,0,0,0,0,0,0,0,0,0,0,0,0,0,0,0,0,0,0,0,0,0,0,0,0,0,0,0,0,0,0,0,0,0,0,0,0,0,0,0,0,0,0,0,0,0,0,0,0,0,0,0,0,0,0,0,0,0,0,0,0,0,0,0,0,0,0,0,0,0,0,0,0,0,0,0,0,0,0,0,0,0,0,0,0,0,0,0,0,0,0,0,0,0,0,0,0,0,0,0,0,0,0,0,0,0,0,0,0,0,0,0,0,0,0,0,0,0,0,0,0,0,0,0,0,0,0,0,0,0,0,0,0,0,0,0,0,0,0,0,0,0,0,0,0,0,0,0,0,0,0,0,0,0,0,0,0,0,0,0,0,0,0,0,0,0,0,0,0,0,0,0,0,0,0,0,0,0,0,0,0,0,0,0,0,0,0,0,0,0,0,0,0,0,0,0,0,0,0,0,0,0,0,0,0,0,0,0,0,0,0,0,0,0,0,0,0,0,0,0,0,0,0,0,0,0,0,0,0,0,0,0,0,0,0,0,0,0,0,0,0,0,0,0,0,0,0,0,0,0,0,0,0,0,0,0,0,0,0,0,0,0,0,0,0,0,0,0,0,0,0,0,0,0,0,0,0,0,0,0,0,0,0,0,0,0,0,0,0,0,0,0,0,0,0,0,0,0,0,0,0,0,0,0,0,0,0,0,0,0,0,0,0,0,0,0,0,0,0,0,0,0,0,0,0,0,0,0,0,0,0,0,0,0,0,0,0,0,0,0,0,0,0,0,0,0,0,0,0,0,0,0,0,0,0,0,0,0,0,0,0,0,0,0,0,0,0,0,0,0,0,0,0,0,0,0,0,0,0,0,0,0,0,0,0,0,0,0,0,0,0,0,0,0,0,0,0,0,0,0,0,0,0,0,0,0,0,0,0,0,0,0,0,0,0,0,0,0,0,0,0,0,0,0,0,0,0,0,0,0,0,0,0,0,0,0,0,0,0,0,0,0,0,0,0,0,0,0,0,0,0,0,0,0,0,0,0,0,0,0,0,0,0,0,0,0,0,0,0,0,0,0,0,0,0,0,0,0,0,0,0,0,0,0,0,0,0,0,0,0,0,0,0,0,0,0,0,0,0,0,0,0,0,0,0,0,0,0,0,0,0,0,0,0,0,0,0,0,0,0,0,0,0,0,0,0,0,0,0,0,0,0,0,0,0,0,0,0,0,0,0,0,0,0,0,0,0,0,0,0,0,0,0,0,0,0,0,0,0,0,0,0,0,0,0,0,0,0,0,0,0,0,0,0,0,0,0,0,0,0,0,0,0,0,0,0,0,0,0,0,0,0,0,0,0,0,0,0,0,0,0,0,0,0,0,0,0,0,0,0,0,0,0,0,
0,0,0,0,0,0,0,0,0,0,0,0,0,0,0,0,0,0,0,0,0,0,0,0,0,0,0,0,0,0,0,0,0,0,0,0,0,0,0,0,0,0,0,0,0,0,0,0,0,0,0,0,0,0,0,0,0,0,0,0,0,0,0,0,0,0,0,0,0,0,0,0,0,0,0,0,0,0,0,0,0,0,0,0,0,0,0,0,0,0,0,0,0,0,0,0,0,0,0,0,0,0,0,0,0,0,0,0,0,0,0,0,0,0,0,0,0,0,0,0,0,0,0,0,0,0,0,0,0,0,0,0,0,0,0,0,0,0,0,0,0,0,0,0,0,0,0,0,0,0,0,0,0,0,0,0,0,0,0,0,0,0,0,0,0,0,0,0,0,0,0,0,0,0,0,0,0,0,0,0,0,0,0,0,0,0,0,0,0,0,0,0,0,0,0,0,0,0,0,0,0,0,0,0,0,0,0,0,0,0,0,0,0,0,0,0,0,0,0,0,0,0,0,0,0,0,0,0,0,0,0,0,0,0,0,0,0,0,0,0,0,0,0,0,0,0,0,0,0,0,0,0,0,0,0,0,0,0,0,0,0,0,0,0,0,0,0,0,0,0,0,0,0,0,0,0,0,0,0,0,0,0,0,0,0,0,0,0,0,0,0,0,0,0,0,0,0,0,0,0,0,0,0,0,0,0,0,0,0,0,0,0,0,0,0,0,0,0,0,0,0,0,0,0,0,0,0,0,0,0,0,0,0,0,0,0,0,0,0,0,0,0,0,0,0,0,0,0,0,0,0,0,0,0,0,0,0,0,0,0,0,0,0,0,0,0,0,0,0,0,0,0,0,0,0,0,0,0,0,0,0,0,0,0,0,0,0,0,0,0,0,0,0,0,0,0,0,0,0,0,0,0,0,0,0,0,0,0,0,0,0,0,0,0,0,0,0,0,0,0,0,0,0,0,0,0,0,0,0,0,0,0,0,0,0,0,0,0,0,0,0,0,0,0,0,0,0,0,0,0,0,0,0,0,0,0,0,0,0,0,0,0,0,0,0,0,0,0,0,0,0,0,0,0,0,0,0,0,0,0,0,0,0,0,0,0,0,0,0,0,0,0,0,0,0,0,0,0,0,0,0,0,0,0,0,0,0,0,0,0,0,0,0,0,0,0,0,0,0,0,0,0,0,0,0,0,0,0,0,0,0,0,0,0,0,0,0,0,0,0,0,0,0,0,0,0,0,0,0,0,0,0,0,0,0,0,0,0,0,0,0,0,0,0,0,0,0,0,0,0,0,0,0,0,0,0,0,0,0,0,0,0,0,0,0,0,0,0,0,0,0,0,0,0,0,0,0,0,0,0,0,0,0,0,0,0,0,0,0,0,0,0,0,0,0,0,0,0,0,0,0,0,0,0,0,0,0,0,0,0,0,0,0,0,0,0,0,0,0,0,0,0,0,0,0,0,0,0,0,0,0,0,0,0,0,0,0,0,0,0,0,0,0,0,0,0,0,0,0,0,0,0,0,0,0,0,0,0,0,0,0,0,0,0,0,0,0,0,0,0,0,0,0,0,0,0,0,0,0,0,0,0,0,0,0,0,0,0,0,0,0,0,0,0,0,0,0,0,0,0,0,0,0,0,0,0,0,0,0,0,0,0,0,0,0,0,0,0,0,0,0,0,0,0,0,0,0,0,0,0,0,0,0,0,0,0,0,0,0,0,0,0,0,0,0,0,0,0,0,0,0,0,0,0,0,0,0,0,0,0,0,0,0,0,0,0,0,0,0,0,0,0,0,0,0,0,0,0,0,0,0,0,0,0,0,0,0,0,0,0,0,0,0,0,0,0,0,0,0,0,0,0,0,0,0,0,0,0,0,0,0,0,0,0,0,0,0,0,0,0,0,0,0,0,0,0,0,0,0,0,0,0,0,0,0,0,0,0,0,0,0,0,0,0,0,0,0,0,0,0,0,0,0,0,0,0,0,0,0,0,0,0,0,0,0,0,0,0,0,0,0,0,0,0,0,0,0,0,0,0,0,0,0,0,0,0,0,0,0,0,0,0,0,0,0,0,0,0,0,0,0,0,0,0,0,0,0,0,0,0,0,0,0,0,0,0,0,0,0,0,0,0,0,0,0,0,0,0,0,0,0,0,0,0,0,0,0,0,0,0,0,0,0,0,0,0,0,0,0,0,0,0,0,0,0,0,0,0,0,0,0,0,0,0,0,0,0,0,0,0,0,0,0,0,0,0,0,0,0,0,0,0,0,0,0,0,0,0,0,0,0,0,0,0,0,0,0,0,0,0,0,0,0,0,0,0,0,0,0,0,0,0,0,0,0,0,0,0,0,0,0,0,0,0,0,0,0,0,0,0,0,0,0,0,0,0,0,0,0,0,0,0,0,0,0,0,0,0,0,0,0,0,0,0,0,0,0,0,0,0,0,0,0,0,0,0,0,0,0,0,0,0,0,0,0,0,0,0,0,0,0,0,0,0,0,0,0,0,0,0,0,0,0,0,0,0,0,0,0,0,0,0,0,0,0,0,0,0,0,0,0,0,0,0,0,0,0,0,0,0,0,0,0,0,0,0,0,0,0,0,0,0,0,0,0,0,0,0,0,
0,0,0,0,0,0,0,0,0,0,0,0,0,0,0,0,0,0,0,0,0,0,0,0,0,0,0,0,0,0,0,0,0,0,0,0,0,0,0,0,0,0,0,0,0,0,0,0,0,0,0,0,0,0,0,0,0,0,0,0,0,0,0,0,0,0,0,0,0,0,0,0,0,0,0,0,0,0,0,0,0,0,0,0,0,0,0,0,0,0,0,0,0,0,0,0,0,0,0,0,0,0,0,0,0,0,0,0,0,0,0,0,0,0,0,0,0,0,0,0,0,0,0,0,0,0,0,0,0,0,0,0,0,0,0,0,0,0,0,0,0,0,0,0,0,0,0,0,0,0,0,0,0,0,0,0,0,0,0,0,0,0,0,0,0,0,0,0,0,0,0,0,0,0,0,0,0,0,0,0,0,0,0,0,0,0,0,0,0,0,0,0,0,0,0,0,0,0,0,0,0,0,0,0,0,0,0,0,0,0,0,0,0,0,0,0,0,0,0,0,0,0,0,0,0,0,0,0,0,0,0,0,0,0,0,0,0,0,0,0,0,0,0,0,0,0,0,0,0,0,0,0,0,0,0,0,0,0,0,0,0,0,0,0,0,0,0,0,0,0,0,0,0,0,0,0,0,0,0,0,0,0,0,0,0,0,0,0,0,0,0,0,0,0,0,0,0,0,0,0,0,0,0,0,0,0,0,0,0,0,0,0,0,0,0,0,0,0,0,0,0,0,0,0,0,0,0,0,0,0,0,0,0,0,0,0,0,0,0,0,0,0,0,0,0,0,0,0,0,0,0,0,0,0,0,0,0,0,0,0,0,0,0,0,0,0,0,0,0,0,0,0,0,0,0,0,0,0,0,0,0,0,0,0,0,0,0,0,0,0,0,0,0,0,0,0,0,0,0,0,0,0,0,0,0,0,0,0,0,0,0,0,0,0,0,0,0,0,0,0,0,0,0,0,0,0,0,0,0,0,0,0,0,0,0,0,0,0,0,0,0,0,0,0,0,0,0,0,0,0,0,0,0,0,0,0,0,0,0,0,0,0,0,0,0,0,0,0,0,0,0,0,0,0,0,0,0,0,0,0,0,0,0,0,0,0,0,0,0,0,0,0,0,0,0,0,0,0,0,0,0,0,0,0,0,0,0,0,0,0,0,0,0,0,0,0,0,0,0,0,0,0,0,0,0,0,0,0,0,0,0,0,0,0,0,0,0,0,0,0,0,0,0,0,0,0,0,0,0,0,0,0,0,0,0,0,0,0,0,0,0,0,0,0,0,0,0,0,0,0,0,0,0,0,0,0,0,0,0,0,0,0,0,0,0,0,0,0,0,0,0,0,0,0,0,0,0,0,0,0,0,0,0,0,0,0,0,0,0,0,0,0,0,0,0,0,0,0,0,0,0,0,0,0,0,0,0,0,0,0,0,0,0,0,0,0,0,0,0,0,0,0,0,0,0,0,0,0,0,0,0,0,0,0,0,0,0,0,0,0,0,0,0,0,0,0,0,0,0,0,0,0,0,0,0,0,0,0,0,0,0,0,0,0,0,0,0,0,0,0,0,0,0,0,0,0,0,0,0,0,0,0,0,0,0,0,0,0,0,0,0,0,0,0,0,0,0,0,0,0,0,0,0,0,0,0,0,0,0,0,0,0,0,0,0,0,0,0,0,0,0,0,0,0,0,0,0,0,0,0,0,0,0,0,0,0,0,0,0,0,0,0,0,0,0,0,0,0,0,0,0,0,0,0,0,0,0,0,0,0,0,0,0,0,0,0,0,0,0,0,0,0,0,0,0,0,0,0,0,0,0,0,0,0,0,0,0,0,0,0,0,0,0,0,0,0,0,0,0,0,0,0,0,0,0,0,0,0,0,0,0,0,0,0,0,0,0,0,0,0,0,0,0,0,0,0,0,0,0,0,0,0,0,0,0,0,0,0,0,0,0,0,0,0,0,0,0,0,0,0,0,0,0,0,0,0,0,0,0,0,0,0,0,0,0,0,0,0,0,0,0,0,0,0,0,0,0,0,0,0,0,0,0,0,0,0,0,0,0,0,0,0,0,0,0,0,0,0,0,0,0,0,0,0,0,0,0,0,0,0,0,0,0,0,0,0,0,0,0,0,0,0,0,0,0,0,0,0,0,0,0,0,0,0,0,0,0,0,0,0,0,0,0,0,0,0,0,0,0,0,0,0,0,0,0,0,0,0,0,0,0,0,0,0,0,0,0,0,0,0,0,0,0,0,0,0,0,0,0,0,0,0,0,0,0,0,0,0,0,0,0,0,0,0,0,0,0,0,0,0,0,0,0,0,0,0,0,0,0,0,0,0,0,0,0,0,0,0,0,0,0,0,0,0,0,0,0,0,0,0,0,0,0,0,0,0,0,0,0,0,0,0,0,0,0,0,0,0,0,0,0,0,0,0,0,0,0,0,0,0,0,0,0,0,0,0,0,0,0,0,0,0,0,0,0,0,0,0,0,0,0,0,0,0,0,0,0,0,0,0,0,0,0,0,0,0,0,0,0,0,0,0,0,0,0,0,0,0,0,0,0,0,0,0,0,0,0,0,0,0,0,0,0,0,0,0,0,0,0,0,0,0,0,0,0,0,0,0,0,
0,0,0,0,0,0,0,0,0,0,0,0,0,0,0,0,0,0,0,0,0,0,0,0,0,0,0,0,0,0,0,0,0,0,0,0,0,0,0,0,0,0,0,0,0,0,0,0,0,0,0,0,0,0,0,0,0,0,0,0,0,0,0,0,0,0,0,0,0,0,0,0,0,0,0,0,0,0,0,0,0,0,0,0,0,0,0,0,0,0,0,0,0,0,0,0,0,0,0,0,0,0,0,0,0,0,0,0,0,0,0,0,0,0,0,0,0,0,0,0,0,0,0,0,0,0,0,0,0,0,0,0,0,0,0,0,0,0,0,0,0,0,0,0,0,0,0,0,0,0,0,0,0,0,0,0,0,0,0,0,0,0,0,0,0,0,0,0,0,0,0,0,0,0,0,0,0,0,0,0,0,0,0,0,0,0,0,0,0,0,0,0,0,0,0,0,0,0,0,0,0,0,0,0,0,0,0,0,0,0,0,0,0,0,0,0,0,0,0,0,0,0,0,0,0,0,0,0,0,0,0,0,0,0,0,0,0,0,0,0,0,0,0,0,0,0,0,0,0,0,0,0,0,0,0,0,0,0,0,0,0,0,0,0,0,0,0,0,0,0,0,0,0,0,0,0,0,0,0,0,0,0,0,0,0,0,0,0,0,0,0,0,0,0,0,0,0,0,0,0,0,0,0,0,0,0,0,0,0,0,0,0,0,0,0,0,0,0,0,0,0,0,0,0,0,0,0,0,0,0,0,0,0,0,0,0,0,0,0,0,0,0,0,0,0,0,0,0,0,0,0,0,0,0,0,0,0,0,0,0,0,0,0,0,0,0,0,0,0,0,0,0,0,0,0,0,0,0,0,0,0,0,0,0,0,0,0,0,0,0,0,0,0,0,0,0,0,0,0,0,0,0,0,0,0,0,0,0,0,0,0,0,0,0,0,0,0,0,0,0,0,0,0,0,0,0,0,0,0,0,0,0,0,0,0,0,0,0,0,0,0,0,0,0,0,0,0,0,0,0,0,0,0,0,0,0,0,0,0,0,0,0,0,0,0,0,0,0,0,0,0,0,0,0,0,0,0,0,0,0,0,0,0,0,0,0,0,0,0,0,0,0,0,0,0,0,0,0,0,0,0,0,0,0,0,0,0,0,0,0,0,0,0,0,0,0,0,0,0,0,0,0,0,0,0,0,0,0,0,0,0,0,0,0,0,0,0,0,0,0,0,0,0,0,0,0,0,0,0,0,0,0,0,0,0,0,0,0,0,0,0,0,0,0,0,0,0,0,0,0,0,0,0,0,0,0,0,0,0,0,0,0,0,0,0,0,0,0,0,0,0,0,0,0,0,0,0,0,0,0,0,0,0,0,0,0,0,0,0,0,0,0,0,0,0,0,0,0,0,0,0,0,0,0,0,0,0,0,0,0,0,0,0,0,0,0,0,0,0,0,0,0,0,0,0,0,0,0,0,0,0,0,0,0,0,0,0,0,0,0,0,0,0,0,0,0,0,0,0,0,0,0,0,0,0,0,0,0,0,0,0,0,0,0,0,0,0,0,0,0,0,0,0,0,0,0,0,0,0,0,0,0,0,0,0,0,0,0,0,0,0,0,0,0,0,0,0,0,0,0,0,0,0,0,0,0,0,0,0,0,0,0,0,0,0,0,0,0,0,0,0,0,0,0,0,0,0,0,0,0,0,0,0,0,0,0,0,0,0,0,0,0,0,0,0,0,0,0,0,0,0,0,0,0,0,0,0,0,0,0,0,0,0,0,0,0,0,0,0,0,0,0,0,0,0,0,0,0,0,0,0,0,0,0,0,0,0,0,0,0,0,0,0,0,0,0,0,0,0,0,0,0,0,0,0,0,0,0,0,0,0,0,0,0,0,0,0,0,0,0,0,0,307,0,0,0,0,0,0,0,0,0,0,0,0,0,0,0,0,0,0,0,0,0,0,0,0,0,0,0,0,0,0,0,0,0,0,0,0,0,0,0,0,0,0,0,0,0,0,0,0,0,0,0,0,0,0,0,0,0,0,0,0,0,0,0,0,0,0,0,0,0,0,0,0,0,0,0,0,0,0,0,0,0,0,0,0,0,0,0,0,0,0,0,0,0,0,0,0,0,0,0,0,0,0,0,0,0,0,0,0,0,0,0,0,0,0,0,0,0,0,0,0,0,0,0,0,0,0,0,0,0,0,0,0,0,0,0,0,0,0,0,0,0,0,0,0,0,0,0,0,0,0,0,0,0,0,0,0,0,0,0,0,0,0,0,0,0,0,0,0,0,0,0,0,0,0,0,0,0,0,0,0,0,0,0,0,0,0,0,0,0,0,0,0,0,0,0,0,0,0,0,0,0,0,0,0,0,0,0,0,0,0,0,0,0,0,0,0,0,0,0,0,0,0,0,0,0,0,0,0,0,0,0,0,0,0,0,0,0,0,0,0,0,0,0,0,0,0,0,0,0,0,0,0,0,0,0,0,0,0,0,0,0,0,0,0,0,0,0,0,0,0,0,0,0,0,0,0,0,0,0,0,0,0,0,0,0,0,0,0,0,0,0,0,0,0,0,0,0,0,0,0,0,0,0,0,0,0,0,0,0,0,0,0,0,0,0,0,
0,0,0,0,0,0,0,0,0,0,0,0,0,0,0,0,0,0,0,0,0,0,0,0,0,0,0,0,0,0,0,0,0,0,0,0,0,0,0,0,0,0,0,0,0,0,0,0,0,0,0,0,0,0,0,0,0,0,0,0,0,0,0,0,0,0,0,0,0,0,0,0,0,0,0,0,0,0,0,0,0,0,0,0,0,0,0,0,0,0,0,0,0,0,0,0,0,0,0,0,0,0,0,0,0,0,0,0,0,0,0,0,0,0,0,0,0,0,0,0,0,0,0,0,0,0,0,0,0,0,0,0,0,0,0,0,0,0,0,0,0,0,0,0,0,0,0,0,0,0,0,0,0,0,0,0,0,0,0,0,0,0,0,0,0,0,0,0,0,0,0,0,0,0,0,0,0,0,0,0,0,0,0,0,0,0,0,0,0,0,0,0,0,0,0,0,0,0,0,0,0,0,0,0,0,0,0,0,0,0,0,0,0,0,0,0,0,0,0,0,0,0,0,0,0,0,0,0,0,0,0,0,0,0,0,0,0,0,0,0,0,0,0,0,0,0,0,0,0,0,0,0,0,0,0,0,0,0,0,0,0,0,0,0,0,0,0,0,0,0,0,0,0,0,0,0,0,0,0,0,0,0,0,0,0,0,0,0,0,0,0,0,0,0,0,0,0,0,0,0,0,0,0,0,0,0,0,0,0,0,0,0,0,0,0,0,0,0,0,0,0,0,0,0,0,0,0,0,0,0,0,0,0,0,0,0,0,0,0,0,0,0,0,0,0,0,0,0,0,0,0,0,0,0,0,0,0,0,0,0,0,0,0,0,0,0,0,0,0,0,0,0,0,0,0,0,0,0,0,0,0,0,0,0,0,0,0,0,0,0,0,0,0,0,0,0,0,0,0,0,0,0,0,0,0,0,0,0,0,0,0,0,0,0,0,0,0,0,0,0,0,0,0,0,0,0,0,0,0,0,0,0,0,0,0,0,0,0,0,0,0,0,0,0,0,0,0,0,0,0,0,0,0,0,0,0,0,0,0,0,0,0,0,0,0,0,0,0,0,0,0,0,0,0,0,0,0,0,0,0,0,0,0,0,0,0,0,0,0,0,0,0,0,0,0,0,0,0,0,0,0,0,0,0,0,0,0,0,0,0,0,0,0,0,0,0,0,0,0,0,0,0,0,0,0,0,0,0,0,0,0,0,0,0,0,0,0,0,0,0,0,0,0,0,0,0,0,0,0,0,0,0,0,0,0,0,0,0,0,0,0,0,0,0,0,0,0,0,0,0,0,0,0,0,0,0,0,0,0,0,0,0,0,0,0,0,0,0,0,0,0,0,0,0,0,0,0,0,0,0,0,0,0,0,0,0,0,0,0,0,0,0,0,0,0,0,0,0,0,0,0,0,0,0,0,0,0,0,0,0,0,0,0,0,0,0,0,0,0,0,0,0,0,0,0,0,0,0,0,0,0,0,0,0,0,0,0,0,0,0,0,0,0,0,0,0,0,0,0,0,0,0,0,0,0,0,0,0,0,0,0,0,0,0,0,0,0,0,0,0,0,0,0,0,0,0,0,0,0,0,0,0,0,0,0,0,0,0,0,0,0,0,0,0,0,0,0,0,0,0,0,0,0,0,0,0,0,0,0,0,0,0,0,0,0,0,0,0,0,0,0,0,0,0,0,0,0,0,0,0,0,0,0,0,0,0,0,0,0,0,0,0,0,0,0,0,0,0,0,0,0,0,0,0,0,0,0,0,0,0,0,0,0,0,0,0,0,0,0,0,0,0,0,0,0,0,0,0,0,0,0,0,0,0,0,0,0,0,0,0,0,0,0,0,0,0,0,0,0,0,0,0,0,0,0,307,0,0,0,0,0,0,0,0,0,0,0,0,0,0,0,0,0,0,0,0,0,0,0,0,0,307,0,0,0,0,0,0,0,0,0,0,0,0,0,0,0,0,0,0,0,0,0,0,0,0,0,0,0,0,0,0,0,0,0,0,0,0,0,0,0,0,0,0,0,0,0,0,0,0,0,0,0,0,0,0,0,0,0,0,0,0,0,0,0,0,0,0,0,0,0,0,0,0,0,0,0,0,0,0,0,0,0,0,0,0,0,0,0,0,0,0,0,0,0,0,0,0,0,0,0,0,0,0,0,0,0,0,0,0,0,0,0,0,0,0,0,0,0,0,0,0,0,0,0,0,0,0,0,0,0,0,0,0,0,0,0,0,0,0,0,0,0,0,0,0,0,0,0,0,0,0,0,0,0,0,0,0,0,0,0,0,0,0,0,0,0,0,0,0,0,0,0,0,0,0,0,0,0,0,0,0,0,0,0,0,0,0,0,0,0,0,0,0,0,0,0,0,0,0,0,0,0,0,0,0,0,0,0,0,0,0,0,0,0,0,0,0,0,0,0,0,0,0,0,0,0,0,0,0,0,0,0,0,0,331,0,0,0,0,0,0,0,0,0,0,0,0,0,0,0,0,331,0,0,0,0,0,0,0,0,0,0,0,0,0,0,0,0,0,0,0,0,0,0,0,0,0,0,0,0,0,0,0,0,0,0,0,0,0,0,0,0,0,0,0,0,0,0,0,0,0,0,0,0,0,0,0,0,
0,0,0,0,0,0,0,0,0,0,0,0,0,0,0,0,0,0,0,0,0,0,0,0,0,0,0,0,0,0,0,0,0,0,0,0,0,0,0,0,0,0,0,0,0,0,0,0,0,0,0,0,0,0,0,0,0,0,0,0,0,0,0,0,0,0,0,0,0,0,0,0,0,0,0,0,0,0,0,0,0,0,0,0,0,0,0,0,0,0,0,0,0,0,0,0,0,0,0,0,0,0,0,0,0,0,0,0,0,0,0,0,0,0,0,0,0,0,0,0,0,0,0,0,0,0,0,0,0,0,0,0,0,0,0,0,0,0,0,0,0,0,0,0,0,0,0,0,0,0,0,0,0,0,0,0,0,0,0,0,0,0,0,0,0,0,0,0,0,0,0,0,0,0,0,0,0,0,0,0,0,0,0,0,0,0,0,0,0,0,0,0,0,0,0,0,0,0,0,0,0,0,0,0,0,0,0,0,0,0,0,0,0,0,0,0,0,0,0,0,0,0,0,0,0,0,0,0,0,0,0,0,0,0,0,0,0,0,0,0,0,0,0,0,0,0,0,0,0,0,0,0,0,0,0,0,0,0,0,0,0,0,0,0,0,0,0,0,0,0,0,0,0,0,0,0,0,0,0,0,0,0,0,0,0,0,0,0,0,0,0,0,0,0,0,0,0,0,0,0,0,0,0,0,0,0,0,0,0,0,0,0,0,0,0,0,0,0,0,0,0,0,0,0,0,0,0,0,0,0,0,0,0,0,0,0,0,0,0,0,0,0,0,0,0,0,0,0,0,0,0,0,0,0,0,0,0,0,0,0,0,0,0,0,0,0,0,0,0,0,0,0,0,0,0,0,0,0,0,0,0,0,0,0,0,0,0,0,0,0,0,0,0,0,0,0,0,0,0,0,0,0,0,0,0,0,0,0,0,0,0,0,0,0,0,0,0,0,0,0,0,0,0,0,0,0,0,0,0,0,0,0,0,0,0,0,0,0,0,0,0,0,0,0,0,0,0,0,0,0,0,0,0,0,0,0,0,0,0,0,0,0,0,0,0,0,0,0,0,0,0,0,0,0,0,0,0,0,0,0,0,0,0,0,0,0,0,0,0,0,0,0,0,0,0,0,0,0,0,0,0,0,0,0,0,0,0,0,0,0,0,0,0,0,0,0,0,0,0,0,0,0,0,0,0,0,0,0,0,0,0,0,0,0,0,0,0,0,0,0,0,0,0,0,0,0,0,0,0,0,0,0,0,0,0,0,0,0,0,0,0,0,0,0,0,0,0,0,0,0,0,0,0,0,0,0,0,0,0,0,0,0,0,0,0,0,0,0,0,0,0,0,0,0,0,0,0,0,0,0,0,0,0,0,0,0,0,0,0,0,0,0,0,0,0,0,0,0,0,0,0,0,0,0,0,0,0,0,0,0,0,0,0,0,0,0,0,0,0,0,0,0,0,0,0,0,0,0,0,0,0,0,0,0,0,0,0,0,0,0,0,0,0,0,0,0,0,0,0,0,0,0,0,0,0,0,0,0,0,0,0,0,0,0,0,0,0,0,0,0,0,0,0,0,0,0,0,0,0,0,0,0,0,0,0,0,0,0,0,0,0,0,0,0,0,0,0,0,0,0,0,0,0,0,0,0,0,0,0,0,0,0,0,0,0,0,0,0,0,0,0,0,0,0,0,0,0,0,0,0,0,0,0,0,0,0,0,0,0,0,0,0,0,0,0,0,0,0,0,0,0,0,0,0,0,0,0,0,0,0,0,0,0,0,0,0,0,0,0,0,0,0,0,0,0,0,0,0,0,0,0,0,0,0,0,0,0,0,0,0,0,0,0,0,0,0,307,0,0,0,0,0,0,0,0,0,0,0,0,0,0,0,0,0,0,0,0,307,0,0,0,0,0,0,0,0,0,0,0,0,0,0,0,0,0,0,0,0,0,0,0,0,0,0,0,0,0,0,0,0,0,0,0,0,0,0,0,0,0,0,0,0,0,0,0,0,0,0,0,0,307,0,0,0,0,0,0,0,0,0,0,0,0,0,0,0,0,0,0,0,0,0,0,0,0,307,0,0,0,0,0,0,0,0,0,0,0,0,0,0,0,0,0,0,0,0,0,0,0,0,0,0,0,0,0,0,0,0,0,0,0,0,0,0,0,0,0,0,0,0,0,0,0,0,0,0,0,0,0,0,0,0,0,0,0,0,0,0,0,0,0,0,0,0,0,0,0,0,0,0,0,0,0,0,0,0,0,0,0,0,0,0,0,0,0,0,0,0,0,0,0,0,0,0,0,0,0,0,0,0,0,0,0,0,0,0,0,0,0,0,0,0,0,0,0,0,0,0,0,0,0,0,0,0,0,0,0,0,0,0,0,0,331,0,0,0,0,0,0,0,0,0,0,0,0,0,0,0,0,0,0,0,0,0,0,331,0,0,0,0,0,0,0,0,0,0,0,0,0,0,0,0,0,0,0,331,0,0,0,0,0,0,0,0,0,0,0,0,0,0,0,0,0,0,0,0,0,331,0,0,0,0,0,0,0,0,0,0,0,0,0,0,0,0,0,0,0,331,0,0,0,0,0,0,0,0,0,0,0,0,0,0,0,0,0,0,0,0,0,
0,0,0,0,0,0,0,0,0,0,0,0,0,0,0,0,0,0,0,0,0,0,0,0,0,0,0,0,0,0,0,0,0,0,0,0,0,0,0,0,0,0,0,0,0,0,0,0,0,0,0,0,0,0,0,0,0,0,0,0,0,0,0,0,0,0,0,0,0,0,0,0,0,0,0,0,0,0,0,0,0,0,0,0,0,0,0,0,0,0,0,0,0,0,0,0,0,0,0,0,0,0,0,0,0,0,0,0,0,0,0,0,0,0,0,0,0,0,0,0,0,0,0,0,0,0,0,0,0,0,0,0,0,0,0,0,0,0,0,0,0,0,0,0,0,0,0,0,0,0,0,0,0,0,0,0,0,0,0,0,0,0,0,0,0,0,0,0,0,0,0,0,0,0,0,0,0,0,0,0,0,0,0,0,0,0,0,0,0,0,0,0,0,0,0,0,0,0,0,0,0,0,0,0,0,0,0,0,0,0,0,0,0,0,0,0,0,0,0,0,0,0,0,0,0,0,0,0,0,0,0,0,0,0,0,0,0,0,0,0,0,0,0,0,0,0,0,0,0,0,0,0,0,0,0,0,0,0,0,0,0,0,0,0,0,0,0,0,0,0,0,0,0,0,0,0,0,0,0,0,0,0,0,0,0,0,0,0,0,0,0,0,0,0,0,0,0,0,0,0,0,0,0,0,0,0,0,0,0,0,0,0,0,0,0,0,0,0,0,0,0,0,0,0,0,0,0,0,0,0,0,0,0,0,0,0,0,0,0,0,0,0,0,0,0,0,0,0,0,0,0,0,0,0,0,0,0,0,0,0,0,0,0,0,0,0,0,0,0,0,0,0,0,0,0,0,0,0,0,0,0,0,0,0,0,0,0,0,0,0,0,0,0,0,0,0,0,0,0,0,0,0,0,0,0,0,0,0,0,0,0,0,0,0,0,0,0,0,0,0,0,0,0,0,0,0,0,0,0,0,0,0,0,0,0,0,0,0,0,0,0,0,0,0,0,0,0,0,0,0,0,0,0,0,0,0,0,0,0,0,0,0,0,0,0,0,0,0,0,0,0,0,0,0,0,0,0,0,0,0,0,0,0,0,0,0,0,0,0,0,0,0,0,0,0,0,0,0,0,0,0,0,0,0,0,0,0,0,0,0,0,0,0,0,0,0,0,0,0,0,0,0,0,0,0,0,0,0,0,0,0,0,0,0,0,0,0,0,0,0,0,0,0,0,0,0,0,0,0,0,0,0,0,0,0,0,0,0,0,0,0,0,0,0,0,0,0,0,0,0,0,0,0,0,0,0,0,0,0,0,0,0,0,0,0,0,0,0,0,0,0,0,0,0,0,0,0,0,0,0,0,0,0,0,0,0,0,0,0,0,0,0,0,0,0,0,0,0,0,0,0,0,0,0,0,0,0,0,0,0,0,0,0,0,0,0,0,0,0,0,0,0,0,0,0,0,0,0,0,0,0,0,0,0,0,0,0,0,0,0,0,0,0,0,0,0,0,0,0,0,0,0,0,0,0,0,0,0,0,0,0,0,0,0,0,0,0,0,0,0,0,0,0,0,0,0,0,0,0,0,0,0,0,0,0,0,0,0,0,0,0,0,0,0,0,0,0,0,0,0,0,0,0,0,0,0,0,0,0,0,0,0,0,0,0,0,0,0,0,0,0,0,0,0,0,0,0,0,0,0,0,0,0,0,0,0,0,0,0,0,0,0,0,0,0,0,0,0,0,0,0,0,0,0,0,0,0,0,0,0,0,0,0,0,0,0,0,0,0,0,0,0,0,0,0,0,0,0,0,0,0,0,0,0,0,0,307,0,0,0,0,0,0,0,0,0,0,0,0,0,0,307,0,0,0,0,0,0,0,0,0,0,307,0,0,0,0,0,0,0,0,0,0,0,0,0,307,0,0,0,0,0,0,0,0,0,0,0,0,0,0,0,0,0,0,0,0,0,0,0,0,0,0,307,0,0,0,0,0,0,0,0,0,0,0,0,0,0,0,0,0,0,0,0,0,0,0,0,0,0,0,0,0,0,0,0,307,0,0,0,0,0,0,0,0,0,0,0,0,0,0,0,0,0,0,0,0,0,0,0,0,0,0,0,307,0,0,0,0,0,0,0,0,0,0,0,0,0,0,0,0,0,0,0,0,0,0,0,0,0,0,0,0,0,0,0,0,0,0,0,0,0,0,0,0,0,0,0,0,0,0,0,0,0,0,0,0,0,0,0,0,0,0,0,0,0,0,0,0,0,0,0,0,0,0,0,0,0,0,0,0,0,0,0,0,0,0,0,0,0,0,0,0,0,0,0,0,0,0,0,0,0,0,0,0,0,0,0,0,0,0,0,0,0,0,0,0,0,0,0,0,0,0,0,0,0,0,0,0,331,0,0,0,0,0,0,0,0,0,0,0,0,0,0,0,0,0,0,0,0,331,0,0,0,0,0,0,0,0,0,0,0,0,0,0,0,0,0,0,0,0,0,0,0,0,0,0,0,0,0,0,0,331,0,0,0,0,0,0,0,0,0,0,0,0,0,0,0,0,0,0,0,331,0,0,0,0,0,0,0,0,0,0,0,0,0,331,0,0,0,0,0,0,0,0,0,0,0,0,
0,0,0,0,0,0,0,0,0,0,0,0,0,0,0,0,0,0,0,0,0,0,0,0,0,0,0,0,0,0,0,0,0,0,0,0,0,0,0,0,0,0,0,0,0,0,0,0,0,0,0,0,0,0,0,0,0,0,0,0,0,0,0,0,0,0,0,0,0,0,0,0,0,0,0,0,0,0,0,0,0,0,0,0,0,0,0,0,0,0,0,0,0,0,0,0,0,0,0,0,0,0,0,0,0,0,0,0,0,0,0,0,0,0,0,0,0,0,0,0,0,0,0,0,0,0,0,0,0,0,0,0,0,0,0,0,0,0,0,0,0,0,0,0,0,0,0,0,0,0,0,0,0,0,0,0,0,0,0,0,0,0,0,0,0,0,0,0,0,0,0,0,0,0,0,0,0,0,0,0,0,0,0,0,0,0,0,0,0,0,0,0,0,0,0,0,0,0,0,0,0,0,0,0,0,0,0,0,0,0,0,0,0,0,0,0,0,0,0,0,0,0,0,0,0,0,0,0,0,0,0,0,0,0,0,0,0,0,0,0,0,0,0,0,0,0,0,0,0,0,0,0,0,0,0,0,0,0,0,0,0,0,0,0,0,0,0,0,0,0,0,0,0,0,0,0,0,0,0,0,0,0,0,0,0,0,0,0,0,0,0,0,0,0,0,0,0,0,0,0,0,0,0,0,0,0,0,0,0,0,0,0,0,0,0,0,0,0,0,0,0,0,0,0,0,0,0,0,0,0,0,0,0,0,0,0,0,0,0,0,0,0,0,0,0,0,0,0,0,0,0,0,0,0,0,0,0,0,0,0,0,0,0,0,0,0,0,0,0,0,0,0,0,0,0,0,0,0,0,0,0,0,0,0,0,0,0,0,0,0,0,0,0,0,0,0,0,0,0,0,0,0,0,0,0,0,0,0,0,0,0,0,0,0,0,0,0,0,0,0,0,0,0,0,0,0,0,0,0,0,0,0,0,0,0,0,0,0,0,0,0,0,0,0,0,0,0,0,0,0,0,0,0,0,0,0,0,0,0,0,0,0,0,0,0,0,0,0,0,0,0,0,0,0,0,0,0,0,0,0,0,0,0,0,0,0,0,0,0,0,0,0,0,0,0,0,0,0,0,0,0,0,0,0,0,0,0,0,0,0,0,0,0,0,0,0,0,0,0,0,0,0,0,0,0,0,0,0,0,0,0,0,0,0,0,0,0,0,0,0,0,0,0,0,0,0,0,0,0,0,0,0,0,0,0,0,0,0,0,0,0,0,0,0,0,0,0,0,0,0,0,0,0,0,0,0,0,0,0,0,0,0,0,0,0,0,0,0,0,0,0,0,0,0,0,0,0,0,0,0,0,0,0,0,0,0,0,0,0,0,0,0,0,0,0,0,0,0,0,0,0,0,0,0,0,0,0,0,0,0,0,0,0,0,0,0,0,0,0,0,0,0,0,0,0,0,0,0,0,0,0,0,0,0,0,0,0,0,0,0,0,0,0,0,0,0,0,0,0,0,0,0,0,0,0,0,0,0,0,0,0,0,0,0,0,0,0,0,0,0,0,0,0,0,0,0,0,0,0,0,0,0,0,0,0,0,0,0,0,0,0,0,0,0,0,0,0,0,0,0,0,0,0,0,0,0,0,0,0,0,0,0,0,0,0,0,0,0,0,0,0,0,0,0,0,0,0,0,0,0,0,0,0,0,0,0,0,0,0,0,0,0,0,0,0,0,0,0,0,0,0,0,0,0,0,0,0,0,0,0,0,0,0,0,0,0,0,0,0,0,0,0,0,0,0,0,0,0,0,0,0,0,0,0,0,0,0,0,0,0,307,0,0,0,0,0,0,0,0,0,0,0,0,0,0,0,0,0,0,0,0,0,0,0,0,0,0,0,0,0,0,0,0,0,0,0,0,0,0,0,0,0,0,0,0,0,0,0,0,0,0,0,0,0,307,0,0,0,0,0,0,0,0,0,0,0,0,0,0,0,0,0,0,0,0,0,0,0,0,0,0,0,0,0,0,0,0,0,0,0,0,0,0,0,0,0,0,0,0,0,0,0,0,0,0,0,0,0,0,0,0,0,0,0,0,0,0,0,0,0,0,0,0,0,0,0,0,0,0,307,0,0,0,0,0,0,0,0,0,0,0,0,0,0,0,0,0,0,0,0,0,0,0,0,0,0,0,0,0,0,0,0,0,0,0,0,0,0,0,0,0,0,0,0,0,0,0,0,0,0,0,0,0,0,0,0,0,0,0,0,0,0,0,0,0,0,0,0,0,0,0,0,0,0,0,0,0,0,0,0,0,0,0,0,0,0,0,0,0,0,0,0,0,0,0,0,0,0,0,0,0,0,0,0,0,0,0,0,0,0,0,0,0,0,0,0,331,0,0,0,0,0,0,0,0,0,0,0,0,0,331,0,0,0,0,0,0,0,0,0,0,0,0,0,0,0,0,0,0,0,0,0,0,0,0,0,0,0,0,331,0,0,0,0,0,0,0,0,0,0,0,0,0,0,0,0,0,0,0,0,0,0,0,0,0,331,0,0,0,0,0,0,0,0,0,0,0,0,0,0,0,331,0,0,0,0,0,0,0,0,0,0,0,0,0,0,0,0,0,
0,0,0,0,0,0,0,0,0,0,0,0,0,0,0,0,0,0,0,0,0,0,0,0,0,0,0,0,0,0,0,0,0,0,0,0,0,0,0,0,0,0,0,0,0,0,0,0,0,0,0,0,0,0,0,0,0,0,0,0,0,0,0,0,0,0,0,0,0,0,0,0,0,0,0,0,0,0,0,0,0,0,0,0,0,0,0,0,0,0,0,0,0,0,0,0,0,0,0,0,0,0,0,0,0,0,0,0,0,0,0,0,0,0,0,0,0,0,0,0,0,0,0,0,0,0,0,0,0,0,0,0,0,0,0,0,0,0,0,0,0,0,0,0,0,0,0,0,0,0,0,0,0,0,0,0,0,0,0,0,0,0,0,0,0,0,0,0,0,0,0,0,0,0,0,0,0,0,0,0,0,0,0,0,0,0,0,0,0,0,0,0,0,0,0,0,0,0,0,0,0,0,0,0,0,0,0,0,0,0,0,0,0,0,0,0,0,0,0,0,0,0,0,0,0,0,0,0,0,0,0,0,0,0,0,0,0,0,0,0,0,0,0,0,0,0,0,0,0,0,0,0,0,0,0,0,0,0,0,0,0,0,0,0,0,0,0,0,0,0,0,0,0,0,0,0,0,0,0,0,0,0,0,0,0,0,0,0,0,0,0,0,0,0,0,0,0,0,0,0,0,0,0,0,0,0,0,0,0,0,0,0,0,0,0,0,0,0,0,0,0,0,0,0,0,0,0,0,0,0,0,0,0,0,0,0,0,0,0,0,0,0,0,0,0,0,0,0,0,0,0,0,0,0,0,0,0,0,0,0,0,0,0,0,0,0,0,0,0,0,0,0,0,0,0,0,0,0,0,0,0,0,0,0,0,0,0,0,0,0,0,0,0,0,0,0,0,0,0,0,0,0,0,0,0,0,0,0,0,0,0,0,0,0,0,0,0,0,0,0,0,0,0,0,0,0,0,0,0,0,0,0,0,0,0,0,0,0,0,0,0,0,0,0,0,0,0,0,0,0,0,0,0,0,0,0,0,0,0,0,0,0,0,0,0,0,0,0,0,0,0,0,0,0,0,0,0,0,0,0,0,0,0,0,0,0,0,0,0,0,0,0,0,0,0,0,0,0,0,0,0,0,0,0,0,0,0,0,0,0,0,0,0,0,0,0,0,0,0,0,0,0,0,0,0,0,0,0,0,0,0,0,0,0,0,441,0,0,0,0,0,442,0,0,0,0,0,443,0,0,0,0,0,442,0,0,0,0,0,441,0,0,0,0,0,440,0,0,0,0,0,441,0,0,0,0,0,442,0,0,0,0,0,443,0,0,0,0,0,442,0,0,0,0,0,441,0,0,0,0,0,440,0,0,0,0,0,441,0,0,0,0,0,442,0,0,0,0,0,443,0,0,0,0,0,442,0,0,0,0,0,441,0,0,0,0,0,440,0,0,0,0,0,441,0,0,0,0,0,0,0,0,0,0,0,0,0,0,0,0,0,0,0,0,0,0,0,0,0,0,0,0,0,0,0,0,0,0,0,0,0,0,0,0,0,0,0,0,0,0,0,0,0,0,0,0,0,0,0,0,0,0,0,0,0,0,0,0,0,0,0,0,0,0,0,0,0,0,0,0,0,0,0,0,0,0,0,0,0,0,0,0,0,0,0,0,0,0,0,0,0,0,0,0,0,0,0,0,0,0,0,0,0,0,0,0,0,0,0,0,0,0,0,0,0,0,0,0,0,0,0,0,0,0,0,0,0,0,0,0,0,0,0,0,0,0,0,0,0,0,0,0,0,0,0,0,0,0,0,307,0,0,0,0,0,0,0,0,0,0,0,0,0,0,0,0,0,0,0,0,0,0,0,0,0,0,0,0,0,0,0,0,0,0,0,0,0,0,0,307,0,0,0,0,0,0,0,0,0,0,0,0,0,0,0,0,0,0,0,0,0,0,0,0,0,0,0,0,0,0,0,0,0,0,0,0,0,0,0,0,0,0,0,0,0,0,0,0,0,0,0,0,0,0,0,0,0,0,0,0,0,0,0,0,0,0,0,0,0,0,0,0,0,0,0,0,0,0,0,0,0,0,0,0,0,0,0,0,0,0,0,0,0,0,0,0,0,0,0,0,0,0,0,0,0,0,0,0,0,0,0,0,0,0,0,0,0,0,0,0,0,0,0,0,0,0,0,0,0,0,0,0,0,0,0,0,0,0,0,0,0,0,0,0,0,0,0,0,0,0,0,0,0,0,0,0,0,0,0,0,0,0,0,0,0,0,0,0,0,0,0,0,0,0,0,0,0,0,0,0,0,0,0,0,0,0,0,0,0,0,0,0,0,0,0,0,0,0,0,0,0,0,0,0,0,0,0,0,0,0,0,0,0,0,0,0,0,0,0,0,0,0,0,0,0,0,0,0,0,0,0,0,0,0,0,0,0,0,0,0,0,0,0,0,0,0,0,0,0,0,0,331,0,0,0,0,0,0,0,0,0,0,0,0,331,0,0,0,0,0,0,0,0,0,0,0,0,0,0,273,0,0,0,0,0,0,0,0,0,331,0,0,0,0,0,0,0,0,0,0,0,0,0,0,0,0,0,0,0,0,0,0,0,0,0,0,0,0,0,
0,0,0,0,0,0,0,0,0,0,0,0,0,0,0,0,0,0,0,0,0,0,0,0,0,0,0,0,0,0,0,0,0,0,0,0,0,0,0,0,0,0,0,0,0,0,0,0,0,0,0,0,0,0,331,0,0,0,0,0,0,0,0,0,0,0,0,0,0,0,0,0,0,0,0,0,0,0,0,0,0,0,0,0,0,0,0,0,0,0,0,0,0,0,0,0,0,0,0,0,0,0,0,0,0,0,0,0,0,0,0,0,0,0,0,0,0,0,0,0,0,0,0,0,0,0,0,0,0,0,0,0,0,0,0,0,0,0,0,0,0,0,0,0,0,0,0,0,0,0,0,0,0,0,0,0,0,0,0,0,0,0,0,0,0,0,0,0,0,0,0,0,0,0,0,0,0,0,0,0,0,0,0,0,0,0,0,0,0,0,0,0,0,0,0,0,0,0,0,0,0,0,0,0,0,0,0,0,0,0,0,0,0,0,0,0,0,0,0,0,0,0,0,0,0,0,0,0,0,0,0,0,0,0,0,0,0,0,0,0,0,0,0,0,0,0,0,0,0,0,0,0,0,0,0,0,0,0,0,0,0,0,0,0,0,0,0,0,0,0,0,0,0,0,0,0,0,0,0,0,0,0,0,0,0,0,0,0,0,0,0,0,0,0,0,0,0,0,0,0,0,0,0,0,0,0,0,0,0,0,0,0,0,0,0,0,0,0,0,0,0,0,0,0,0,0,0,0,0,0,0,0,0,0,0,0,0,0,0,0,0,0,0,0,0,0,0,0,0,0,0,0,0,0,0,0,0,0,0,0,0,0,0,0,0,0,0,0,0,0,0,0,0,0,0,0,0,0,0,0,0,0,0,0,0,0,0,0,0,0,0,0,0,0,0,0,0,0,0,0,0,0,0,0,0,0,0,0,0,0,0,0,0,0,0,0,0,0,0,0,0,0,0,0,0,0,0,0,0,0,0,0,0,0,0,0,0,0,0,0,0,0,0,0,0,0,0,0,0,0,0,0,0,0,0,0,0,0,0,0,0,0,0,0,0,0,0,0,0,0,0,0,0,0,0,0,0,0,0,0,0,0,0,0,0,0,0,0,0,0,0,0,0,0,0,0,0,0,0,0,0,0,0,0,0,0,0,0,0,0,0,0,0,0,0,0,0,0,0,0,0,0,0,0,0,0,0,0,0,0,0,0,0,0,0,409,0,0,0,0,0,410,0,0,0,0,266,411,0,0,0,0,0,410,0,0,0,0,0,409,0,0,330,0,0,408,0,0,0,0,0,409,0,0,0,0,0,410,0,0,0,0,0,411,0,0,0,0,0,410,0,0,0,0,0,409,0,0,0,0,0,408,0,0,0,0,0,409,0,0,0,0,0,410,0,0,0,0,0,411,0,0,0,0,0,410,0,0,0,0,0,409,0,0,0,0,0,408,0,0,0,0,0,409,0,0,0,0,0,474,0,458,0,0,0,0,0,0,0,0,0,0,0,0,0,0,0,0,0,0,0,0,0,0,0,0,0,0,0,0,0,0,0,0,0,0,0,0,0,0,311,0,0,0,0,0,0,0,0,0,0,0,0,0,0,0,0,0,0,0,0,0,0,0,0,0,0,0,0,0,0,0,0,0,0,0,428,0,412,0,0,0,0,0,0,0,0,0,0,0,0,0,0,0,0,0,0,429,0,413,0,0,0,0,0,0,0,0,0,0,0,0,0,0,0,428,0,412,0,0,0,0,0,0,0,0,0,0,0,0,0,0,0,0,429,0,413,0,0,0,0,0,0,0,0,0,0,0,0,0,0,0,0,307,0,0,0,0,0,0,0,0,0,0,0,0,0,0,0,0,0,0,0,0,307,0,0,0,0,0,0,0,0,0,0,0,0,0,0,0,0,0,0,0,0,0,0,0,0,0,0,0,0,0,0,0,0,0,0,0,0,0,0,0,0,0,0,0,0,0,0,0,0,0,0,0,0,0,0,0,0,0,0,0,0,0,0,0,0,0,0,0,0,0,0,0,0,0,0,0,0,0,0,0,0,0,0,0,0,0,0,0,0,0,0,0,0,0,0,0,0,0,0,0,0,0,0,0,0,0,0,0,0,0,0,0,0,0,0,0,0,0,0,0,0,0,0,0,0,0,0,0,0,0,0,0,0,0,0,0,0,0,0,0,0,0,0,0,0,0,0,0,0,0,0,0,0,0,0,0,0,0,0,0,0,0,0,0,0,0,0,0,0,0,0,0,261,0,0,0,0,0,0,0,0,0,0,0,0,0,0,0,0,0,0,0,0,0,0,0,0,0,0,0,0,0,0,0,0,0,0,0,0,0,0,0,0,0,0,0,0,0,0,0,0,0,0,0,0,0,0,0,0,0,0,0,0,0,0,0,0,0,0,0,0,0,0,0,0,0,0,0,0,296,0,0,0,0,0,0,0,0,0,0,331,0,0,0,0,0,0,0,0,0,0,0,0,0,0,0,0,0,0,0,0,0,0,0,0,0,0,0,0,0,0,0,0,0,0,0,0,0,0,0,0,0,0,0,0,0,0,0,0,0,0,0,0,0,0,0,0,0,0,0,0,0,0,0,0,0,0,0,0,0,0,0,0,0,0,
0,0,0,0,0,0,0,0,0,0,0,0,0,0,0,0,0,0,0,0,0,0,0,0,0,0,0,0,0,0,0,0,0,0,0,0,0,0,0,0,331,0,0,0,0,0,0,0,0,0,0,0,0,0,0,0,0,0,0,0,0,0,0,0,0,0,0,0,0,0,0,0,0,0,0,0,0,0,0,0,0,0,0,0,0,0,0,0,0,0,0,0,0,0,0,0,0,0,0,0,0,0,0,0,0,0,0,0,0,0,0,0,0,331,0,0,0,0,0,0,0,0,0,0,0,0,0,0,0,0,0,0,0,0,0,0,0,0,0,0,0,0,0,0,0,0,0,0,0,0,0,0,0,0,0,0,0,0,0,0,0,0,0,0,0,0,0,0,0,0,0,0,0,0,0,0,0,0,0,0,0,0,0,0,0,0,0,0,0,0,0,0,0,0,0,0,0,0,0,0,0,0,0,0,0,0,0,0,0,0,0,0,0,0,0,0,0,0,0,0,0,0,0,0,0,0,0,0,0,0,0,0,0,0,0,0,0,0,0,0,0,0,0,0,0,0,0,0,0,0,0,0,0,0,0,0,0,0,0,0,0,0,0,0,0,0,0,0,0,0,0,0,0,0,0,0,0,0,0,0,0,0,0,0,0,0,0,0,0,0,0,0,0,0,0,0,0,0,0,0,0,0,0,0,0,0,0,0,0,0,0,0,0,0,0,0,0,0,0,0,0,0,0,0,0,0,0,0,0,0,0,0,0,0,0,0,0,0,0,0,0,0,0,0,0,0,0,0,0,0,0,0,0,0,0,0,0,0,0,0,0,0,0,0,0,0,0,0,0,0,0,0,0,0,0,0,0,0,0,0,0,0,0,0,0,0,0,0,0,0,0,0,0,0,0,0,0,0,0,0,0,0,0,0,0,0,0,0,0,0,0,0,0,0,0,0,0,0,0,0,0,0,0,0,0,0,0,0,0,0,0,0,0,0,0,0,0,0,0,0,0,0,0,0,0,0,0,0,0,0,0,0,0,0,0,0,0,0,0,0,0,0,0,0,0,0,0,0,0,0,0,0,0,0,0,0,0,0,0,0,0,0,0,0,0,0,0,0,0,0,0,0,0,0,0,0,0,0,0,0,0,0,0,0,0,0,0,0,0,0,0,0,0,0,0,0,0,0,0,0,0,0,0,0,0,0,0,0,0,488,0,472,0,456,0,457,0,0,0,0,0,458,0,0,0,0,0,459,0,0,0,0,0,458,0,0,0,0,0,457,0,0,0,0,0,456,0,0,0,0,0,457,0,0,0,0,0,330,0,0,0,0,0,459,0,0,0,0,0,458,0,0,0,0,0,457,0,0,0,0,0,456,0,0,0,0,0,457,0,0,0,0,0,458,0,0,0,0,0,459,0,0,0,0,0,458,0,283,0,0,0,457,0,0,0,0,0,456,0,0,0,0,0,457,0,0,0,311,0,426,0,410,0,0,0,0,0,0,0,0,0,0,0,0,0,0,0,0,0,0,0,0,0,0,0,0,0,0,0,0,0,0,0,0,0,0,0,0,0,0,0,0,0,0,0,0,0,0,0,0,0,0,0,0,0,0,0,0,0,0,311,0,0,0,0,0,0,0,0,0,0,0,0,0,0,0,476,0,460,0,0,0,0,0,0,0,0,0,0,0,0,311,0,0,0,0,0,477,0,461,0,0,0,0,0,0,0,0,0,0,0,0,0,0,0,476,0,460,0,0,0,0,0,0,0,0,0,0,0,0,0,0,0,0,477,0,461,0,0,0,0,0,0,0,0,0,0,0,0,0,0,0,0,0,0,0,0,0,0,0,0,0,0,0,0,0,0,0,0,0,0,0,0,0,0,0,0,0,0,0,0,0,0,0,0,0,0,0,0,0,0,0,0,0,0,0,0,0,0,0,0,0,0,0,0,0,0,0,0,0,0,0,0,0,0,0,0,0,0,0,0,0,0,0,0,0,307,0,0,0,0,0,0,0,0,0,0,0,0,0,0,0,307,0,0,0,0,0,0,0,0,0,0,0,307,0,0,0,0,0,0,0,0,0,0,0,0,0,0,0,0,0,0,0,0,0,0,0,0,0,0,0,0,0,0,0,0,0,0,0,0,0,0,0,0,0,0,0,0,0,0,0,0,0,0,0,0,0,0,0,0,0,0,0,0,0,0,0,0,0,0,0,0,0,0,0,0,0,0,0,0,0,0,0,0,0,0,0,273,0,0,0,0,0,0,0,0,0,0,0,0,0,0,0,0,0,0,0,0,0,0,0,0,0,0,0,0,0,0,0,0,0,0,0,0,0,0,0,0,0,0,0,0,0,0,0,0,0,0,0,0,0,0,0,0,0,0,0,331,0,0,0,0,0,0,0,0,0,0,0,0,0,0,0,0,0,0,0,0,0,0,0,0,0,0,0,0,268,0,0,0,0,0,0,0,0,0,0,0,0,0,0,0,0,0,0,0,0,0,0,0,0,0,0,0,0,0,0,0,0,0,0,0,0,0,0,0,0,0,0,0,0,0,0,0,365,0,0,0,0,0,284,0,0,0,0,0,0,0,0,0,0,0,0,0,0,0,0,0,0,0,0,0,0,0,0,0,0,0,
0,0,0,0,0,0,0,0,0,0,0,0,0,0,0,0,0,0,0,0,331,0,0,0,0,0,0,0,0,0,0,0,0,0,0,0,0,0,0,0,0,0,0,0,0,0,0,0,0,0,0,0,0,0,0,0,0,0,0,0,0,0,0,0,331,0,0,0,0,0,0,0,0,0,0,0,0,0,0,0,0,0,0,0,0,0,331,0,0,0,0,0,0,0,0,0,0,0,0,0,0,331,0,0,0,0,0,0,0,0,0,0,0,0,0,0,0,0,0,0,0,0,0,0,0,0,0,0,0,0,0,0,0,0,0,0,0,0,0,0,0,0,0,0,0,0,0,0,0,0,0,0,0,0,0,0,0,0,0,0,0,0,0,0,0,0,0,0,0,0,0,0,0,0,0,0,0,0,0,0,0,0,0,0,0,0,0,0,0,0,0,0,0,0,0,0,0,0,0,0,0,0,0,0,0,0,0,0,0,0,0,0,0,0,0,0,0,0,0,0,0,0,0,0,0,0,0,0,0,0,0,0,0,0,0,0,0,0,0,0,0,0,0,0,0,0,0,0,0,0,0,0,0,0,0,0,0,0,0,0,0,0,0,0,0,0,0,0,0,0,0,0,0,0,0,0,0,0,0,0,0,0,0,0,0,0,0,0,0,0,0,0,0,0,0,0,0,0,0,0,0,0,0,0,0,0,0,0,0,0,0,0,0,0,0,0,0,0,0,0,0,0,0,0,0,0,0,0,0,0,0,0,0,0,0,0,0,0,0,0,0,0,0,0,0,0,0,0,0,0,0,0,0,0,0,0,0,0,0,0,0,0,0,0,0,0,0,0,0,0,0,0,0,0,0,0,0,0,0,0,0,0,0,0,0,0,0,0,0,0,0,0,0,0,0,0,0,0,0,0,0,0,0,0,0,257,0,0,0,0,0,0,0,0,0,0,0,0,0,0,0,0,0,0,0,0,0,0,0,0,0,0,0,0,0,0,0,0,0,0,0,0,0,0,0,0,0,0,0,0,0,0,0,0,0,0,0,0,0,0,0,0,0,0,0,0,0,0,0,0,0,0,0,0,0,0,0,0,0,0,0,0,0,0,0,0,0,0,0,0,0,0,0,0,0,0,0,0,0,0,0,0,0,0,0,0,0,0,0,0,0,0,0,0,0,0,0,0,0,0,0,0,0,0,0,0,0,0,0,0,0,440,0,0,0,308,0,0,0,0,0,0,0,0,308,0,0,0,0,0,0,0,0,0,0,0,0,0,0,0,0,0,266,0,0,0,0,0,0,0,0,0,0,0,0,0,0,458,0,0,0,0,0,0,0,0,0,0,0,0,0,0,0,0,0,0,0,0,0,0,0,0,0,0,0,0,0,0,0,0,0,0,0,0,0,0,0,0,0,308,0,0,0,0,0,0,0,0,0,0,0,0,0,0,0,0,0,0,0,330,0,0,0,0,0,0,0,0,0,433,0,0,0,0,0,0,0,0,0,0,0,0,0,0,0,0,0,0,0,427,0,411,0,0,311,0,0,0,0,0,0,0,0,0,0,0,0,0,0,428,0,412,0,0,0,0,0,0,0,0,0,0,0,0,0,0,0,427,0,411,0,0,0,0,0,0,0,0,0,311,0,0,0,0,0,0,0,0,0,0,0,0,0,0,0,0,0,0,0,0,0,0,0,0,0,0,0,0,0,0,0,0,0,0,266,0,0,0,0,0,0,0,0,0,0,0,0,0,0,0,0,0,0,0,0,0,0,311,0,0,0,0,0,0,0,0,0,0,0,0,0,0,0,0,0,307,0,0,0,0,0,0,0,0,0,0,0,0,0,0,0,0,0,0,0,0,0,0,0,0,0,0,0,0,0,0,0,0,0,0,0,0,0,0,0,0,0,0,0,0,0,0,0,0,0,0,0,0,0,0,0,0,0,0,0,0,0,0,0,0,0,0,0,0,0,307,0,0,0,0,0,0,0,0,0,0,0,0,0,0,0,0,0,0,0,0,0,0,0,0,0,0,0,0,0,0,0,0,0,0,0,0,0,0,0,0,0,0,0,0,0,0,0,0,0,0,0,0,0,0,0,0,0,307,0,0,0,0,0,0,0,0,0,0,0,0,0,0,0,0,0,0,0,0,0,0,0,0,0,0,0,0,0,0,0,0,0,0,0,0,0,0,0,0,0,0,0,0,0,0,0,0,0,0,0,0,0,0,0,0,0,0,0,0,0,0,0,0,0,0,0,0,0,0,0,0,0,0,0,0,0,0,0,0,0,0,0,0,0,0,0,0,0,0,0,0,0,0,0,0,0,0,0,0,424,0,0,0,0,0,0,0,0,0,0,0,0,0,0,0,0,0,0,265,0,0,0,0,0,0,0,0,0,0,0,0,418,0,0,0,0,0,0,0,420,0,0,0,0,421,0,0,0,0,422,0,0,0,0,0,0,296,0,0,0,0,0,0,0,0,342,0,0,0,0,0,0,0,0,0,0,0,0,0,0,0,0,0,0,0,0,0,0,0,0,0,0,0,0,0,0,0,0,0,0,0,0,0,0,0,0,0,0,0,0,0,0,0,0,0,0,0,0,0,0,0,0,0,0,0,0,0,0,0,0,0,0,0,0,
0,0,0,0,0,0,0,0,0,0,0,0,0,0,0,0,0,0,0,0,0,0,0,0,0,0,0,0,0,0,0,0,0,0,0,0,0,0,0,0,0,0,0,0,0,302,0,0,0,0,0,0,0,0,0,0,0,0,0,331,0,0,0,0,0,0,0,0,0,0,0,0,0,0,0,0,0,0,0,0,0,0,0,0,0,0,0,0,0,0,0,0,0,0,0,0,0,0,0,0,0,0,0,0,0,0,0,0,0,0,0,0,0,0,0,0,0,0,0,0,331,0,0,0,0,0,0,0,0,0,0,0,0,0,0,0,0,0,0,0,0,0,0,0,0,0,0,0,0,0,0,0,0,0,0,0,0,0,0,0,0,0,0,0,0,0,0,0,0,0,0,0,0,0,0,0,0,0,0,0,0,0,0,0,0,0,0,0,0,0,0,0,0,0,0,0,0,0,0,0,0,0,0,0,0,0,0,0,0,0,0,0,0,0,0,0,0,0,0,0,0,0,0,0,0,0,0,0,0,0,0,0,0,0,0,0,0,0,0,0,0,0,0,0,0,0,0,0,0,0,0,0,0,0,0,0,0,0,0,0,0,0,0,0,0,0,0,0,0,0,0,0,0,0,0,0,0,0,0,0,0,0,0,0,0,0,0,0,0,0,0,0,0,0,0,0,0,0,0,0,0,0,0,0,0,0,0,0,0,0,0,0,0,0,0,0,0,0,0,0,0,0,0,0,0,0,0,0,0,0,0,0,0,0,0,0,0,0,0,0,0,0,0,0,0,0,0,0,0,0,0,0,0,0,0,0,0,0,0,0,0,0,0,0,0,0,0,0,0,0,0,0,0,0,0,0,0,0,0,0,0,0,0,0,0,0,0,0,448,0,446,0,433,0,0,0,0,0,0,0,0,448,0,446,0,433,0,0,0,0,0,0,0,448,0,446,0,433,0,0,0,0,0,0,0,0,0,0,0,0,0,0,0,0,0,0,0,0,0,0,0,0,0,0,0,0,0,0,0,0,0,0,0,0,0,0,0,0,0,0,0,0,0,0,0,0,0,0,0,0,0,0,0,0,0,0,0,0,0,0,0,0,0,0,0,0,0,0,0,0,0,0,0,0,0,0,0,0,0,0,0,0,0,0,0,0,0,0,0,0,0,0,0,0,0,506,258,0,0,0,0,482,0,481,0,0,0,424,0,408,0,392,0,0,0,0,0,308,0,0,0,0,308,0,0,0,0,0,0,308,0,0,0,0,330,0,0,0,0,0,0,0,0,0,0,0,0,0,0,0,0,0,0,0,0,0,0,332,0,0,0,0,0,0,0,0,0,308,0,0,0,0,0,0,0,0,308,0,0,0,0,0,0,0,0,0,0,0,0,0,0,0,0,0,0,0,0,0,0,0,0,0,0,0,0,0,0,0,0,0,0,0,0,0,0,0,0,0,0,259,265,0,0,0,0,0,0,0,0,500,0,0,311,0,0,0,0,0,0,0,0,0,311,0,0,0,0,0,0,475,0,459,0,0,0,0,0,0,0,0,0,0,0,0,0,0,0,0,0,476,0,460,0,0,311,0,0,0,0,0,0,0,0,0,0,0,0,475,0,459,0,0,0,0,0,0,260,0,0,0,0,0,0,0,0,0,0,0,0,0,311,0,0,0,0,0,0,0,0,0,0,0,0,0,0,0,0,0,0,0,0,0,0,0,0,0,0,0,0,0,0,0,0,0,0,0,0,0,0,0,0,0,0,0,0,0,0,0,0,0,0,0,0,0,0,0,0,0,0,0,0,0,0,0,0,0,0,0,0,0,0,0,0,0,0,0,0,0,0,0,0,0,0,0,0,0,0,0,0,0,0,0,0,0,0,0,0,0,302,0,0,300,0,0,0,0,0,0,0,0,0,0,0,0,0,0,0,0,0,0,0,0,0,0,0,0,0,0,0,0,0,0,0,0,0,0,0,0,0,0,0,0,0,0,0,0,0,0,0,0,0,0,0,0,0,0,0,0,307,0,0,0,0,0,0,0,0,0,0,0,0,0,0,0,0,0,0,0,0,0,0,0,0,0,307,0,0,0,0,0,0,0,0,0,0,0,0,281,0,0,0,0,0,0,0,0,307,0,0,0,282,0,0,0,0,0,0,291,0,0,0,0,0,0,0,0,0,0,0,268,0,0,0,0,0,0,0,0,0,0,0,0,0,0,0,0,0,0,0,0,0,0,0,0,0,0,0,0,0,0,0,0,0,0,0,0,0,0,0,0,0,0,0,0,0,0,0,0,0,0,0,0,0,0,0,0,0,0,0,423,0,0,0,0,292,0,0,0,0,425,0,0,0,0,426,0,0,0,0,427,0,0,0,506,257,0,0,0,0,429,0,0,0,0,417,0,263,0,0,419,0,299,0,0,0,0,0,0,267,0,0,0,0,0,0,0,0,0,0,423,0,0,0,0,0,0,0,0,0,0,0,0,0,0,0,0,0,0,0,0,0,0,0,0,428,0,0,0,0,0,301,0,0,0,0,276,0,0,0,0,0,0,0,0,0,0,0,0,0,0,0,0,0,0,0,0,0,0,0,0,0,0,0,0,0,0,0,0,0,0,448,0,0,0,0,0,0,0,0,
0,0,0,0,0,0,0,0,0,0,0,0,0,0,0,0,0,0,0,0,0,0,0,0,0,0,0,0,0,0,0,0,331,0,0,0,0,0,0,0,0,0,0,0,0,0,0,0,0,331,0,0,0,0,0,0,0,0,0,0,0,0,0,0,0,0,0,0,0,0,0,0,0,0,0,0,0,0,0,0,0,0,331,0,0,0,0,0,0,0,0,0,0,0,0,0,0,301,0,0,0,0,0,0,0,0,331,0,0,0,0,0,0,0,0,0,0,0,0,0,0,0,0,0,0,0,0,0,0,0,0,0,0,0,0,0,0,0,331,0,0,0,0,0,0,0,0,0,0,0,0,0,0,0,0,0,0,0,0,331,0,0,0,0,0,0,0,0,0,0,0,0,0,0,0,0,0,0,0,0,0,0,0,0,0,0,0,0,0,0,0,0,0,0,0,0,0,0,0,0,0,0,0,0,0,0,0,0,0,0,0,0,0,0,0,0,0,0,0,0,0,0,0,0,0,0,0,0,0,0,0,0,0,0,0,0,0,0,0,0,0,0,0,0,0,0,0,0,0,0,0,0,0,0,0,0,0,0,0,0,0,0,0,0,0,0,0,0,0,0,0,0,0,0,0,0,0,0,0,0,0,0,0,0,0,0,0,0,0,0,0,0,0,0,0,0,0,0,0,0,0,0,0,0,0,0,0,0,0,0,0,0,0,0,0,0,0,0,0,0,0,0,0,271,271,0,0,0,0,0,0,0,0,0,0,0,466,0,0,0,386,0,0,0,0,0,0,0,0,0,0,0,0,0,0,0,0,0,0,0,0,0,0,0,0,0,448,0,446,0,433,0,0,0,0,0,0,448,0,446,0,433,0,0,0,0,0,0,418,0,402,0,386,0,0,0,0,0,0,0,0,418,0,402,0,386,0,0,0,0,0,0,0,418,0,402,0,386,0,0,0,0,0,0,0,0,448,0,446,0,433,0,0,0,0,0,0,0,0,0,0,0,0,0,0,0,0,0,0,0,0,0,0,0,0,0,0,0,0,0,0,0,0,0,0,0,0,0,0,0,0,0,0,0,0,0,0,0,0,0,0,0,0,0,0,0,0,0,0,0,0,0,0,0,0,0,0,0,0,0,0,0,0,0,0,326,0,0,0,0,0,278,0,0,0,506,277,0,0,308,0,402,0,418,0,417,0,0,0,308,0,0,0,0,0,0,0,0,0,0,0,0,0,0,0,0,330,0,0,0,0,308,0,0,0,0,0,0,0,308,0,0,0,0,0,308,0,0,0,330,0,0,0,0,0,0,0,0,0,0,0,0,0,0,0,0,0,0,0,0,0,0,0,0,0,0,0,0,0,0,0,0,0,0,0,0,0,0,0,0,0,0,0,0,0,0,0,0,308,0,0,0,0,0,0,0,0,0,0,0,0,308,0,0,0,0,0,0,0,278,0,0,311,0,0,0,0,0,0,0,0,0,0,0,0,0,0,0,0,0,317,0,0,0,0,0,0,0,269,0,0,0,0,262,0,0,0,262,0,0,0,0,0,0,0,0,0,0,317,0,0,0,0,0,0,0,0,0,0,0,0,0,0,0,0,0,0,0,0,0,0,0,0,0,0,0,0,0,0,0,0,0,0,0,0,0,0,0,0,0,0,0,0,0,0,311,0,0,0,0,0,0,0,0,0,0,0,0,0,0,0,311,0,0,0,0,0,0,0,0,0,0,0,0,0,0,0,0,0,0,0,0,0,265,0,0,0,0,0,0,0,0,0,0,0,0,0,0,0,0,0,0,0,0,0,0,0,0,0,0,0,0,0,0,0,0,0,0,0,0,0,0,0,0,0,0,0,0,0,0,0,0,0,0,0,0,0,0,0,0,0,0,0,0,0,0,0,0,0,0,300,0,0,0,300,0,0,0,300,0,0,0,300,0,0,404,0,0,0,0,403,0,0,0,0,402,0,0,0,0,293,0,0,0,0,404,0,0,0,0,495,0,0,0,0,0,0,0,0,0,0,0,0,0,0,0,0,0,0,0,307,0,0,0,0,0,0,0,307,0,0,0,0,0,0,0,0,0,0,0,0,0,0,0,0,0,0,0,0,0,0,307,0,0,0,0,0,0,0,0,279,0,0,0,0,0,0,257,0,0,496,0,0,0,0,0,0,417,0,423,0,0,0,0,424,0,0,0,0,425,0,0,0,0,426,0,0,0,0,427,0,0,0,0,428,0,0,0,0,429,0,0,0,0,418,0,0,0,0,419,268,0,0,0,420,0,0,0,0,421,0,0,0,0,422,0,0,0,0,268,0,0,0,0,296,0,0,0,0,268,0,0,0,0,326,0,0,0,0,0,0,0,0,506,428,0,0,0,0,0,0,0,0,0,263,0,0,0,0,0,0,0,0,0,0,0,0,0,0,0,0,0,0,0,0,0,0,0,0,0,0,0,0,0,424,0,0,300,0,425,0,0,0,0,426,0,0,0,268,427,0,0,0,0,300,0,0,0,0,429,0,0,0,0,418,0,0,0,0,419,0,0,0,0,420,0,0,0,0,421,0,0,0,0,422,0,0,0,0,423,0,0,0,0,424,0,0,0,0,0,417,0,401,0,385,0,400,0,272,
0,0,0,0,0,0,262,0,0,0,0,0,0,0,0,331,0,0,0,0,0,302,0,0,0,0,0,0,0,0,0,0,0,0,0,0,0,0,0,0,0,0,0,0,0,0,0,0,0,0,0,0,0,0,0,0,0,0,0,0,0,0,0,0,0,0,0,0,0,0,0,0,0,0,0,331,0,0,0,0,0,0,0,0,0,0,0,0,0,0,0,0,0,0,0,0,0,0,0,0,0,0,0,0,0,0,0,0,0,0,0,0,0,0,0,331,0,0,0,0,0,0,0,0,0,0,0,0,0,0,0,0,0,331,0,0,0,0,0,0,0,0,0,0,0,0,0,0,0,0,0,331,0,0,0,0,0,0,0,0,0,0,0,0,0,0,0,0,0,0,0,0,0,0,0,0,0,0,0,0,0,0,0,0,0,0,0,0,0,0,0,0,0,0,0,0,0,0,0,0,0,0,0,0,0,0,0,0,0,0,0,0,0,0,0,0,0,0,0,0,0,0,0,0,0,0,0,0,0,0,0,0,0,0,0,0,0,0,0,0,0,0,0,0,0,0,0,0,0,0,0,0,0,0,0,0,0,0,0,0,0,0,0,0,0,0,0,0,0,0,0,0,0,0,0,0,0,0,0,0,0,0,0,0,0,0,0,0,0,0,0,0,0,0,0,0,0,0,0,0,0,0,0,0,0,0,0,0,0,0,0,0,0,0,0,0,0,0,0,0,0,0,0,0,0,0,345,0,0,0,400,0,397,0,413,0,418,0,402,0,302,0,0,0,0,0,0,0,0,0,0,0,0,0,0,0,302,0,0,0,267,0,0,0,0,0,418,0,402,0,386,0,0,0,0,0,0,418,0,402,0,386,0,302,0,0,301,0,0,0,0,0,300,0,0,0,0,0,0,302,0,0,300,0,0,0,0,339,339,0,0,0,0,0,0,0,0,0,0,0,0,0,0,0,0,0,418,0,402,0,386,0,0,0,0,0,0,0,0,0,0,0,0,0,0,0,0,0,0,0,0,0,0,0,0,0,0,0,0,0,0,0,0,0,0,0,0,0,0,0,0,0,0,0,0,0,0,0,0,0,0,0,0,0,0,0,0,0,0,0,0,0,0,0,0,0,448,0,446,0,433,0,0,0,0,0,0,0,0,448,0,446,0,433,0,506,0,0,0,0,0,308,0,0,0,0,0,308,0,0,0,0,0,0,0,0,0,0,0,0,0,0,0,0,0,0,0,0,0,0,0,0,0,0,265,0,0,308,0,0,0,0,0,0,0,0,308,0,0,0,0,0,0,0,308,0,0,0,0,0,0,0,0,0,0,0,308,0,0,0,0,0,0,0,0,0,0,308,0,0,0,0,0,0,308,0,0,0,0,0,0,0,308,0,0,0,0,0,0,0,0,0,0,0,308,0,0,0,0,0,0,0,0,0,0,0,0,0,0,0,0,0,0,0,0,0,0,0,268,0,0,0,0,0,0,0,0,0,0,0,0,0,0,0,0,0,0,0,0,0,311,0,0,0,0,0,0,0,0,281,0,0,0,0,0,0,0,0,0,0,0,0,0,296,0,0,0,317,0,0,0,0,0,0,0,317,0,0,0,282,0,0,0,0,311,0,0,0,0,0,0,0,0,311,0,0,0,0,0,0,0,0,0,0,0,0,0,0,0,0,0,0,0,0,0,0,0,0,0,0,0,0,0,0,0,0,0,0,0,0,0,0,0,0,311,0,0,0,0,0,0,0,0,0,0,0,0,0,0,0,0,0,0,0,0,0,0,0,0,0,0,0,0,0,0,0,0,0,0,0,0,0,0,0,0,0,0,0,0,0,0,0,0,0,0,0,0,0,0,0,0,302,0,0,0,0,0,0,0,0,0,0,0,0,0,404,0,0,0,0,403,0,0,0,0,402,0,0,0,0,403,0,0,0,0,0,0,0,0,0,0,0,0,0,0,0,0,0,0,0,403,0,0,0,0,0,0,0,0,0,419,0,403,0,0,0,0,404,0,0,0,0,405,0,0,0,0,404,0,0,0,0,403,0,0,0,0,404,0,0,0,0,405,0,0,0,0,404,0,0,0,0,403,0,0,0,0,404,0,0,0,0,405,0,0,0,0,404,0,0,0,0,403,0,0,0,0,404,0,0,0,0,0,0,0,0,0,499,0,268,0,0,0,0,0,0,0,0,0,0,0,0,0,0,0,0,0,0,0,0,0,0,0,0,0,0,0,0,0,0,0,0,0,0,0,0,0,0,0,0,0,0,0,0,0,0,0,0,0,0,0,0,0,0,0,0,0,0,0,0,0,0,0,0,0,0,0,0,0,0,0,0,0,0,0,0,0,0,0,0,0,0,0,506,0,0,0,0,0,0,0,0,263,0,0,0,0,0,0,0,0,0,0,0,0,0,0,0,0,0,0,0,0,0,0,0,0,0,0,0,0,0,0,0,0,0,0,0,0,0,0,0,0,0,0,0,0,0,0,0,0,0,0,0,0,0,0,0,0,0,0,0,0,0,0,0,0,0,0,0,0,0,0,0,0,0,0,0,0,0,0,0,0,0,0,0,0,0,0,0,0,0,0,0,0,0,0,0,0,0,464,0,0,0,0,0,0,0,0,
0,0,0,0,0,0,0,0,0,0,0,0,0,0,0,0,0,0,0,0,0,0,0,0,0,0,0,0,0,0,0,0,0,0,301,0,0,0,0,0,0,0,0,0,0,0,0,0,0,0,0,0,0,0,0,0,0,0,0,0,0,0,0,0,0,0,0,0,0,331,0,0,0,0,0,0,0,0,0,0,0,0,0,0,331,0,0,0,0,0,0,0,0,0,0,0,0,0,0,331,0,0,0,0,0,0,0,0,0,0,0,0,0,0,0,0,0,0,0,0,0,0,0,0,0,0,0,0,0,0,0,0,0,0,0,0,0,0,0,0,0,0,0,0,0,0,0,0,0,0,0,0,0,0,0,0,0,0,0,0,0,0,0,0,0,0,0,0,0,0,0,0,0,0,0,0,0,0,0,0,0,0,0,0,0,0,0,0,0,0,0,0,0,0,0,0,0,0,0,0,0,0,0,0,0,0,0,0,0,0,0,0,0,0,0,0,0,0,0,0,0,0,0,0,0,0,0,0,0,0,0,0,0,0,0,0,0,0,0,0,0,0,0,0,0,273,0,0,0,0,0,0,0,0,0,0,0,0,0,0,0,0,0,0,0,0,0,0,0,0,0,0,0,0,0,0,0,305,0,0,0,0,0,0,0,0,0,0,0,0,0,0,0,0,0,0,0,0,0,0,0,0,0,0,0,0,0,0,0,0,0,0,0,0,0,0,0,0,0,0,0,0,0,0,0,0,279,0,0,0,433,0,0,0,0,0,0,0,0,0,0,0,448,0,446,0,433,0,0,0,0,0,0,0,448,0,446,0,433,0,0,0,0,0,0,0,0,0,0,0,0,0,0,0,0,0,0,0,0,0,0,0,0,0,0,0,0,0,0,0,0,0,0,0,0,0,0,0,0,0,0,0,0,0,0,0,0,0,0,0,0,0,0,0,0,0,0,0,0,0,0,0,0,0,0,0,0,0,0,0,0,0,0,0,0,0,0,0,0,0,0,0,0,0,0,0,0,0,0,0,0,0,0,0,0,0,0,0,0,0,0,0,0,0,0,0,0,0,0,0,0,0,0,0,0,0,0,0,0,0,0,0,0,0,0,0,0,0,0,0,0,0,0,0,0,0,418,0,402,0,386,0,0,0,0,0,0,0,0,418,0,402,0,386,0,0,0,0,0,0,0,0,0,0,0,0,0,0,0,0,0,0,0,0,0,0,0,302,0,0,0,0,0,302,0,0,0,0,0,0,0,0,0,0,0,0,0,0,0,0,0,0,330,0,0,0,0,0,0,265,0,0,308,0,0,0,0,0,0,0,0,0,0,0,0,0,0,0,0,0,0,0,0,0,0,0,0,0,0,0,0,0,0,0,0,0,0,0,0,0,0,0,0,0,0,0,0,0,0,0,0,0,0,0,0,0,0,0,0,0,308,0,0,0,0,0,0,0,0,330,0,0,0,0,267,0,0,0,0,0,0,0,0,0,0,0,0,0,0,0,0,0,0,0,0,0,0,0,0,0,0,0,0,0,0,0,0,0,0,0,0,0,0,0,0,0,311,0,0,0,0,0,0,0,0,0,0,0,0,0,0,301,0,0,0,0,0,0,0,0,0,0,0,0,0,0,0,0,0,0,301,0,0,0,0,0,0,0,0,0,0,0,0,0,0,0,0,0,0,0,0,0,0,0,0,0,0,0,0,0,0,0,0,0,0,0,0,0,311,0,0,0,0,0,0,0,0,0,0,0,0,0,0,0,0,0,0,0,0,0,0,0,0,0,0,311,0,0,0,0,0,0,0,363,0,0,0,0,0,0,0,0,0,0,0,0,0,0,0,0,0,0,0,0,0,404,0,0,0,0,403,0,0,0,0,402,0,0,0,0,403,0,0,0,0,0,0,0,0,0,0,0,0,0,0,0,0,0,0,0,0,0,0,0,0,0,0,0,299,0,0,0,300,0,0,0,0,0,0,0,0,0,0,0,0,0,0,0,0,0,0,0,0,0,0,0,0,0,0,0,0,0,0,0,0,0,0,0,0,0,0,0,0,0,0,0,0,0,0,0,0,0,0,0,0,0,0,0,0,0,0,0,0,0,0,0,0,0,0,0,0,0,481,0,0,0,0,0,0,0,0,0,0,0,0,0,0,0,0,0,0,0,0,0,0,0,0,0,0,0,0,0,0,0,0,0,0,0,0,0,0,0,0,0,0,0,0,0,0,0,0,0,0,0,0,0,0,0,0,0,0,0,0,0,0,0,0,0,0,0,0,0,0,0,0,0,0,0,0,0,0,0,0,0,0,0,0,0,0,0,0,0,0,0,0,0,0,0,0,0,0,0,0,0,0,0,0,0,0,0,0,0,0,0,0,0,0,0,300,0,0,0,0,0,0,0,0,0,0,0,0,0,0,0,0,0,0,0,0,0,0,0,0,0,0,0,0,0,0,0,0,0,0,0,0,0,0,0,0,0,0,0,0,0,0,0,0,0,0,0,0,0,0,0,0,0,0,0,0,0,0,0,0,0,0,0,0,0,0,0,0,0,0,0,0,0,0,0,0,0,0,0,0,0,0,0,0,0,0,0,0,0,0,0,0,0,0,0,0,0,0,0,0,0,0,0,0,0,0,
0,0,0,0,0,0,0,0,0,0,0,0,0,0,0,0,0,0,0,0,0,0,0,0,0,0,0,0,0,0,0,0,0,0,0,0,0,0,0,331,0,0,0,0,0,0,0,0,0,0,0,0,0,0,0,0,0,0,0,0,0,0,0,0,0,0,0,0,0,0,0,0,0,0,0,0,0,0,0,0,0,0,0,0,0,0,0,0,0,0,0,0,0,0,0,0,0,0,0,0,0,0,0,0,0,0,0,0,0,0,0,0,331,0,0,0,0,0,0,0,0,0,0,0,317,0,0,0,0,0,0,0,0,0,0,0,0,0,0,0,0,0,0,0,0,331,0,0,0,0,0,0,0,0,0,0,0,0,0,0,0,0,0,0,0,0,0,0,0,0,0,0,0,0,0,0,0,0,0,0,0,0,0,0,0,0,0,0,0,0,0,0,0,0,0,0,0,0,0,0,0,0,0,0,0,0,0,0,0,0,0,0,0,0,0,0,0,0,0,0,0,0,0,0,0,0,0,0,273,0,0,0,0,0,0,0,0,0,0,0,0,0,0,0,0,0,0,0,0,0,0,0,0,0,0,0,0,0,0,305,0,0,0,0,0,0,0,0,0,0,0,0,0,0,0,0,0,0,0,0,0,0,0,400,0,395,0,0,0,0,0,0,400,0,395,0,0,0,0,0,0,0,400,0,395,0,0,0,0,0,0,400,0,395,0,0,0,0,0,0,0,400,0,396,302,0,0,0,302,0,477,0,0,0,0,0,0,0,0,0,0,0,418,0,402,0,386,0,0,0,0,0,0,0,418,0,402,0,386,0,0,0,0,0,0,0,0,0,0,0,0,0,0,0,0,0,0,0,0,0,0,0,0,0,0,0,0,0,0,0,0,0,0,0,0,0,0,0,0,0,0,0,0,0,0,0,0,0,0,0,0,0,0,0,0,0,0,0,0,0,0,0,0,0,0,0,0,0,0,0,0,0,0,0,0,0,0,448,0,446,0,433,0,0,0,0,0,0,0,0,448,0,446,0,433,0,0,0,0,0,0,0,0,0,264,0,0,0,0,273,0,0,0,0,0,0,0,0,0,0,0,0,0,0,0,0,0,0,0,0,0,0,0,0,0,0,257,0,0,0,0,0,0,0,0,0,0,0,0,0,0,0,0,0,0,0,0,0,0,302,0,0,0,0,0,302,0,0,0,0,0,0,0,330,0,0,0,0,0,0,0,0,0,0,0,0,0,0,0,0,0,0,0,0,0,0,0,0,0,0,0,0,0,0,0,0,0,0,0,0,0,0,0,0,0,0,0,330,0,0,0,0,0,0,0,0,0,0,0,0,0,0,0,0,0,0,0,0,0,0,0,0,0,308,0,0,0,0,0,0,0,308,0,0,0,0,0,0,0,0,0,0,0,0,0,308,0,0,0,0,0,0,0,0,0,0,0,0,0,0,0,0,0,0,0,0,0,0,0,0,0,0,0,0,276,0,0,0,0,0,0,0,0,0,301,0,0,0,0,0,0,0,0,0,0,262,0,0,0,0,0,0,0,301,0,0,0,0,0,0,268,0,0,0,0,0,0,0,0,0,0,0,0,0,0,0,0,0,0,0,0,0,267,0,0,0,0,0,0,0,0,0,0,300,0,0,0,0,0,0,0,0,0,0,0,0,0,0,0,0,0,0,0,0,0,0,0,0,0,0,0,0,0,0,0,0,0,0,0,0,0,0,0,0,0,0,0,0,0,0,311,0,0,0,0,0,0,0,0,0,0,0,0,0,0,0,0,0,0,0,0,0,0,0,0,0,0,0,0,0,0,0,0,418,0,402,0,0,0,0,403,0,0,0,0,302,0,0,0,0,0,0,0,0,0,0,0,0,0,0,0,0,0,0,0,0,0,0,0,0,0,0,0,0,0,0,0,0,0,0,0,0,0,0,0,0,0,0,0,0,0,0,0,0,0,0,0,0,0,0,0,0,0,0,0,0,0,0,0,0,0,0,0,0,0,0,0,0,0,0,0,0,0,0,0,0,0,0,0,0,0,0,0,0,0,0,0,0,0,0,0,0,0,0,0,0,0,0,0,0,0,0,0,0,0,0,0,0,0,0,0,0,0,0,0,0,0,0,0,0,0,0,0,0,0,0,0,0,0,0,0,0,0,0,0,0,0,0,0,0,0,0,0,0,0,0,0,0,0,0,0,0,0,0,0,0,0,0,0,0,0,0,0,0,0,0,0,0,276,0,0,0,0,0,0,0,0,0,0,0,0,0,0,0,0,0,0,0,0,0,0,0,0,0,0,0,0,0,0,0,0,0,0,0,0,0,0,0,0,0,0,0,0,0,0,0,0,0,0,0,0,0,0,0,0,0,0,0,0,0,0,0,0,0,0,0,0,0,0,0,0,0,0,0,0,0,0,0,0,0,0,0,0,0,0,0,0,0,0,0,0,0,0,0,0,0,0,0,0,0,0,0,0,0,0,0,0,0,0,0,0,0,0,0,0,0,0,0,0,0,0,0,0,0,0,0,0,0,0,0,0,0,0,0,0,0,0,0,0,0,0,0,0,0,0,0,0,0,0,0,0,0,0,0,0,0,0,0,0,0,0,0,0,0,0,0,0,0,0,
0,0,0,0,0,0,0,0,0,0,0,0,0,0,0,0,0,0,0,0,0,0,0,0,0,0,0,0,331,0,0,0,0,0,0,0,0,0,0,0,0,0,0,0,0,0,0,0,0,0,0,0,0,0,0,0,0,0,0,0,0,0,0,0,0,0,0,0,0,0,0,0,0,0,0,0,0,0,0,0,0,0,0,0,0,0,0,0,0,0,0,0,0,0,0,0,0,0,0,0,0,0,0,0,0,0,317,0,0,0,0,0,0,0,0,0,0,0,0,0,0,0,0,0,0,0,0,0,0,0,0,0,0,0,0,0,0,0,0,0,0,0,0,0,0,0,0,0,0,0,0,0,0,0,0,0,0,0,0,0,0,0,0,0,0,0,0,0,0,0,0,0,0,0,0,0,0,0,0,0,0,0,0,0,0,0,0,0,0,0,0,0,0,0,0,0,0,0,0,0,0,0,0,0,0,0,0,0,0,0,0,0,0,0,0,0,0,0,0,0,0,0,0,0,0,0,0,0,0,0,0,0,0,0,0,0,0,0,0,0,0,0,0,0,0,0,0,0,0,0,0,0,300,0,0,0,0,0,411,0,395,0,0,400,0,395,0,0,0,0,0,0,300,400,0,395,0,0,0,0,0,0,0,0,0,0,0,0,0,0,0,0,0,0,0,0,0,0,0,0,0,0,0,0,0,0,0,0,0,0,0,0,0,0,0,0,0,0,0,0,0,444,0,0,0,0,0,0,0,0,0,0,300,0,0,0,499,0,0,0,0,0,0,0,0,0,0,0,0,0,0,0,0,0,0,0,0,0,0,0,0,0,0,0,0,0,0,0,0,0,0,0,0,0,302,0,0,0,0,0,0,0,0,0,0,0,0,0,0,0,0,0,0,0,0,0,0,0,0,0,0,0,0,0,0,0,0,0,0,0,0,0,0,0,0,0,0,0,0,0,0,0,0,0,0,0,0,0,0,0,0,0,0,0,0,0,0,418,0,402,0,386,0,0,0,0,0,0,0,0,418,266,402,0,386,0,0,0,0,0,0,0,0,448,0,446,0,433,0,0,0,0,0,448,0,446,0,433,0,0,0,0,0,0,448,0,446,0,433,0,0,0,0,0,0,0,0,0,0,0,0,0,0,0,0,0,0,0,0,0,0,0,0,0,0,0,0,0,0,0,0,0,0,0,0,0,0,0,0,0,0,330,0,0,0,0,0,0,0,0,0,0,0,0,0,0,0,0,0,0,0,0,0,0,0,0,0,0,0,0,0,0,0,0,0,0,0,0,0,0,0,0,0,0,0,0,0,0,0,302,0,0,301,0,0,302,0,0,0,0,0,0,0,0,0,0,0,0,0,0,0,0,0,0,0,0,0,0,0,0,0,0,0,0,0,0,0,0,0,0,0,0,0,0,0,0,0,0,0,0,0,0,0,0,0,0,0,0,0,0,0,0,0,0,0,0,311,0,0,0,0,0,0,0,0,0,0,0,0,311,0,0,0,0,0,0,0,0,0,0,0,0,0,0,0,0,0,0,0,0,0,0,0,0,0,0,0,0,0,0,0,0,0,0,0,0,0,0,0,0,0,0,0,0,0,0,0,0,0,0,0,0,0,0,0,0,0,0,0,0,0,0,0,0,0,0,0,0,0,0,0,311,0,0,0,0,0,0,0,0,0,0,0,0,0,0,0,0,0,311,0,0,0,0,0,0,0,0,0,0,0,0,0,0,0,0,0,0,0,0,0,0,0,0,0,0,0,0,0,0,0,0,0,0,0,0,0,0,0,0,311,0,0,0,0,0,300,0,0,0,0,0,0,492,491,475,0,0,0,0,0,0,0,0,0,0,0,0,0,0,0,0,0,0,0,0,0,0,0,0,0,0,0,0,0,0,0,0,0,0,0,0,0,0,0,0,0,0,0,0,0,0,0,0,0,0,0,0,0,0,0,0,0,0,0,0,0,0,0,0,0,0,0,0,0,0,0,0,0,0,0,0,0,0,0,0,0,0,0,0,0,0,0,0,0,0,0,0,0,0,0,0,0,0,0,0,0,0,0,0,0,0,0,0,0,0,0,0,0,0,0,0,0,0,0,0,0,0,0,0,0,0,0,0,0,0,0,0,0,0,0,0,0,0,0,0,0,0,0,0,0,0,0,0,0,0,0,0,0,0,0,0,0,0,0,0,0,0,0,0,0,0,0,0,0,0,0,0,0,0,0,0,0,0,0,0,0,0,0,0,0,0,0,0,0,0,0,0,0,0,0,0,0,0,0,0,0,0,0,0,0,0,0,0,0,0,0,0,0,0,0,0,0,0,0,0,0,0,0,0,0,0,0,0,0,0,0,0,0,0,0,0,0,0,0,0,0,0,0,0,0,0,0,0,0,0,0,0,0,0,0,0,0,0,0,0,0,0,0,0,0,0,0,0,0,0,0,0,0,0,0,0,0,0,0,0,0,0,0,339,339,339,0,0,0,0,0,0,0,0,0,0,0,0,0,0,0,0,0,0,0,0,0,0,0,0,0,0,0,0,0,0,0,0,0,0,0,0,0,0,0,0,0,0,0,0,0,0,0,0,0,0,0,0,0,0,0,0,0,0,0,0,0,0,0,0,0,0,0,
0,0,0,0,0,0,0,0,0,0,0,0,0,0,0,0,0,0,0,331,0,0,0,0,0,0,0,0,0,0,0,0,0,0,0,0,0,0,0,0,0,0,0,0,0,0,0,0,302,0,0,0,0,0,0,0,0,0,0,0,0,0,0,0,0,0,0,0,0,0,0,0,0,0,0,0,0,0,0,0,0,0,0,0,0,0,0,0,0,0,0,0,0,0,0,0,0,280,0,0,0,0,0,0,0,0,0,0,0,0,0,0,0,0,0,0,0,0,0,0,0,0,0,0,0,0,0,0,0,0,0,0,0,0,0,0,0,317,0,0,0,0,0,0,0,0,0,0,0,0,0,0,0,0,257,0,0,0,0,0,0,0,0,0,0,0,0,0,0,0,364,0,0,0,0,0,0,0,0,0,0,0,0,0,312,0,0,0,0,0,0,0,0,0,0,0,0,0,0,0,0,0,0,0,0,0,0,0,0,0,0,0,0,0,0,0,0,0,0,0,0,0,0,0,0,0,0,0,0,0,0,0,0,0,0,0,0,0,0,261,0,295,0,0,0,0,0,0,0,0,0,0,0,0,0,0,0,0,491,0,475,0,0,0,0,0,0,0,0,0,0,0,0,0,0,0,0,0,0,0,0,0,0,0,0,0,0,0,301,0,0,0,305,0,0,300,299,0,0,0,0,0,0,0,0,0,0,0,0,0,0,0,0,0,0,0,0,0,276,0,0,476,0,0,0,0,0,0,0,0,0,0,0,0,0,0,0,0,0,0,0,0,0,0,0,0,0,0,0,0,0,0,0,0,0,0,0,0,0,0,0,0,0,0,0,0,0,0,0,0,0,0,0,0,0,0,0,0,0,0,0,0,0,0,0,0,0,0,0,0,0,0,0,0,0,0,0,0,0,0,0,0,0,0,0,0,0,0,0,0,0,0,0,0,0,0,0,0,0,0,0,345,0,0,0,0,0,0,0,0,0,0,0,0,0,0,0,0,0,0,0,0,0,0,0,300,0,0,0,0,0,0,0,0,0,0,0,0,0,0,0,0,0,418,0,402,0,386,0,0,0,0,0,418,0,402,0,386,0,0,0,0,0,0,418,0,402,0,386,0,0,0,0,0,0,0,0,0,339,0,0,0,0,0,0,0,0,0,0,0,0,0,0,0,0,0,0,0,0,0,0,0,0,0,0,0,0,0,0,330,0,0,0,0,0,0,0,0,0,0,0,0,0,0,0,0,0,0,0,0,0,0,0,0,330,0,0,0,0,0,0,0,0,0,0,0,0,0,0,0,0,0,0,0,0,0,0,0,0,0,0,0,0,0,0,0,0,0,0,0,0,0,0,0,0,0,0,0,0,0,0,0,0,0,0,0,0,0,0,0,0,0,0,0,0,0,0,0,0,0,0,0,0,0,0,0,0,0,0,0,0,0,0,0,0,0,0,0,0,0,0,0,0,0,0,0,0,0,0,0,0,0,0,0,0,0,0,0,0,0,0,0,0,0,0,0,0,0,0,0,0,0,0,0,0,0,311,0,0,0,0,0,0,0,0,0,0,0,0,0,0,0,0,0,0,0,0,0,0,0,0,0,0,0,0,0,0,0,0,0,0,0,0,0,0,0,0,0,0,0,0,0,0,0,0,0,0,0,0,0,0,0,0,0,0,0,0,0,0,0,0,0,0,0,0,0,0,0,0,0,0,0,0,0,0,0,0,0,0,0,0,0,0,0,0,0,0,0,0,0,0,0,0,0,0,0,0,0,0,0,0,0,0,0,0,0,0,0,0,0,0,0,0,0,0,0,0,0,0,301,0,0,300,0,0,0,300,0,0,301,0,0,0,0,0,0,0,0,0,0,0,0,0,0,0,0,0,0,0,0,0,0,0,0,0,0,0,0,0,0,0,0,0,0,0,0,0,0,0,0,0,0,0,0,0,0,0,0,0,0,0,0,0,0,0,0,0,0,0,0,0,0,0,0,0,0,0,0,0,0,0,0,0,0,0,0,0,0,0,0,0,0,0,0,0,0,0,0,0,0,0,0,0,0,0,0,0,0,0,0,0,0,0,0,0,0,0,0,0,0,0,0,0,0,0,0,0,0,0,0,0,0,0,0,0,0,0,0,0,0,0,0,0,0,0,0,0,0,0,0,0,0,0,0,0,0,0,0,0,0,0,0,0,0,0,0,0,0,0,0,0,0,0,0,0,0,0,0,0,0,0,0,0,0,0,0,0,0,0,0,0,0,0,0,0,0,0,0,0,0,0,0,0,0,0,0,0,0,0,0,0,0,0,0,0,0,0,0,0,0,0,0,0,0,0,0,0,0,0,0,0,0,0,0,0,0,0,0,0,0,0,0,0,0,0,0,0,0,0,0,0,0,0,0,0,0,0,0,0,0,0,0,0,0,0,0,0,0,0,0,0,0,0,0,0,0,0,0,0,0,0,0,0,0,0,0,0,0,0,0,0,0,0,0,0,0,0,0,0,0,0,0,0,0,0,0,0,0,0,0,0,0,0,0,0,0,0,0,0,0,0,0,0,0,0,0,0,0,0,0,0,0,0,0,0,0,0,0,0,0,0,0,0,0,0,0,0,0,0,0,0,0,0,0,0,0,0,0,0,
0,0,0,0,0,0,0,0,0,0,0,0,0,0,0,0,0,0,0,0,0,0,0,0,0,0,0,0,0,0,0,0,0,0,0,0,0,0,0,0,0,0,0,0,0,0,0,0,0,0,0,0,0,0,0,0,0,0,0,0,0,0,0,0,0,0,0,0,0,0,0,0,0,0,0,0,0,0,0,0,317,0,0,317,0,0,0,271,402,0,0,0,0,0,0,0,0,0,0,0,0,0,0,0,0,0,0,429,0,413,0,0,0,0,0,0,0,0,0,0,0,0,0,0,0,0,428,0,412,0,0,0,0,0,0,0,0,0,0,0,0,0,269,0,0,0,0,0,0,0,0,0,0,0,277,0,0,0,0,0,0,0,0,0,0,0,278,0,0,0,0,0,0,0,0,0,266,0,0,0,0,0,443,0,0,0,0,0,0,0,0,0,0,0,0,0,0,312,0,0,0,0,0,0,0,0,0,0,0,0,0,0,0,0,0,0,0,0,0,312,0,0,0,0,0,0,0,0,0,0,0,0,0,0,0,0,0,0,0,0,0,0,0,0,0,0,0,0,0,0,0,0,0,0,400,0,395,0,0,0,0,0,268,0,0,0,0,268,0,0,0,0,0,0,0,0,0,0,0,0,0,0,0,0,0,0,0,0,0,0,0,0,0,0,0,0,0,0,0,0,0,0,0,0,0,300,0,0,0,0,0,0,0,297,0,0,0,0,0,0,0,0,0,0,0,0,0,0,0,0,0,0,0,0,0,0,0,0,0,0,0,0,0,0,0,0,0,0,0,0,0,0,0,0,0,0,0,0,0,0,0,0,0,0,0,0,0,0,0,0,0,0,0,0,0,0,0,0,0,0,0,0,0,0,0,0,0,0,0,0,0,0,0,0,0,0,0,0,0,0,0,0,0,0,0,0,0,0,0,0,0,0,0,0,0,0,0,0,0,0,0,0,0,0,0,0,0,0,0,0,0,0,0,0,0,0,0,0,0,0,0,0,0,0,0,0,0,0,0,0,0,0,0,0,0,0,318,0,317,0,0,0,0,317,0,318,0,0,0,0,0,0,0,0,0,0,0,0,0,0,301,0,0,0,0,0,0,0,0,0,0,0,0,0,0,0,0,0,0,0,0,0,0,0,0,0,0,0,0,0,0,0,0,0,0,0,0,0,0,0,0,0,0,0,0,0,0,0,0,0,0,0,0,0,0,0,0,0,0,0,0,0,0,0,0,0,0,0,0,0,0,0,0,0,0,0,0,0,0,0,0,0,0,0,0,0,0,0,0,330,0,0,0,0,0,0,0,0,0,0,0,0,0,0,0,0,0,0,0,0,0,0,0,0,0,0,0,0,0,0,0,0,0,0,0,0,0,0,0,0,0,0,0,0,0,0,0,0,0,0,0,0,0,0,0,0,0,0,0,0,0,0,0,0,0,0,0,0,0,0,0,0,0,0,0,0,0,0,0,0,0,0,0,0,0,0,0,0,0,0,0,0,0,0,0,0,0,0,0,0,0,0,0,0,0,0,0,0,0,0,0,0,0,0,0,0,0,0,0,0,0,0,0,0,0,0,0,0,0,0,0,0,0,0,0,0,0,0,0,0,0,0,0,0,0,0,0,0,0,0,0,0,0,0,0,0,0,0,0,0,0,0,0,0,0,0,0,0,0,0,0,0,0,0,0,0,0,0,0,0,0,0,0,0,0,0,0,0,0,0,0,0,0,0,0,0,0,0,0,0,0,0,0,0,0,0,0,0,0,0,0,0,0,0,0,0,0,0,0,0,0,0,0,0,0,0,0,0,0,0,0,0,0,0,0,0,0,0,0,0,0,0,0,0,0,0,0,0,0,0,0,0,0,0,0,0,0,0,0,0,0,0,0,0,0,0,0,0,0,0,0,0,0,0,0,0,0,0,0,0,0,0,0,0,0,0,0,0,0,0,0,0,0,0,0,0,0,0,0,0,0,0,0,0,0,0,0,0,0,0,0,0,0,0,0,0,0,0,0,0,0,0,0,0,0,0,0,0,0,0,0,0,0,0,0,0,0,0,0,0,0,0,0,0,0,0,0,0,0,0,0,0,0,0,0,0,0,0,0,0,0,0,0,0,0,0,0,0,0,0,0,0,0,0,0,0,0,0,0,0,0,0,0,0,0,0,0,0,0,0,0,0,0,0,0,0,0,0,0,0,0,0,0,0,0,0,0,0,0,0,0,0,0,0,0,0,0,0,0,0,0,0,0,0,0,0,0,0,0,0,0,0,0,0,0,0,0,0,0,0,0,0,0,0,0,0,0,0,0,0,0,0,0,0,0,0,0,0,0,0,0,0,0,0,0,0,0,0,0,0,0,0,0,0,0,0,0,0,0,0,0,0,0,0,0,0,0,0,0,0,0,0,0,0,0,0,0,0,0,0,0,0,0,0,0,0,0,0,0,0,0,0,0,0,0,0,0,0,0,0,0,0,0,0,0,0,0,0,0,0,0,0,0,0,0,0,0,0,0,0,0,0,0,0,0,0,0,0,0,0,0,0,0,0,0,0,0,0,0,0,0,0,0,0,0,0,0,0,0,0,0,0,0,0,0,0,0,0,0,0,0,0,0,0,0,0,0,0,0,
0,0,0,0,0,0,0,0,0,0,0,0,0,0,0,0,0,0,0,0,0,257,0,0,0,0,0,0,0,0,0,0,0,0,0,0,0,0,0,0,0,0,0,0,0,0,0,0,0,0,0,301,0,0,301,0,0,0,0,0,281,0,0,0,0,0,0,0,0,0,419,0,403,0,0,0,0,0,0,0,0,0,0,0,0,0,0,0,282,0,0,0,0,0,0,0,0,0,0,0,0,0,0,0,0,0,0,0,0,0,0,0,0,0,0,268,0,0,0,0,0,301,0,0,0,0,0,0,0,0,0,0,0,0,0,0,0,0,0,0,0,0,0,0,0,0,0,0,0,0,0,0,0,0,0,0,0,0,0,0,0,301,0,0,427,411,395,0,0,0,0,0,443,0,448,0,443,0,448,0,433,0,491,0,0,0,400,0,395,0,0,0,0,0,0,0,400,0,395,0,0,0,0,0,0,400,0,395,0,0,0,0,0,0,0,400,0,395,0,0,0,0,0,0,0,400,0,395,0,0,0,0,0,0,400,0,395,0,0,0,0,0,0,0,400,0,395,0,0,0,0,0,0,0,0,0,0,0,0,0,0,0,0,0,0,0,0,0,0,0,0,0,0,0,0,0,0,0,0,0,0,0,0,0,0,0,0,0,0,0,0,0,0,0,0,0,0,0,0,0,0,0,0,0,0,0,0,0,300,0,0,0,0,0,0,0,0,0,0,0,0,0,0,0,0,0,0,0,0,0,0,0,0,0,0,0,0,0,0,0,0,0,0,0,0,0,0,0,0,0,0,0,0,0,0,0,0,0,0,0,0,0,0,0,0,0,0,0,0,0,0,0,0,0,0,0,0,0,0,0,0,0,0,0,0,0,0,0,0,0,0,0,0,0,0,0,0,0,0,0,0,0,0,0,0,0,0,0,0,0,0,0,0,0,0,0,0,0,0,0,0,0,0,0,302,0,0,267,0,0,0,0,0,0,0,0,0,0,0,0,0,0,0,0,0,0,0,0,0,0,0,0,0,0,0,0,0,0,0,0,0,0,0,0,0,0,0,0,0,0,0,0,0,0,0,0,0,0,0,0,0,0,0,0,0,0,0,0,0,0,0,0,0,0,0,0,0,0,0,0,0,0,0,0,0,0,0,0,0,0,0,0,0,0,0,0,0,0,0,0,0,0,0,0,0,0,0,0,0,0,0,0,0,0,0,0,0,0,0,0,0,0,0,0,0,0,0,0,0,0,0,0,0,0,0,0,0,0,0,0,0,0,0,0,0,0,0,0,0,0,0,0,0,0,0,0,0,0,0,0,0,0,0,0,0,0,0,0,0,0,0,0,0,0,0,0,0,0,0,0,0,0,0,0,0,0,0,0,0,0,0,0,0,0,0,0,0,0,0,0,0,0,0,0,0,0,0,0,0,0,0,0,0,0,0,0,0,0,0,0,0,0,0,0,0,0,0,0,0,0,0,0,0,0,0,0,0,0,0,0,0,0,0,0,0,0,0,0,0,0,0,0,0,0,0,0,0,0,0,0,0,0,0,0,0,0,0,0,0,0,0,0,0,0,0,0,0,0,0,0,0,0,0,0,0,0,0,0,0,0,0,0,0,0,0,0,0,0,0,0,0,0,0,0,0,0,0,0,0,0,0,0,0,0,0,0,0,0,0,0,0,0,0,0,0,0,0,0,0,0,0,0,0,0,0,0,0,0,0,0,0,0,0,0,0,0,0,0,0,0,0,0,0,0,0,0,0,0,0,0,0,0,0,0,0,0,0,0,0,0,0,0,0,0,0,0,0,0,0,0,0,0,0,0,0,0,0,0,0,0,0,0,0,0,0,0,0,0,0,0,0,0,0,0,0,0,0,0,0,0,0,0,0,0,0,0,0,0,0,0,0,0,0,0,0,0,0,0,0,0,0,0,0,0,0,0,0,0,0,0,0,0,0,0,0,0,0,0,0,0,0,0,0,0,0,0,0,0,0,0,0,0,0,0,0,0,0,0,0,0,0,0,0,0,0,0,0,0,0,0,0,0,0,0,0,0,0,0,0,0,0,0,0,0,0,0,0,0,0,0,0,0,0,0,0,0,0,0,0,0,0,0,0,0,0,0,0,0,0,0,0,0,0,0,0,0,0,0,0,0,0,0,0,0,0,0,0,0,0,0,0,0,0,0,0,0,0,0,0,0,0,0,0,0,0,0,0,0,0,0,0,0,0,0,0,0,0,0,0,0,0,0,0,0,0,0,0,0,0,0,0,0,0,0,0,0,0,0,0,0,0,0,0,0,0,0,0,0,0,0,0,0,0,0,0,0,0,0,0,0,0,0,0,0,0,0,0,0,0,0,0,0,0,0,0,0,0,0,0,0,0,0,0,0,0,0,0,0,0,0,0,0,0,0,0,0,0,0,0,0,0,0,0,0,0,0,0,0,0,0,0,0,0,0,0,0,0,0,0,0,0,0,0,0,0,0,0,0,0,0,0,0,0,0,0,0,0,0,0,0,0,0,0,0,0,0,0,0,0,0,0,0,0,0,0,0,0,0,0,0,0,0,0,0,0,0,0,0,0,0,0,0,0,0,0,0,0,0,0,0,0,0,0,0,0,0,0,0,0,
0,0,0,0,0,0,0,0,0,0,0,0,0,0,0,0,0,0,0,0,0,0,0,0,397,0,0,0,0,0,0,413,0,0,0,0,0,0,0,302,0,0,0,301,0,0,0,268,0,0,402,0,0,0,0,0,0,302,0,0,0,0,0,0,0,0,0,0,0,0,0,0,0,0,0,0,0,0,0,0,0,0,0,0,0,0,0,0,0,0,0,0,0,0,0,0,0,0,0,0,0,0,301,0,0,0,0,0,0,0,0,268,0,0,0,0,0,0,0,0,0,0,0,0,267,267,0,0,0,0,276,0,0,0,0,0,0,0,0,301,0,0,0,0,0,0,427,0,411,268,0,0,0,0,0,0,0,0,0,0,0,0,0,0,464,0,0,0,0,0,0,0,0,0,0,0,0,0,411,0,427,0,411,0,395,0,0,0,0,0,0,312,0,0,0,0,0,0,0,0,0,0,0,312,0,0,0,0,0,0,0,0,0,0,0,0,0,0,0,0,0,0,0,0,0,312,0,0,0,0,0,0,0,0,0,0,0,0,0,0,0,0,0,0,0,0,0,0,0,0,0,0,0,0,0,0,0,0,0,0,0,0,0,0,0,0,0,0,0,0,0,0,0,0,0,0,0,0,0,0,0,0,0,0,0,0,0,0,0,0,0,0,0,0,0,0,0,0,0,0,0,0,0,0,0,0,0,0,0,0,0,0,0,0,0,0,0,0,0,0,0,0,0,0,0,0,0,0,0,0,0,0,0,0,0,0,0,0,0,0,0,0,0,0,0,0,0,0,0,0,0,0,0,0,0,0,0,0,0,0,0,0,0,0,0,0,0,0,0,0,0,0,0,0,0,0,0,0,0,0,0,0,0,0,0,0,0,0,0,0,0,0,0,0,0,0,0,0,0,0,0,0,0,0,0,0,0,0,0,0,0,0,0,0,0,0,0,0,0,0,0,0,0,0,0,0,0,0,0,0,0,0,0,0,0,0,0,0,0,0,0,0,0,0,0,0,0,0,0,0,0,0,0,0,0,0,0,0,0,0,0,0,0,0,0,0,0,0,0,0,0,0,0,0,0,0,0,0,0,0,0,0,0,0,0,0,0,0,0,0,0,0,0,0,0,0,0,0,0,0,0,0,0,0,0,0,0,0,0,0,0,0,0,0,0,0,0,0,0,0,0,0,0,0,0,0,0,0,0,0,0,0,0,0,0,0,0,0,0,0,0,0,0,0,0,0,0,0,0,0,0,0,0,0,0,0,0,0,0,0,0,0,0,0,0,0,0,0,0,0,0,0,0,0,0,0,0,0,0,0,0,0,0,0,0,0,0,0,0,0,0,0,0,0,0,0,0,0,0,0,0,0,0,0,0,0,0,0,0,0,0,0,0,0,0,0,0,0,0,0,0,0,0,0,0,0,0,0,0,0,0,0,0,0,0,0,0,0,0,0,0,0,0,0,0,0,0,0,0,0,0,0,0,0,0,0,0,0,0,0,0,0,0,0,0,0,0,0,0,0,0,0,0,0,0,0,0,0,0,0,0,0,0,0,0,0,0,0,0,0,0,0,0,0,0,0,0,0,0,0,0,0,0,0,0,0,0,0,0,0,0,0,0,0,0,0,0,0,0,0,0,0,0,0,0,0,0,0,0,0,0,0,0,0,0,0,0,0,0,0,0,0,0,0,0,0,0,0,0,0,0,0,0,0,0,0,0,0,0,0,0,0,0,0,0,0,0,0,0,0,0,0,0,0,0,0,0,0,0,0,0,0,0,0,0,0,0,0,0,0,0,0,0,0,0,0,0,0,0,0,0,0,0,0,0,0,0,0,0,0,0,0,0,0,0,0,0,0,0,0,0,0,0,0,0,0,0,0,0,0,0,0,0,0,0,0,0,0,0,0,0,0,0,0,0,0,0,0,0,0,0,0,0,0,0,0,0,0,0,0,0,0,0,0,0,0,0,0,0,0,0,0,0,0,0,0,0,0,0,0,0,0,0,0,0,0,0,0,0,0,0,0,0,0,0,0,0,0,0,0,0,0,0,0,0,0,0,0,0,0,0,0,0,0,0,0,0,0,0,0,0,0,0,0,0,0,0,0,0,0,0,0,0,0,0,0,0,0,0,0,0,0,0,0,0,0,0,0,0,0,0,0,0,0,0,0,0,0,0,0,0,0,0,0,0,0,0,0,0,0,0,0,0,0,0,0,0,0,0,0,0,0,0,0,0,0,0,0,0,0,0,0,0,0,0,0,0,0,0,0,0,0,0,0,0,0,0,0,0,0,0,0,0,0,0,0,0,0,0,0,0,0,0,0,0,0,0,0,0,0,0,0,0,0,0,0,0,0,0,0,0,0,0,0,0,0,0,0,0,0,0,0,0,0,0,0,0,0,0,0,0,0,0,0,0,0,0,0,0,0,0,0,0,0,0,0,0,0,0,0,0,0,0,0,0,0,0,0,0,0,0,0,0,0,0,0,0,0,0,0,0,0,0,0,0,0,0,0,0,0,0,0,0,0,0,0,0,0,0,0,0,0,0,0,0,0,0,0,0,0,0,0,0,0,0,0,0,0,0,0,0,0,0,0,0,0,0,0,0,0,0,0,0,0,0,0,0,0,0,
0,0,0,0,0,0,0,0,0,0,0,0,0,0,0,0,0,0,0,301,0,0,0,0,302,0,0,0,0,0,0,449,0,0,0,0,0,0,0,0,0,0,0,0,0,0,0,0,0,0,0,0,0,0,0,294,0,0,0,0,0,0,301,0,0,300,0,0,301,267,0,0,0,0,339,0,0,0,270,0,0,0,0,0,0,0,0,0,0,0,0,0,0,0,0,0,0,0,0,0,0,0,0,0,0,0,0,0,0,0,0,0,0,0,0,0,0,0,0,0,0,0,0,0,0,0,0,0,0,0,0,0,0,0,0,0,0,0,0,0,0,0,0,0,0,296,0,0,0,0,0,0,0,0,0,0,0,0,0,0,0,0,0,0,448,0,0,0,0,0,0,0,0,0,0,0,459,0,475,0,481,0,443,0,475,0,0,0,0,0,0,0,0,0,0,0,0,0,0,0,0,0,0,0,0,0,0,0,0,0,0,0,0,0,0,0,0,0,0,0,0,0,0,0,0,0,0,0,0,0,0,0,276,0,0,0,0,0,0,0,0,0,0,0,0,0,0,0,0,0,0,0,0,0,0,0,0,0,0,0,0,0,0,0,0,0,0,0,0,0,0,0,0,0,0,0,0,0,0,0,0,0,0,0,0,0,0,0,0,0,0,0,0,0,0,0,0,0,0,0,0,0,0,0,0,0,0,0,0,0,0,0,0,0,0,0,0,0,0,0,0,0,0,0,0,0,0,0,0,0,0,0,0,0,0,0,0,0,0,0,0,0,0,0,0,0,0,0,0,0,0,0,0,0,0,0,0,0,0,0,0,0,0,0,0,0,0,0,0,0,0,0,0,0,0,0,0,0,0,0,0,0,0,0,0,0,0,0,0,0,0,0,0,0,0,0,0,0,0,0,0,0,0,0,0,0,0,0,0,0,0,0,0,0,0,0,0,0,0,0,0,0,0,0,0,0,0,0,0,0,0,0,0,0,0,0,0,0,0,0,0,0,0,0,0,0,0,0,0,0,0,0,0,0,0,0,0,0,0,0,0,0,0,0,0,0,0,0,0,0,0,0,0,0,0,0,0,0,0,0,0,0,0,0,0,0,0,0,0,0,0,0,0,0,0,0,0,0,0,0,0,0,0,0,0,0,0,0,0,0,0,0,0,0,0,0,0,0,0,0,0,0,0,0,0,0,0,0,0,0,0,0,0,0,0,0,0,0,0,0,0,0,0,0,0,0,0,0,0,0,0,0,0,0,0,0,0,0,0,0,0,0,0,0,0,0,0,0,0,0,0,0,0,0,0,0,0,0,0,0,0,0,0,0,0,0,0,0,0,0,0,0,0,0,0,0,0,0,0,0,0,0,0,0,0,0,0,0,0,0,0,0,0,0,0,0,0,0,0,0,0,0,0,0,0,0,0,0,0,0,0,0,0,0,0,0,0,0,0,0,0,0,0,0,0,0,0,0,0,0,0,0,0,0,0,0,0,0,0,0,0,0,0,0,0,0,0,0,0,0,0,0,0,0,0,0,0,0,0,0,0,0,0,0,0,0,0,0,0,0,0,0,0,0,0,0,0,0,0,0,0,0,0,0,0,0,0,0,0,0,0,0,0,0,0,0,0,0,0,0,0,0,0,0,0,0,0,0,0,0,0,0,0,0,0,0,0,0,0,0,0,0,0,0,0,0,0,0,0,0,0,0,0,0,0,0,0,0,0,0,0,0,0,0,0,0,0,0,0,0,0,0,0,0,0,0,0,0,0,0,0,0,0,0,0,0,0,0,0,0,0,0,0,0,0,0,0,0,0,0,0,0,0,0,0,0,0,0,0,0,0,0,0,0,0,0,0,0,0,0,0,0,0,0,0,0,0,0,0,0,0,0,0,0,0,0,0,0,0,0,0,0,0,0,0,0,0,0,0,0,0,0,0,0,0,0,0,0,0,0,0,0,0,0,0,0,0,0,0,0,0,0,0,0,0,0,0,0,0,0,0,0,0,0,0,0,0,0,0,0,0,0,0,0,0,0,0,0,0,0,0,0,0,0,0,0,0,0,0,0,0,0,0,0,0,0,0,0,0,0,0,0,0,0,0,0,0,0,0,0,0,0,0,0,0,0,0,0,0,0,0,0,0,0,0,0,0,0,0,0,0,0,0,0,0,0,0,0,0,0,0,0,0,0,0,0,0,0,0,0,0,0,0,0,0,0,0,0,0,0,0,0,0,0,0,0,0,0,0,0,0,0,0,0,0,0,0,0,0,0,0,0,0,0,0,0,0,0,0,0,0,0,0,0,0,0,0,0,0,0,0,0,0,0,0,0,0,0,0,0,0,0,0,0,0,0,0,0,0,0,0,0,0,0,0,0,0,0,0,0,0,0,0,0,0,0,0,0,0,0,0,0,0,0,0,0,0,0,0,0,0,0,0,0,0,0,0,0,0,0,0,0,0,0,0,0,0,0,0,0,0,0,0,0,0,0,0,0,0,0,0,0,0,0,0,0,0,0,0,0,0,0,0,0,0,0,0,0,0,0,0,0,0,0,0,0,0,0,0,0,0,0,0,0,0,0,0,0,0,0,0,0,0,0,0,0,0,0,0,0,0,0,0,0,0,0,0,0,0,
301,0,0,0,302,0,0,0,301,0,0,0,302,0,0,0,0,0,0,0,0,0,0,0,0,0,0,0,0,300,0,0,0,0,0,267,0,0,0,0,0,0,0,0,0,0,0,0,0,0,0,0,0,0,0,0,0,0,0,0,0,0,0,0,0,0,0,0,0,0,0,0,0,0,0,0,0,0,0,0,0,0,0,0,0,0,0,0,0,0,0,0,0,0,0,0,0,0,0,0,0,0,0,0,0,0,0,0,0,0,0,0,0,0,0,0,0,0,0,0,0,0,0,0,0,0,0,0,0,0,0,0,0,0,0,0,0,0,0,0,0,0,0,0,0,0,0,0,0,0,0,0,0,0,0,0,0,0,0,0,0,0,0,0,0,0,0,0,0,0,0,0,0,0,0,0,0,0,0,0,0,0,0,0,0,0,0,0,0,0,0,0,0,0,0,0,0,0,0,0,0,0,0,0,0,0,0,0,0,0,0,0,0,0,0,0,0,0,0,0,0,0,0,0,0,0,0,0,0,0,0,0,0,0,0,0,0,0,0,0,0,0,0,0,0,0,0,0,0,0,0,0,0,0,0,0,0,0,0,0,0,0,0,0,0,0,0,0,0,0,0,0,0,0,0,0,0,0,0,0,0,0,0,0,0,0,0,0,0,0,0,0,0,0,0,0,0,0,0,0,0,0,0,0,0,0,0,0,0,0,0,0,0,0,0,0,0,0,0,0,0,0,0,0,0,0,0,0,0,0,0,0,0,0,0,0,0,0,0,0,0,0,0,0,0,0,0,0,0,0,0,0,0,0,0,0,0,0,0,0,0,0,0,0,0,0,0,0,0,0,0,0,0,0,0,0,0,0,0,0,0,0,0,0,0,0,0,0,0,0,0,0,0,0,0,0,0,0,0,0,0,0,0,0,0,0,0,0,0,0,0,0,0,0,0,0,0,0,0,0,0,0,0,0,0,0,0,0,0,0,0,0,0,0,0,0,0,0,0,0,0,0,0,0,0,0,0,0,0,0,0,0,0,0,0,0,0,0,0,0,0,0,0,0,0,0,0,0,0,0,0,0,0,0,0,0,0,0,0,0,0,0,0,0,0,0,0,0,0,0,0,0,0,0,0,0,0,0,0,0,0,0,0,0,0,0,0,0,0,0,0,0,0,0,0,0,0,0,0,0,0,0,0,0,0,0,0,0,0,0,0,0,0,0,0,0,0,0,0,0,0,0,0,0,0,0,0,0,0,0,0,0,0,0,0,0,0,0,0,0,0,0,0,0,0,0,0,0,0,0,0,0,0,0,0,0,0,0,0,0,0,0,0,0,0,0,0,0,0,0,0,0,0,0,0,0,0,0,0,0,0,0,0,0,0,0,0,0,0,0,0,0,0,0,0,0,0,0,0,0,0,0,0,0,0,0,0,0,0,0,0,0,0,0,0,0,0,0,0,0,0,0,0,0,0,0,0,0,0,0,0,0,0,0,0,0,0,0,0,0,0,0,0,0,0,0,0,0,0,0,0,0,0,0,0,0,0,0,0,0,0,0,0,0,0,0,0,0,0,0,0,0,0,0,0,0,0,0,0,0,0,0,0,0,0,0,0,0,0,0,0,0,0,0,0,0,0,0,0,0,0,0,0,0,0,0,0,0,0,0,0,0,0,0,0,0,0,0,0,0,0,0,0,0,0,0,0,0,0,0,0,0,0,0,0,0,0,0,0,0,0,0,0,0,0,0,0,0,0,0,0,0,0,0,0,0,0,0,0,0,0,0,0,0,0,0,0,0,0,0,0,0,0,0,0,0,0,0,0,0,0,0,0,0,0,0,0,0,0,0,0,0,0,0,0,0,0,0,0,0,0,0,0,0,0,0,0,0,0,0,0,0,0,0,0,0,0,0,0,0,0,0,0,0,0,0,0,0,0,0,0,0,0,0,0,0,0,0,0,0,0,0,0,0,0,0,0,0,0,0,0,0,0,0,0,0,0,0,0,0,0,0,0,0,0,0,0,0,0,0,0,0,0,0,0,0,0,0,0,0,0,0,0,0,0,0,0,0,0,0,0,0,0,0,0,0,0,0,0,0,0,0,0,0,0,0,0,0,0,0,0,0,0,0,0,0,0,0,0,0,0,0,0,0,0,0,0,0,0,0,0,0,0,0,0,0,0,0,0,0,0,0,0,0,0,0,0,0,0,0,0,0,0,0,0,0,0,0,0,0,0,0,0,0,0,0,0,0,0,0,0,0,0,0,0,0,0,0,0,0,0,0,0,0,0,0,0,0,0,0,0,0,0,0,0,0,0,0,0,0,0,0,0,0,0,0,0,0,0,0,0,0,0,0,0,0,0,0,0,0,0,0,0,0,0,0,0,0,0,0,0,0,0,0,0,0,0,0,0,0,0,0,0,0,0,0,0,0,0,0,0,0,0,0,0,0,0,0,0,0,0,0,0,0,0,0,0,0,0,0,0,0,0,0,0,0,0,0,0,0,0,0,0,0,0,0,0,0,0,0,0,0,0,0,0,0,0,0,0,0,0,0,0,0,0,0,0,0,0,0,0,0,0,0,0,0,0,0,0,0,0,0,0,0,0,0,0,0,0,0,0,0,0,0,0,0,0,0,0
</data>
 </layer>
</map>
